(Filename: hotrod_sign.ngc)
(Post processor: Xmotion_Gen3.scpost)
(Date: 21/07/2019)
G20 (Units: Inches)
M2000 V80
(Part: test)
(Operation: Outside Offset, 0, T1: Plasma, 0.029 in kerf)
G0
G0 X8.6068 Y7.6592
M2100 P0.1500 D1.5 C0.1750
M2001
G1 F42
G1 X8.6026 Y7.6387
G1 X8.5933 Y7.6201
G1 X8.5794 Y7.6044
G1 X8.5620 Y7.5929
G1 X8.5422 Y7.5863
G1 X8.5214 Y7.5850
G1 X8.4324 Y7.5913
G1 X8.2233 Y7.6080
G1 X8.0347 Y7.6260
G1 X7.9654 Y7.6341
G1 X7.8420 Y7.6524
G1 X7.7526 Y7.6736
G1 X7.7520 Y7.6738
G1 X7.7250 Y7.6841
G1 X7.7009 Y7.7002
G1 X7.6929 Y7.7127
G1 X7.6832 Y7.7441
G1 X7.6825 Y7.7504
G1 X7.6853 Y7.7567
G1 X7.6914 Y7.7598
G1 X7.6936 Y7.7602
G1 X7.7254 Y7.7652
G1 X7.7564 Y7.7661
G1 X7.8383 Y7.7630
G1 X7.9443 Y7.7545
G1 X8.0771 Y7.7414
G1 X8.2254 Y7.7255
G1 X8.8673 Y7.6523
G1 X9.1112 Y7.6236
G1 X9.2997 Y7.6001
G1 X9.5112 Y7.5721
G1 X9.6930 Y7.5453
G1 X9.8176 Y7.5241
G1 X9.8777 Y7.5110
G1 X9.8717 Y7.5106
G1 X9.8352 Y7.5102
G1 X9.7691 Y7.5111
G1 X9.6127 Y7.5170
G1 X9.1793 Y7.5422
G1 X8.6569 Y7.5755
G1 X8.5214 Y7.5850
G1 X8.5009 Y7.5892
G1 X8.4822 Y7.5985
G1 X8.4666 Y7.6124
G1 X8.4551 Y7.6298
G1 X8.4484 Y7.6496
G1 X8.4472 Y7.6705
M2002
M2101 P1 R1
G0
G0 X10.7983 Y7.1538
M2100 P0.1500 D1.5 C0.1750
M2001
G1
G1 X10.8022 Y7.1743
G1 X10.8112 Y7.1931
G1 X10.8249 Y7.2089
G1 X10.8421 Y7.2207
G1 X10.8619 Y7.2275
G1 X10.8827 Y7.2291
G1 X10.9451 Y7.2255
G1 X11.1356 Y7.2089
G1 X11.2086 Y7.1992
G1 X11.2672 Y7.1894
G1 X11.3175 Y7.1789
G1 X11.3597 Y7.1674
G1 X11.3851 Y7.1583
G1 X11.4035 Y7.1493
G1 X11.4153 Y7.1404
G1 X11.4160 Y7.1394
G1 X11.4105 Y7.1341
G1 X11.4088 Y7.1333
G1 X11.3779 Y7.1219
G1 X11.3294 Y7.1126
G1 X11.2590 Y7.1059
G1 X11.1684 Y7.1034
G1 X11.1093 Y7.1043
G1 X11.0486 Y7.1067
G1 X10.6943 Y7.1302
G1 X10.1902 Y7.1571
G1 X9.6412 Y7.1801
G1 X8.9639 Y7.2005
G1 X8.5079 Y7.2082
G1 X8.3730 Y7.2090
G1 X8.1709 Y7.2122
G1 X8.0088 Y7.2199
G1 X7.8919 Y7.2302
G1 X7.8033 Y7.2436
G1 X7.7543 Y7.2577
G1 X7.8223 Y7.2659
G1 X7.9607 Y7.2737
G1 X8.1774 Y7.2797
G1 X8.3988 Y7.2825
G1 X8.6493 Y7.2834
G1 X9.0331 Y7.2817
G1 X9.4942 Y7.2758
G1 X10.2518 Y7.2576
G1 X10.6651 Y7.2415
G1 X10.8827 Y7.2291
G1 X10.9032 Y7.2252
G1 X10.9220 Y7.2161
G1 X10.9378 Y7.2025
G1 X10.9496 Y7.1852
G1 X10.9565 Y7.1655
G1 X10.9580 Y7.1447
M2002
M2101 P1 R1
G0
G0 X11.5645 Y5.4524
M2100 P0.1500 D1.5 C0.1750
M2001
G1
G1 X11.5675 Y5.4731
G1 X11.5758 Y5.4923
G1 X11.5888 Y5.5086
G1 X11.6055 Y5.5211
G1 X11.6249 Y5.5288
G1 X11.6457 Y5.5312
G1 X11.6458
G1 X11.8294 Y5.5301
G1 X12.0460 Y5.5326
G1 X12.2376 Y5.5418
G1 X12.4581 Y5.5699
G1 X12.4586 Y5.5700
G1 X12.5525 Y5.5907
G1 X12.5530 Y5.5908
G1 X12.7231 Y5.6401
G1 X12.7913 Y5.6621
G1 X12.9315 Y5.7095
G1 X13.1019 Y5.7704
G1 X13.2059 Y5.8090
G1 X13.4012 Y5.8845
G1 X13.5206 Y5.9334
G1 X13.5806 Y5.9595
G1 X13.6561 Y5.9912
G1 X13.7531 Y6.0255
G1 X13.8523 Y6.0529
G1 X13.9532 Y6.0732
G1 X14.0677 Y6.0901
G1 X14.1828 Y6.1026
G1 X14.4337 Y6.1210
G1 X14.6317 Y6.1310
G1 X14.8636 Y6.1403
G1 X15.1819 Y6.1501
G1 X15.4209 Y6.1548
G1 X15.6237 Y6.1564
G1 X15.7289 Y6.1558
G1 X15.8072 Y6.1540
G1 X15.8612 Y6.1511
G1 X15.8953 Y6.1462
G1 X15.9090 Y6.1355
G1 X15.9093 Y6.1352
G1 X15.9320 Y6.1065
G1 X15.9617 Y6.0574
G1 X15.9928 Y5.9960
G1 X16.0032 Y5.9734
G1 X16.0363 Y5.8947
G1 X16.0761 Y5.7838
G1 X16.1121 Y5.6872
G1 X16.1774 Y5.5441
G1 X16.1945 Y5.5103
G1 X16.3177 Y5.2958
G1 X16.3263 Y5.2826
G1 X16.3265 Y5.2822
G1 X16.3778 Y5.2076
G1 X16.3782 Y5.2070
G1 X16.4170 Y5.1561
G1 X16.4173 Y5.1558
G1 X16.6251 Y4.8988
G1 X15.7998 Y4.9062
G1 X14.5332 Y4.9304
G1 X12.3781 Y4.9863
G1 X12.0561 Y4.9956
G1 X8.2307 Y5.1082
G1 X7.0482 Y5.1442
G1 X5.8419 Y5.1826
G1 X4.9240 Y5.2148
G1 X4.2969 Y5.2419
G1 X4.1407 Y5.2503
G1 X3.9851 Y5.2662
G1 X3.9841 Y5.2663
G1 X3.9957 Y5.2809
G1 X4.0264 Y5.3133
G1 X4.0743 Y5.3593
G1 X4.1489 Y5.4259
G1 X4.1763 Y5.4492
G1 X4.2303 Y5.4998
G1 X4.3010 Y5.5775
G1 X4.3770 Y5.6713
G1 X4.4974 Y5.8396
G1 X4.5625 Y5.9432
G1 X4.5627 Y5.9437
G1 X4.5822 Y5.9773
G1 X4.6485 Y6.0879
G1 X4.7113 Y6.1769
G1 X4.7425 Y6.2144
G1 X4.7765 Y6.2493
G1 X4.8104 Y6.2775
G1 X4.8479 Y6.3005
G1 X4.8585 Y6.3054
G1 X4.8902 Y6.3156
G1 X4.9233 Y6.3191
G1 X4.9559 Y6.3157
G1 X4.9874 Y6.3068
G1 X5.0170 Y6.2929
G1 X5.0556 Y6.2686
G1 X5.0914 Y6.2403
G1 X5.1658 Y6.1669
G1 X5.2048 Y6.1220
G1 X5.3768 Y5.9160
G1 X5.3868 Y5.9108
G1 X6.0656 Y5.8616
G1 X6.8141 Y5.8058
G1 X7.4592 Y5.7557
G1 X7.8413 Y5.7245
G1 X8.2709 Y5.6869
G1 X8.6291 Y5.6512
G1 X8.7686 Y5.6395
G1 X8.9354 Y5.6276
G1 X9.2287 Y5.6098
G1 X9.7388 Y5.5845
G1 X10.2935 Y5.5629
G1 X10.7716 Y5.5490
G1 X11.4311 Y5.5344
G1 X11.6457 Y5.5312
G1 X11.6663 Y5.5282
G1 X11.6855 Y5.5199
G1 X11.7019 Y5.5070
G1 X11.7143 Y5.4902
G1 X11.7221 Y5.4708
G1 X11.7245 Y5.4500
M2002
M2101 P1 R1
G0
G0 X13.5752 Y7.1017
M2100 P0.1500 D1.5 C0.1750
M2001
G1
G1 X13.5853 Y7.0834
G1 X13.5903 Y7.0631
G1 X13.5899 Y7.0422
G1 X13.5841 Y7.0222
G1 X13.5733 Y7.0043
G1 X13.5582 Y6.9898
G1 X13.5030 Y6.9491
G1 X13.4761 Y6.9315
G1 X13.4527 Y6.9187
G1 X13.4328 Y6.9115
G1 X13.4241 Y6.9105
G1 X13.4137 Y6.9134
G1 X13.4056 Y6.9207
G1 X13.3949 Y6.9380
G1 X13.3823 Y6.9671
G1 X13.3641 Y6.9966
G1 X13.3380 Y7.0194
G1 X13.3064 Y7.0334
G1 X13.2102 Y7.0557
G1 X13.0835 Y7.0679
G1 X12.9231 Y7.0747
G1 X12.7389 Y7.0777
G1 X12.5110 Y7.0786
G1 X12.2494 Y7.0812
G1 X12.0423 Y7.0883
G1 X11.8946 Y7.0981
G1 X11.7833 Y7.1112
G1 X11.7176 Y7.1268
G1 X11.7150 Y7.1274
G1 X11.7113 Y7.1287
G1 X11.7154 Y7.1296
G1 X11.7184 Y7.1301
G1 X11.7974 Y7.1444
G1 X11.9353 Y7.1575
G1 X12.0954 Y7.1669
G1 X12.3806 Y7.1770
G1 X12.6949 Y7.1819
G1 X12.8317 Y7.1824
G1 X13.1490 Y7.1794
G1 X13.3586 Y7.1731
G1 X13.5194 Y7.1640
G1 X13.6298 Y7.1522
G1 X13.6303 Y7.1521
G1 X13.6572 Y7.1474
G1 X13.6832 Y7.1392
G1 X13.6846 Y7.1352
G1 X13.6809 Y7.1205
G1 X13.6666 Y7.0955
G1 X13.6430 Y7.0658
G1 X13.6067 Y7.0292
G1 X13.5753 Y7.0024
G1 X13.5582 Y6.9898
G1 X13.5400 Y6.9797
G1 X13.5197 Y6.9747
G1 X13.4988 Y6.9751
G1 X13.4787 Y6.9809
G1 X13.4609 Y6.9917
G1 X13.4464 Y7.0068
M2002
M2101 P1 R1
G0
G0 X13.4508 Y8.0006
M2100 P0.1500 D1.5 C0.1750
M2001
G1
G1 X13.4501 Y7.9856
G1 X13.4486 Y8.0655
G1 X13.4483 Y8.2740
G1 X13.4499 Y8.3910
G1 X13.4538 Y8.2427
G1 X13.4540 Y8.1870
G1 X13.4508 Y8.0006
M2002
M2101 P1 R1
G0
G0 X14.5031 Y8.2921
M2100 P0.1500 D1.5 C0.1750
M2001
G1
G1 X14.4824 Y8.2951
G1 X14.4632 Y8.3034
G1 X14.4469 Y8.3164
G1 X14.4344 Y8.3331
G1 X14.4267 Y8.3526
G1 X14.4243 Y8.3733
G1 X14.4254 Y8.4462
G1 X14.4317 Y8.6013
G1 X14.4502 Y8.8869
G1 X14.4784 Y9.1967
G1 X14.4967 Y9.3530
G1 X14.5133 Y9.4688
G1 X14.5274 Y9.5471
G1 X14.5387 Y9.5940
G1 X14.5480 Y9.6199
G1 X14.5485 Y9.6180
G1 X14.5595 Y9.5733
G1 X14.5688 Y9.4938
G1 X14.5752 Y9.3807
G1 X14.5781 Y9.2454
G1 X14.5776 Y9.0978
G1 X14.5761 Y9.0111
G1 X14.5737 Y8.9195
G1 X14.5663 Y8.7223
G1 X14.5563 Y8.5410
G1 X14.5438 Y8.3923
G1 X14.5272 Y8.2700
G1 X14.5060 Y8.1819
G1 X14.5058 Y8.1812
G1 X14.4957 Y8.1564
G1 X14.4798 Y8.1347
G1 X14.4686 Y8.1300
G1 X14.4545 Y8.1347
G1 X14.4384 Y8.1479
G1 X14.4341 Y8.1588
G1 X14.4284 Y8.1947
G1 X14.4249 Y8.2483
G1 X14.4235 Y8.3246
G1 X14.4243 Y8.3733
G1 X14.4274 Y8.3940
G1 X14.4356 Y8.4131
G1 X14.4486 Y8.4295
G1 X14.4654 Y8.4420
G1 X14.4848 Y8.4496
G1 X14.5055 Y8.4520
M2002
M2101 P1 R1
G0
G0 X14.9712 Y8.7757
M2100 P0.1500 D1.5 C0.1750
M2001
G1
G1 X14.9507 Y8.7796
G1 X14.9319 Y8.7886
G1 X14.9160 Y8.8022
G1 X14.9043 Y8.8195
G1 X14.8974 Y8.8392
G1 X14.8958 Y8.8600
G1 X14.8993 Y8.9224
G1 X14.9190 Y9.1855
G1 X14.9292 Y9.2983
G1 X14.9362 Y9.3636
G1 X14.9442 Y9.4284
G1 X14.9534 Y9.4916
G1 X14.9676 Y9.5661
G1 X14.9780 Y9.6048
G1 X14.9875 Y9.6271
G1 X14.9879 Y9.6260
G1 X14.9990 Y9.5840
G1 X15.0085 Y9.5107
G1 X15.0148 Y9.4126
G1 X15.0178 Y9.2950
G1 X15.0172 Y9.1618
G1 X15.0145 Y9.0521
G1 X15.0105 Y8.9534
G1 X15.0050 Y8.8485
G1 X14.9857 Y8.5873
G1 X14.9686 Y8.4178
G1 X14.9523 Y8.2904
G1 X14.9447 Y8.2412
G1 X14.9336 Y8.1800
G1 X14.9234 Y8.1358
G1 X14.9142 Y8.1084
G1 X14.9098 Y8.1011
G1 X14.9075 Y8.0993
G1 X14.9030 Y8.1069
G1 X14.9024 Y8.1096
G1 X14.8915 Y8.1564
G1 X14.8839 Y8.2292
G1 X14.8798 Y8.3298
G1 X14.8791 Y8.4016
G1 X14.8816 Y8.5608
G1 X14.8869 Y8.7010
G1 X14.8958 Y8.8600
G1 X14.8997 Y8.8806
G1 X14.9088 Y8.8994
G1 X14.9224 Y8.9152
G1 X14.9397 Y8.9270
G1 X14.9594 Y8.9339
G1 X14.9802 Y8.9354
M2002
M2101 P1 R1
G0
G0 X15.3918 Y8.4466
M2100 P0.1500 D1.5 C0.1750
M2001
G1
G1 X15.3712 Y8.4498
G1 X15.3521 Y8.4582
G1 X15.3358 Y8.4713
G1 X15.3235 Y8.4881
G1 X15.3159 Y8.5076
G1 X15.3136 Y8.5284
G1 X15.3276 Y9.1445
G1 X15.3336 Y9.3016
G1 X15.3441 Y9.4364
G1 X15.3585 Y9.5463
G1 X15.3764 Y9.6286
G1 X15.3965 Y9.6801
G1 X15.3972 Y9.6817
G1 X15.4035 Y9.6910
G1 X15.4132 Y9.6965
G1 X15.4228 Y9.6906
G1 X15.4234 Y9.6899
G1 X15.4384 Y9.6678
G1 X15.4543 Y9.6316
G1 X15.4694 Y9.5862
G1 X15.4810 Y9.5433
G1 X15.4885 Y9.5011
G1 X15.4933 Y9.4483
G1 X15.4960 Y9.3711
G1 X15.4963 Y9.3377
G1 X15.4939 Y9.2162
G1 X15.4839 Y9.0303
G1 X15.4747 Y8.9134
G1 X15.4466 Y8.6512
G1 X15.4217 Y8.4821
G1 X15.4002 Y8.3707
G1 X15.3872 Y8.3184
G1 X15.3754 Y8.2815
G1 X15.3638 Y8.2566
G1 X15.3598 Y8.2516
G1 X15.3462 Y8.2629
G1 X15.3459 Y8.2633
G1 X15.3299 Y8.2929
G1 X15.3167 Y8.3412
G1 X15.3109 Y8.4077
G1 X15.3136 Y8.5284
G1 X15.3168 Y8.5490
G1 X15.3253 Y8.5681
G1 X15.3384 Y8.5844
G1 X15.3552 Y8.5967
G1 X15.3747 Y8.6043
G1 X15.3954 Y8.6065
M2002
M2101 P1 R1
G0
G0 X15.8474 Y8.7500
M2100 P0.1500 D1.5 C0.1750
M2001
G1
G1 X15.8270 Y8.7544
G1 X15.8084 Y8.7639
G1 X15.7929 Y8.7779
G1 X15.7816 Y8.7955
G1 X15.7752 Y8.8154
G1 X15.7741 Y8.8362
G1 X15.7849 Y8.9688
G1 X15.8003 Y9.1853
G1 X15.8078 Y9.3248
G1 X15.8110 Y9.4159
G1 X15.8115 Y9.4585
G1 Y9.4589
G1 X15.8105 Y9.5072
G1 X15.8158 Y9.5609
G1 X15.8276 Y9.5973
G1 X15.8430 Y9.6193
G1 X15.8563 Y9.6257
G1 X15.8648 Y9.6165
G1 X15.8655 Y9.6144
G1 X15.8780 Y9.5706
G1 X15.8871 Y9.5044
G1 X15.8932 Y9.4090
G1 X15.8954 Y9.2900
G1 X15.8948 Y9.2067
G1 X15.8912 Y9.0681
G1 X15.8820 Y8.8825
G1 X15.8709 Y8.7502
G1 X15.8547 Y8.6295
G1 X15.8351 Y8.5436
G1 X15.8257 Y8.5169
G1 X15.8121 Y8.4920
G1 X15.8004 Y8.4819
G1 X15.7917 Y8.4801
G1 X15.7831 Y8.4833
G1 X15.7776 Y8.4907
G1 X15.7771 Y8.4920
G1 X15.7687 Y8.5194
G1 X15.7639 Y8.5598
G1 X15.7622 Y8.6135
G1 X15.7631 Y8.6640
G1 X15.7652 Y8.7115
G1 X15.7689 Y8.7722
G1 X15.7741 Y8.8362
G1 X15.7785 Y8.8566
G1 X15.7881 Y8.8752
G1 X15.8021 Y8.8907
G1 X15.8196 Y8.9020
G1 X15.8395 Y8.9084
G1 X15.8604 Y8.9095
M2002
M2101 P1 R1
G0
G0 X16.3034 Y8.8522
M2100 P0.1500 D1.5 C0.1750
M2001
G1
G1 X16.2826 Y8.8543
G1 X16.2630 Y8.8616
G1 X16.2461 Y8.8738
G1 X16.2329 Y8.8900
G1 X16.2243 Y8.9090
G1 X16.2209 Y8.9296
G1 X16.2185 Y9.0075
G1 Y9.1203
G1 X16.2225 Y9.2932
G1 X16.2256 Y9.3780
G1 X16.2304 Y9.4654
G1 X16.2362 Y9.5322
G1 X16.2443 Y9.5838
G1 X16.2544 Y9.6135
G1 X16.2549 Y9.6147
G1 X16.2580 Y9.6176
G1 X16.2624 Y9.6155
G1 X16.2758 Y9.6026
G1 X16.2881 Y9.5870
G1 X16.3102 Y9.5444
G1 X16.3330 Y9.4709
G1 X16.3559 Y9.3478
G1 X16.3661 Y9.2382
G1 X16.3679 Y9.1705
G1 X16.3633 Y9.0050
G1 X16.3499 Y8.8704
G1 X16.3408 Y8.8187
G1 X16.3281 Y8.7678
G1 X16.3153 Y8.7317
G1 X16.2976 Y8.6979
G1 X16.2971 Y8.6969
G1 X16.2854 Y8.6812
G1 X16.2693 Y8.6700
G1 X16.2505 Y8.6643
G1 X16.2487 Y8.6680
G1 X16.2480 Y8.6707
G1 X16.2381 Y8.7106
G1 X16.2298 Y8.7739
G1 X16.2229 Y8.8672
G1 X16.2209 Y8.9296
G1 X16.2230 Y8.9504
G1 X16.2304 Y8.9700
G1 X16.2426 Y8.9869
G1 X16.2587 Y9.0001
G1 X16.2778 Y9.0087
G1 X16.2984 Y9.0121
M2002
M2101 P1 R1
G0
G0 X16.7065 Y9.4891
M2100 P0.1500 D1.5 C0.1750
M2001
G1
G1 X16.7273 Y9.4904
G1 X16.7478 Y9.4862
G1 X16.7665 Y9.4769
G1 X16.7821 Y9.4631
G1 X16.7937 Y9.4456
G1 X16.8003 Y9.4258
G1 X16.8106 Y9.3534
G1 X16.8147 Y9.2604
G1 X16.8144 Y9.2335
G1 X16.8080 Y9.1349
G1 X16.7931 Y9.0372
G1 X16.7814 Y8.9874
G1 X16.7657 Y8.9386
G1 X16.7530 Y8.9094
G1 X16.7365 Y8.8822
G1 X16.7358 Y8.8812
G1 X16.7243 Y8.8690
G1 X16.7088 Y8.8625
G1 X16.7040 Y8.8683
G1 X16.7032 Y8.8703
G1 X16.6899 Y8.9090
G1 X16.6781 Y8.9707
G1 X16.6675 Y9.0682
G1 X16.6614 Y9.2088
G1 X16.6611 Y9.2439
G1 X16.6639 Y9.3633
G1 X16.6717 Y9.4601
G1 X16.6832 Y9.5341
G1 X16.6981 Y9.5878
G1 X16.7150 Y9.6180
G1 X16.7223 Y9.6222
G1 X16.7297 Y9.6188
G1 X16.7424 Y9.6034
G1 X16.7545 Y9.5810
G1 X16.7702 Y9.5408
G1 X16.7806 Y9.5075
G1 X16.7891 Y9.4753
G1 X16.7976 Y9.4390
G1 X16.8003 Y9.4258
G1 X16.8016 Y9.4050
G1 X16.7974 Y9.3845
G1 X16.7881 Y9.3658
G1 X16.7743 Y9.3502
G1 X16.7569 Y9.3387
G1 X16.7371 Y9.3320
M2002
M2101 P1 R1
G0
G0 X17.1477 Y9.3551
M2100 P0.1500 D1.5 C0.1750
M2001
G1
G1 X17.1683 Y9.3519
G1 X17.1874 Y9.3435
G1 X17.2037 Y9.3305
G1 X17.2161 Y9.3136
G1 X17.2237 Y9.2942
G1 X17.2259 Y9.2734
G1 X17.2247 Y9.2138
G1 X17.2191 Y9.1390
G1 X17.2106 Y9.0821
G1 X17.1997 Y9.0438
G1 X17.1995 Y9.0434
G1 X17.1880 Y9.0247
G1 X17.1869 Y9.0241
G1 X17.1830 Y9.0250
G1 X17.1689 Y9.0438
G1 X17.1686 Y9.0443
G1 X17.1520 Y9.0904
G1 X17.1367 Y9.1650
G1 X17.1250 Y9.2850
G1 X17.1235 Y9.3472
G1 X17.1287 Y9.4596
G1 X17.1399 Y9.5386
G1 X17.1537 Y9.5906
G1 X17.1684 Y9.6202
G1 X17.1690 Y9.6211
G1 X17.1747 Y9.6255
G1 X17.1820 Y9.6185
G1 X17.1828 Y9.6169
G1 X17.1974 Y9.5812
G1 X17.2106 Y9.5226
G1 X17.2213 Y9.4373
G1 X17.2266 Y9.3063
G1 X17.2259 Y9.2734
G1 X17.2228 Y9.2528
G1 X17.2144 Y9.2336
G1 X17.2013 Y9.2173
G1 X17.1845 Y9.2050
G1 X17.1650 Y9.1974
G1 X17.1443 Y9.1951
M2002
M2101 P1 R1
G0
G0 X18.0188 Y10.4007
M2100 P0.1500 D1.5 C0.1750
M2001
G1
G1 X18.0396 Y10.3991
G1 X18.0593 Y10.3921
G1 X18.0765 Y10.3803
G1 X18.0901 Y10.3644
G1 X18.0991 Y10.3455
G1 X18.1029 Y10.3250
G1 X18.1054 Y10.2778
G1 X18.1086 Y10.0854
G1 X18.1075 Y9.9677
G1 X18.1014 Y9.7725
G1 X18.0898 Y9.5775
G1 X18.0707 Y9.3846
G1 X18.0507 Y9.2622
G1 X18.0427 Y9.2297
G1 X18.0308 Y9.1984
G1 X18.0304 Y9.1972
G1 X18.0301 Y9.1981
G1 X18.0171 Y9.2521
G1 X18.0046 Y9.3502
G1 X17.9934 Y9.5003
G1 X17.9852 Y9.7042
G1 X17.9823 Y9.9377
G1 X17.9859 Y10.2032
G1 X17.9948 Y10.4037
G1 X18.0067 Y10.5476
G1 X18.0203 Y10.6399
G1 X18.0204 Y10.6405
G1 X18.0328 Y10.6810
G1 X18.0448 Y10.6653
G1 X18.0450 Y10.6649
G1 X18.0606 Y10.6280
G1 X18.0758 Y10.5732
G1 X18.0905 Y10.4900
G1 X18.0981 Y10.4154
G1 X18.1029 Y10.3250
G1 X18.1013 Y10.3042
G1 X18.0943 Y10.2845
G1 X18.0825 Y10.2673
G1 X18.0666 Y10.2537
G1 X18.0477 Y10.2447
G1 X18.0272 Y10.2409
M2002
M2101 P1 R1
G0
G0 X17.8330 Y8.2311
M2100 P0.1500 D1.5 C0.1750
M2001
G1
G1 X17.8511 Y8.2328
G1 X17.8735 Y8.2337
G1 X17.9027 Y8.2328
G1 X17.9216 Y8.2303
G1 X17.9348 Y8.2266
G1 X17.9397 Y8.2238
G1 X17.9391 Y8.2230
G1 X17.9280 Y8.2161
G1 X17.9067 Y8.2107
G1 X17.8899 Y8.2096
G1 X17.8650 Y8.2116
G1 X17.8574 Y8.2130
G1 X17.8283 Y8.2217
G1 X17.8190 Y8.2257
G1 X17.8150 Y8.2278
G1 X17.8195 Y8.2290
G1 X17.8330 Y8.2311
M2002
M2101 P1 R1
G0
G0 X17.1064 Y8.0990
M2100 P0.1500 D1.5 C0.1750
M2001
G1
G1 X17.1244 Y8.1006
G1 X17.1468 Y8.1016
G1 X17.1760 Y8.1007
G1 X17.1950 Y8.0982
G1 X17.2082 Y8.0945
G1 X17.2131 Y8.0917
G1 X17.2125 Y8.0909
G1 X17.2013 Y8.0840
G1 X17.1801 Y8.0786
G1 X17.1633 Y8.0775
G1 X17.1384 Y8.0795
G1 X17.1308 Y8.0808
G1 X17.1016 Y8.0896
G1 X17.0924 Y8.0936
G1 X17.0883 Y8.0957
G1 X17.0929 Y8.0969
G1 X17.1064 Y8.0990
M2002
M2101 P1 R1
G0
G0 X16.4980 Y7.7729
M2100 P0.1500 D1.5 C0.1750
M2001
G1
G1 X16.5123 Y7.7577
G1 X16.5220 Y7.7392
G1 X16.5267 Y7.7188
G1 X16.5260 Y7.6980
G1 X16.5198 Y7.6780
G1 X16.5087 Y7.6603
G1 X16.4245 Y7.5516
G1 X16.3229 Y7.4012
G1 X16.2333 Y7.2434
G1 X16.2064 Y7.1886
G1 X16.1602 Y7.0913
G1 X16.1141 Y6.9978
G1 X16.0701 Y6.9167
G1 X16.0446 Y6.8753
G1 X16.0443 Y6.8748
G1 X16.0173 Y6.8339
G1 X15.9848 Y6.7972
G1 X15.9473 Y6.7655
G1 X15.9057 Y6.7395
G1 X15.8608 Y6.7197
G1 X15.8136 Y6.7065
G1 X15.7409 Y6.6942
G1 X15.6674 Y6.6877
G1 X15.5264 Y6.6830
G1 X15.3504 Y6.6823
G1 X15.1362 Y6.6862
G1 X15.0000 Y6.6938
G1 X14.8991 Y6.7038
G1 X14.8354 Y6.7149
G1 X14.8347 Y6.7150
G1 X14.8137 Y6.7220
G1 X14.8264 Y6.7382
G1 X14.8274 Y6.7391
G1 X14.9070 Y6.8085
G1 X15.0552 Y6.9183
G1 X15.2802 Y7.0722
G1 X15.6792 Y7.3301
G1 X15.7401 Y7.3682
G1 X15.8845 Y7.4578
G1 X16.3321 Y7.7259
G1 X16.6010 Y7.8778
G1 X16.7791 Y7.9708
G1 X16.8967 Y8.0232
G1 X16.8971 Y8.0234
G1 X16.9372 Y8.0349
G1 X16.9258 Y8.0249
G1 X16.9090 Y8.0127
G1 X16.8704 Y7.9890
G1 X16.7740 Y7.9243
G1 X16.6623 Y7.8273
G1 X16.6362 Y7.8016
G1 X16.5087 Y7.6603
G1 X16.4934 Y7.6461
G1 X16.4750 Y7.6363
G1 X16.4546 Y7.6316
G1 X16.4338 Y7.6324
G1 X16.4138 Y7.6385
G1 X16.3961 Y7.6496
M2002
M2101 P1 R1
G0
G0 X17.1156 Y6.9926
M2100 P0.1500 D1.5 C0.1750
M2001
G1
G1 X17.1035 Y7.0096
G1 X17.0962 Y7.0291
G1 X17.0942 Y7.0499
G1 X17.0976 Y7.0705
G1 X17.1063 Y7.0895
G1 X17.1196 Y7.1056
G1 X17.1896 Y7.1709
G1 X17.2470 Y7.2232
G1 X17.2576 Y7.2325
G1 X17.2605 Y7.1408
G1 X17.2645 Y6.9318
G1 X17.2648 Y6.8905
G1 X17.2624 Y6.7809
G1 X17.2577 Y6.7092
G1 X17.2513 Y6.6570
G1 X17.2437 Y6.6226
G1 X17.2426 Y6.6193
G1 X17.2240 Y6.6372
G1 X17.1981 Y6.6688
G1 X17.1646 Y6.7160
G1 X17.1285 Y6.7728
G1 X17.0821 Y6.8539
G1 X17.0599 Y6.8956
G1 X17.0431 Y6.9330
G1 X17.0333 Y6.9669
G1 X17.0321 Y6.9819
G1 X17.0380 Y7.0104
G1 X17.0553 Y7.0391
G1 X17.0784 Y7.0656
G1 X17.1035 Y7.0906
G1 X17.1196 Y7.1056
G1 X17.1366 Y7.1178
G1 X17.1561 Y7.1251
G1 X17.1769 Y7.1271
G1 X17.1975 Y7.1236
G1 X17.2165 Y7.1150
G1 X17.2326 Y7.1017
M2002
M2101 P1 R1
G0
G0 X17.8675 Y7.1755
M2100 P0.1500 D1.5 C0.1750
M2001
G1
G1 X17.8841 Y7.1628
G1 X17.8969 Y7.1463
G1 X17.9050 Y7.1270
G1 X17.9078 Y7.1064
G1 X17.9051 Y7.0856
G1 X17.8972 Y7.0663
G1 X17.8443 Y7.0055
G1 X17.7945 Y6.9540
G1 X17.7520 Y6.9174
G1 X17.7160 Y6.8961
G1 X17.6971 Y6.8918
G1 X17.6816 Y6.8972
G1 X17.6715 Y6.9102
G1 X17.6710 Y6.9113
G1 X17.6599 Y6.9458
G1 X17.6537 Y6.9947
G1 X17.6520 Y7.0512
G1 X17.6551 Y7.1158
G1 X17.6662 Y7.1795
G1 X17.6663 Y7.1799
G1 X17.6767 Y7.2157
G1 X17.6925 Y7.2494
G1 X17.7134 Y7.2802
G1 X17.7389 Y7.3073
G1 X17.7684 Y7.3301
G1 X17.8011 Y7.3479
G1 X17.8361 Y7.3605
G1 X17.8986 Y7.3742
G1 X17.9622 Y7.3795
G1 X17.9867 Y7.3799
G1 X18.1471
G1 X17.9565 Y7.1392
G1 X17.8972 Y7.0663
G1 X17.8816 Y7.0525
G1 X17.8629 Y7.0432
G1 X17.8424 Y7.0390
G1 X17.8216 Y7.0403
G1 X17.8018 Y7.0469
G1 X17.7844 Y7.0584
M2002
M2101 P1 R1
G0
G0 X17.7788 Y6.3933
M2100 P0.1500 D1.5 C0.1750
M2001
G1
G1 X17.7896 Y6.4112
G1 X17.8046 Y6.4257
G1 X17.8229 Y6.4358
G1 X17.8431 Y6.4409
G1 X17.8640 Y6.4405
G1 X17.8841 Y6.4347
G1 X17.9137 Y6.4072
G1 X17.9272 Y6.3882
G1 X17.9335 Y6.3735
G1 X17.9356 Y6.3577
G1 X17.9347 Y6.3456
G1 X17.9287 Y6.3258
G1 X17.9184 Y6.3080
G1 X17.9047 Y6.2927
G1 X17.8884 Y6.2802
G1 X17.8711 Y6.2717
G1 X17.8620 Y6.2688
G1 X17.8405 Y6.2662
G1 X17.8158 Y6.2702
G1 X17.7930 Y6.2802
G1 X17.7733 Y6.2955
G1 X17.7579 Y6.3151
G1 X17.7478 Y6.3379
G1 X17.7436 Y6.3625
G1 X17.7464 Y6.3840
G1 X17.7532 Y6.4021
G1 X17.7574 Y6.4096
G1 X17.7799 Y6.4355
G1 X17.8028 Y6.4484
G1 X17.8286 Y6.4530
G1 X17.8454 Y6.4514
G1 X17.8656 Y6.4451
G1 X17.8840 Y6.4348
G1 X17.8841 Y6.4347
G1 X17.8965 Y6.4180
G1 X17.9042 Y6.3985
G1 X17.9065 Y6.3778
G1 X17.9035 Y6.3571
G1 X17.8951 Y6.3380
G1 X17.8821 Y6.3216
M2002
M2101 P1 R1
G0
G0 X18.4985 Y6.2909
M2100 P0.1500 D1.5 C0.1750
M2001
G1
G1 X18.5093 Y6.3087
G1 X18.5245 Y6.3231
G1 X18.5428 Y6.3331
G1 X18.5631 Y6.3380
G1 X18.5840 Y6.3375
G1 X18.6040 Y6.3316
G1 X18.6367 Y6.3167
G1 X18.6912 Y6.2898
G1 X18.7364 Y6.2638
G1 X18.7786 Y6.2333
G1 X18.8098 Y6.2044
G1 X18.8360 Y6.1710
G1 X18.8567 Y6.1339
G1 X18.8685 Y6.1004
G1 X18.8754 Y6.0657
G1 X18.8774 Y6.0303
G1 X18.8702 Y5.9589
G1 X18.8520 Y5.8894
G1 X18.8390 Y5.8527
G1 X18.8247 Y5.8196
G1 X18.8102 Y5.7938
G1 X18.7942 Y5.7736
G1 X18.7822 Y5.7645
G1 X18.7704 Y5.7612
G1 X18.7578 Y5.7648
G1 X18.7474 Y5.7728
G1 X18.7470 Y5.7733
G1 X18.7259 Y5.8026
G1 X18.7060 Y5.8467
G1 X18.6873 Y5.9063
G1 X18.6707 Y5.9801
G1 X18.6697 Y5.9853
G1 X18.6429 Y6.0890
G1 X18.6043 Y6.1735
G1 X18.5472 Y6.2402
G1 X18.4911 Y6.2686
G1 X18.4497 Y6.2835
G1 X18.4172 Y6.3030
G1 X18.3948 Y6.3239
G1 X18.3886 Y6.3321
G1 X18.3815 Y6.3458
G1 X18.3785 Y6.3600
G1 X18.3815 Y6.3713
G1 X18.3898 Y6.3796
G1 X18.4056 Y6.3860
G1 X18.4281 Y6.3889
G1 X18.4326 Y6.3890
G1 X18.4553 Y6.3858
G1 X18.4926 Y6.3753
G1 X18.5464 Y6.3558
G1 X18.6040 Y6.3316
G1 X18.6218 Y6.3207
G1 X18.6362 Y6.3056
G1 X18.6462 Y6.2873
G1 X18.6511 Y6.2670
G1 X18.6506 Y6.2461
G1 X18.6447 Y6.2260
M2002
M2101 P1 R1
G0
G0 X18.7897 Y6.7838
M2100 P0.1500 D1.5 C0.1750
M2001
G1
G1 X18.8106 Y6.7826
G1 X18.8304 Y6.7761
G1 X18.8479 Y6.7646
G1 X18.8618 Y6.7490
G1 X18.8712 Y6.7304
G1 X18.8754 Y6.7099
G1 X18.8662 Y6.7004
G1 X18.8504 Y6.6982
G1 X18.8352 Y6.6995
G1 X18.8180 Y6.7033
G1 X18.7970 Y6.7102
G1 X18.7671 Y6.7218
G1 X18.7662 Y6.7222
G1 X18.7450 Y6.7288
G1 X18.7441 Y6.7291
G1 X18.6764 Y6.7455
G1 X18.6756 Y6.7457
G1 X18.5849 Y6.7623
G1 X18.4536 Y6.7798
G1 X18.2765 Y6.7957
G1 X18.1956 Y6.8063
G1 X18.1310 Y6.8190
G1 X18.0848 Y6.8337
G1 X18.0567 Y6.8509
G1 X18.0507 Y6.8629
G1 X18.0554 Y6.8761
G1 X18.0708 Y6.8935
G1 X18.0940 Y6.9120
G1 X18.1096 Y6.9223
G1 X18.1490 Y6.9427
G1 X18.1908 Y6.9576
G1 X18.2491 Y6.9709
G1 X18.3085 Y6.9781
G1 X18.3675 Y6.9803
G1 X18.4315 Y6.9778
G1 X18.5017 Y6.9696
G1 X18.5707 Y6.9550
G1 X18.6382 Y6.9341
G1 X18.6894 Y6.9118
G1 X18.7374 Y6.8834
G1 X18.7600 Y6.8668
G1 X18.7744 Y6.8554
G1 X18.8169 Y6.8165
G1 X18.8474 Y6.7807
G1 X18.8665 Y6.7500
G1 X18.8753 Y6.7248
G1 X18.8761 Y6.7158
G1 X18.8754 Y6.7099
G1 X18.8557 Y6.7030
G1 X18.8349 Y6.7015
G1 X18.8144 Y6.7054
G1 X18.7955 Y6.7145
G1 X18.7797 Y6.7281
G1 X18.7680 Y6.7454
M2002
M2101 P1 R1
G0
G0 X18.2501 Y5.8149
M2100 P0.1500 D1.5 C0.1750
M2001
G1
G1 X18.2709 Y5.8170
G1 X18.2915 Y5.8138
G1 X18.3106 Y5.8052
G1 X18.3268 Y5.7921
G1 X18.3391 Y5.7752
G1 X18.3465 Y5.7557
G1 X18.3494 Y5.6799
G1 X18.3480 Y5.5597
G1 X18.3421 Y5.4859
G1 X18.3365 Y5.4539
G1 X18.3274 Y5.4228
G1 X18.3129 Y5.3950
G1 X18.2921 Y5.3717
G1 X18.2662 Y5.3542
G1 X18.2368 Y5.3436
G1 X18.2358 Y5.3433
G1 X18.2116 Y5.3362
G1 X18.1570 Y5.3221
G1 X18.1049 Y5.3100
G1 X18.0590 Y5.3012
G1 X18.0206 Y5.2960
G1 X17.9938 Y5.2946
G1 X17.9713 Y5.2963
G1 X17.9582 Y5.3008
G1 X17.9537 Y5.3087
G1 X17.9574 Y5.3244
G1 X17.9702 Y5.3476
G1 X17.9901 Y5.3747
G1 X18.0178 Y5.4072
G1 X18.0330 Y5.4236
G1 X18.0846 Y5.4873
G1 X18.1278 Y5.5570
G1 X18.1613 Y5.6304
G1 X18.1768 Y5.6843
G1 X18.1770 Y5.6857
G1 X18.1804 Y5.7182
G1 Y5.7193
G1 X18.1811 Y5.7423
G1 X18.1851 Y5.7824
G1 X18.1927 Y5.8221
G1 X18.2049 Y5.8606
G1 X18.2163 Y5.8821
G1 X18.2204 Y5.8870
G1 X18.2426 Y5.9069
G1 X18.2638 Y5.9208
G1 X18.2816 Y5.9266
G1 X18.2855 Y5.9268
G1 X18.3016 Y5.9215
G1 X18.3129 Y5.9089
G1 X18.3134 Y5.9080
G1 X18.3291 Y5.8711
G1 X18.3398 Y5.8203
G1 X18.3465 Y5.7557
G1 X18.3446 Y5.7349
G1 X18.3373 Y5.7153
G1 X18.3253 Y5.6982
G1 X18.3092 Y5.6849
G1 X18.2902 Y5.6762
G1 X18.2696 Y5.6727
M2002
M2101 P1 R1
G0
G0 X17.6263 Y5.6611
M2100 P0.1500 D1.5 C0.1750
M2001
G1
G1 X17.6202 Y5.6811
G1 X17.6195 Y5.7020
G1 X17.6243 Y5.7223
G1 X17.6341 Y5.7407
G1 X17.6484 Y5.7560
G1 X17.6661 Y5.7670
G1 X17.6685 Y5.7681
G1 X17.7253 Y5.7867
G1 X17.7600 Y5.7903
G1 X17.7844 Y5.7882
G1 X17.8079 Y5.7813
G1 X17.8294 Y5.7697
G1 X17.8482 Y5.7540
G1 X17.8516 Y5.7459
G1 X17.8517 Y5.7430
G1 X17.8455 Y5.7169
G1 X17.8251 Y5.6782
G1 X17.7878 Y5.6265
G1 X17.7386 Y5.5700
G1 X17.6819 Y5.5134
G1 X17.6217 Y5.4607
G1 X17.5489 Y5.4072
G1 X17.4974 Y5.3778
G1 X17.4589 Y5.3636
G1 X17.4393 Y5.3611
G1 X17.4005 Y5.3660
G1 X17.3706 Y5.3750
G1 X17.3291 Y5.3940
G1 X17.2904 Y5.4181
G1 X17.2551 Y5.4470
G1 X17.2238 Y5.4801
G1 X17.2057 Y5.5066
G1 X17.1934 Y5.5342
G1 X17.1896 Y5.5576
G1 X17.1961 Y5.5697
G1 X17.1967 Y5.5701
G1 X17.2166 Y5.5823
G1 X17.2501 Y5.5923
G1 X17.2945 Y5.5963
G1 X17.3351 Y5.6003
G1 X17.3871 Y5.6135
G1 X17.3876 Y5.6136
G1 X17.4291 Y5.6287
G1 X17.4296 Y5.6289
G1 X17.5358 Y5.6853
G1 X17.5362 Y5.6855
G1 X17.5511 Y5.6963
G1 X17.6116 Y5.7379
G1 X17.6661 Y5.7670
G1 X17.6861 Y5.7731
G1 X17.7070 Y5.7737
G1 X17.7273 Y5.7690
G1 X17.7457 Y5.7592
G1 X17.7610 Y5.7449
G1 X17.7720 Y5.7271
M2002
M2101 P1 R1
G0
G0 X16.9555 Y6.2108
M2100 P0.1500 D1.5 C0.1750
M2001
G1
G1 X16.9672 Y6.2281
G1 X16.9830 Y6.2418
G1 X17.0018 Y6.2509
G1 X17.0224 Y6.2548
G1 X17.0432 Y6.2533
G1 X17.0629 Y6.2464
G1 X17.1717 Y6.1617
G1 X17.2580 Y6.0890
G1 X17.3195 Y6.0293
G1 X17.3198 Y6.0290
G1 X17.3359 Y6.0101
G1 X17.3491 Y5.9890
G1 X17.3516 Y5.9794
G1 X17.3514 Y5.9781
G1 X17.3419 Y5.9625
G1 X17.3281 Y5.9507
G1 X17.3113 Y5.9436
G1 X17.3108 Y5.9435
G1 X17.2724 Y5.9378
G1 X17.2651 Y5.9377
G1 X17.2123 Y5.9421
G1 X17.1489 Y5.9550
G1 X17.0858 Y5.9728
G1 X17.0106 Y5.9979
G1 X16.9608 Y6.0163
G1 X16.8916 Y6.0481
G1 X16.8660 Y6.0648
G1 X16.8435 Y6.0855
G1 X16.8249 Y6.1096
G1 X16.8082 Y6.1459
G1 X16.7989 Y6.1848
G1 X16.7933 Y6.2581
G1 X16.7932 Y6.2704
G1 Y6.4425
G1 X16.9251 Y6.3484
G1 X17.0629 Y6.2464
G1 X17.0776 Y6.2316
G1 X17.0879 Y6.2134
G1 X17.0931 Y6.1932
G1 X17.0930 Y6.1723
G1 X17.0874 Y6.1522
G1 X17.0769 Y6.1342
M2002
M2101 P1 R1
G0
G0 X19.6830 Y3.8891
M2100 P0.1500 D1.5 C0.1750
M2001
G1
G1 X19.6679 Y3.9036
G1 X19.6572 Y3.9215
G1 X19.6514 Y3.9416
G1 X19.6510 Y3.9625
G1 X19.6561 Y3.9827
G1 X19.6662 Y4.0010
G1 X19.6910 Y4.0047
G1 X19.7169 Y4.0045
G1 X19.7357 Y4.0029
G1 X19.7601 Y3.9999
G1 X19.8019 Y3.9900
G1 X19.8411 Y3.9725
G1 X19.8648 Y3.9562
G1 X19.8851 Y3.9357
G1 X19.8972 Y3.9157
G1 X19.9020 Y3.8929
G1 X19.8998 Y3.8729
G1 X19.8926 Y3.8541
G1 X19.8769 Y3.8352
G1 X19.8565 Y3.8213
G1 X19.8332 Y3.8137
G1 X19.8325 Y3.8136
G1 X19.7992 Y3.8099
G1 X19.7736 Y3.8117
G1 X19.7435 Y3.8177
G1 X19.7153 Y3.8296
G1 X19.6900 Y3.8469
G1 X19.6686 Y3.8689
G1 X19.6521 Y3.8948
G1 X19.6449 Y3.9185
G1 X19.6422 Y3.9348
G1 X19.6406 Y3.9501
G1 X19.6404 Y3.9586
G1 X19.6434 Y3.9803
G1 X19.6520 Y3.9936
G1 X19.6662 Y4.0010
G1 X19.6871 Y4.0014
G1 X19.7073 Y3.9963
G1 X19.7256 Y3.9862
G1 X19.7406 Y3.9717
G1 X19.7514 Y3.9538
G1 X19.7572 Y3.9337
M2002
M2101 P1 R1
G0
G0 X17.1419 Y2.7564
M2100 P0.1500 D1.5 C0.1750
M2001
G1
G1 X17.1569 Y2.7419
G1 X17.1677 Y2.7240
G1 X17.1735 Y2.7040
G1 X17.1739 Y2.6831
G1 X17.1689 Y2.6628
G1 X17.1588 Y2.6445
G1 X16.9950 Y2.4221
G1 X16.7139 Y2.0382
G1 X16.6432 Y1.9500
G1 X16.6297 Y1.9349
G1 X16.5608 Y1.8664
G1 X16.5092 Y1.8252
G1 X16.4707 Y1.8030
G1 X16.4488 Y1.7970
G1 X16.4329 Y1.8019
G1 X16.4187 Y1.8107
G1 X16.4180 Y1.8113
G1 X16.3587 Y1.8604
G1 X16.2742 Y1.9464
G1 X16.1562 Y2.0829
G1 X16.0283 Y2.2469
G1 X15.9413 Y2.3654
G1 X15.7580 Y2.6073
G1 X15.6478 Y2.7460
G1 X15.5741 Y2.8339
G1 X15.5737 Y2.8345
G1 X15.5257 Y2.8866
G1 X15.5250 Y2.8873
G1 X15.5170 Y2.8949
G1 X15.4754 Y2.9395
G1 X15.4408 Y2.9898
G1 X15.4181 Y3.0359
G1 X15.4081 Y3.0687
G1 X15.4060 Y3.0890
G1 X15.4099 Y3.1062
G1 X15.4209 Y3.1201
G1 X15.4369 Y3.1276
G1 X15.4386 Y3.1281
G1 X15.4987 Y3.1417
G1 X15.5798 Y3.1483
G1 X15.6930 Y3.1505
G1 X15.7827 Y3.1497
G1 X15.8969 Y3.1470
G1 X16.1200 Y3.1391
G1 X16.3627 Y3.1285
G1 X16.6843 Y3.1112
G1 X16.9163 Y3.0950
G1 X17.0764 Y3.0812
G1 X17.2263 Y3.0652
G1 X17.3012 Y3.0547
G1 X17.3521 Y3.0451
G1 X17.3758 Y3.0376
G1 X17.3762 Y3.0371
G1 X17.3766 Y3.0318
G1 X17.3698 Y2.9993
G1 X17.3464 Y2.9431
G1 X17.3035 Y2.8626
G1 X17.2387 Y2.7585
G1 X17.1589 Y2.6446
G1 X17.1588 Y2.6445
G1 X17.1444 Y2.6295
G1 X17.1265 Y2.6187
G1 X17.1064 Y2.6129
G1 X17.0856 Y2.6125
G1 X17.0653 Y2.6175
G1 X17.0470 Y2.6276
M2002
M2101 P1 R1
G0
G0 X13.4492 Y2.4535
M2100 P0.1500 D1.5 C0.1750
M2001
G1
G1 X13.4648 Y2.4674
G1 X13.4834 Y2.4769
G1 X13.5038 Y2.4812
G1 X13.5247 Y2.4800
G1 X13.5445 Y2.4735
G1 X13.5620 Y2.4621
G1 X13.6095 Y2.4016
G1 X13.6760 Y2.3041
G1 X13.7248 Y2.2217
G1 X13.7482 Y2.1742
G1 X13.7727 Y2.1117
G1 X13.7911 Y2.0472
G1 X13.8032 Y1.9812
G1 X13.8158 Y1.8503
G1 X13.8203 Y1.7147
G1 X13.8211 Y1.6320
G1 X13.8192 Y1.4798
G1 X13.8106 Y1.3539
G1 X13.8002 Y1.2831
G1 X13.7836 Y1.2135
G1 X13.7663 Y1.1625
G1 X13.7448 Y1.1131
G1 X13.7004 Y1.0329
G1 X13.6619 Y0.9737
G1 X13.6089 Y0.9007
G1 X13.5497 Y0.8327
G1 X13.4849 Y0.7700
G1 X13.4148 Y0.7133
G1 X13.3524 Y0.6727
G1 X13.2869 Y0.6376
G1 X13.2187 Y0.6081
G1 X13.1482 Y0.5844
G1 X13.0760 Y0.5667
G1 X13.0026 Y0.5552
G1 X12.9284 Y0.5499
G1 X12.8689 Y0.5484
G1 X12.7550 Y0.5534
G1 X12.7378 Y0.5549
G1 X12.6656 Y0.5630
G1 X12.5943 Y0.5771
G1 X12.5245 Y0.5972
G1 X12.4566 Y0.6231
G1 X12.3911 Y0.6546
G1 X12.3286 Y0.6915
G1 X12.2693 Y0.7336
G1 X12.2139 Y0.7806
G1 X12.1626 Y0.8320
G1 X12.1158 Y0.8876
G1 X12.0521 Y0.9737
G1 X11.9945 Y1.0640
G1 X11.9432 Y1.1580
G1 X11.9062 Y1.2333
G1 X11.8966 Y1.2541
G1 X11.8573 Y1.3499
G1 X11.8250 Y1.4483
G1 X11.8001 Y1.5488
G1 X11.7852 Y1.6350
G1 X11.7762 Y1.7221
G1 X11.7731 Y1.8096
G1 X11.7754 Y1.8935
G1 X11.7839 Y1.9770
G1 X11.7984 Y2.0597
G1 X11.8189 Y2.1411
G1 X11.8452 Y2.2208
G1 X11.8772 Y2.2983
G1 X11.9148 Y2.3734
G1 X11.9578 Y2.4455
G1 X12.0059 Y2.5143
G1 X12.0547 Y2.5748
G1 X12.1085 Y2.6310
G1 X12.1668 Y2.6825
G1 X12.2292 Y2.7290
G1 X12.2953 Y2.7700
G1 X12.3646 Y2.8054
G1 X12.4366 Y2.8348
G1 X12.5108 Y2.8580
G1 X12.5868 Y2.8750
G1 X12.6638 Y2.8855
G1 X12.7415 Y2.8895
G1 X12.8315 Y2.8850
G1 X12.9206 Y2.8721
G1 X13.0081 Y2.8509
G1 X13.1075 Y2.8169
G1 X13.2033 Y2.7738
G1 X13.2628 Y2.7387
G1 X13.3398 Y2.6816
G1 X13.3915 Y2.6377
G1 X13.4800 Y2.5530
G1 X13.5620 Y2.4621
G1 X13.5727 Y2.4441
G1 X13.5783 Y2.4240
G1 X13.5785 Y2.4031
G1 X13.5733 Y2.3829
G1 X13.5631 Y2.3647
G1 X13.5485 Y2.3498
M2002
M2101 P1 R1
G0
G0 X13.5168 Y9.2293
M2100 P0.1500 D1.5 C0.1750
M2001
G1
G1 X13.5150 Y9.2019
G1 X13.5131 Y9.2803
G1 X13.5125 Y9.3633
G1 X13.5128 Y9.4447
G1 X13.5148 Y9.5549
G1 X13.5156 Y9.5459
G1 X13.5198 Y9.4199
G1 X13.5201 Y9.3761
G1 X13.5168 Y9.2293
M2002
M2101 P1 R1
G0
G0 X12.2916 Y9.6336
M2100 P0.1500 D1.5 C0.1750
M2001
G1
G1 X12.3061 Y9.6485
G1 X12.3241 Y9.6593
G1 X12.3441 Y9.6650
G1 X12.3650 Y9.6653
G1 X12.3853 Y9.6602
G1 X12.4035 Y9.6500
G1 X12.4095 Y9.6455
G1 X12.4330 Y9.6270
G1 X12.4497 Y9.6116
G1 X12.4591 Y9.5994
G1 X12.4610 Y9.5926
G1 X12.4600 Y9.5904
G1 X12.4582 Y9.5881
G1 X12.4457 Y9.5781
G1 X12.4272 Y9.5679
G1 X12.4031 Y9.5569
G1 X12.3268 Y9.5267
G1 X12.2272 Y9.4932
G1 X12.1368 Y9.4719
G1 X12.0556 Y9.4621
G1 X12.0296 Y9.4614
G1 X11.9888 Y9.4634
G1 X11.9485 Y9.4705
G1 X11.9134 Y9.4829
G1 X11.8821 Y9.5030
G1 X11.8660 Y9.5207
G1 X11.8542 Y9.5414
G1 X11.8473 Y9.5642
G1 X11.8455 Y9.5880
G1 Y9.5885
G1 X11.8491 Y9.6240
G1 X11.8596 Y9.6621
G1 X11.8630 Y9.6712
G1 X11.8743 Y9.6907
G1 X11.8899 Y9.7072
G1 X11.9088 Y9.7197
G1 X11.9092 Y9.7199
G1 X11.9423 Y9.7349
G1 X11.9773 Y9.7448
G1 X12.0267 Y9.7525
G1 X12.0766 Y9.7549
G1 X12.1632 Y9.7485
G1 X12.2243 Y9.7367
G1 X12.2836 Y9.7179
G1 X12.3404 Y9.6924
G1 X12.3812 Y9.6666
G1 X12.4035 Y9.6500
G1 X12.4079 Y9.6296
G1 X12.4069 Y9.6087
G1 X12.4004 Y9.5889
G1 X12.3891 Y9.5713
G1 X12.3736 Y9.5573
G1 X12.3550 Y9.5478
M2002
M2101 P1 R1
G0
G0 X14.4271 Y11.1445
M2100 P0.1500 D1.5 C0.1750
M2001
G1
G1 X14.4243 Y11.1238
G1 X14.4162 Y11.1045
G1 X14.4034 Y11.0880
G1 X14.3867 Y11.0754
G1 X14.3674 Y11.0675
G1 X14.3467 Y11.0649
G1 X14.3466
G1 X13.9427 Y11.0605
G1 X13.6418 Y11.0495
G1 X13.4226 Y11.0338
G1 X13.2792 Y11.0142
G1 X13.2086 Y10.9896
G1 X13.2074 Y10.9888
G1 X13.1971 Y10.9701
G1 X13.1973 Y10.9667
G1 X13.2055 Y10.9467
G1 X13.2217 Y10.9323
G1 X13.2640 Y10.9107
G1 X13.3271 Y10.8894
G1 X13.4977 Y10.8502
G1 X13.7511 Y10.8096
G1 X14.1071 Y10.7682
G1 X14.5867 Y10.7294
G1 X15.0768 Y10.7008
G1 X15.3081 Y10.6814
G1 X15.5097 Y10.6557
G1 X15.5895 Y10.6413
G1 X15.6683 Y10.6224
G1 X15.7237 Y10.6044
G1 X15.7763 Y10.5793
G1 X15.7775 Y10.5787
G1 X15.7965 Y10.5669
G1 X15.8117 Y10.5505
G1 X15.8220 Y10.5307
G1 X15.8267 Y10.5088
G1 X15.8228 Y10.4849
G1 X15.8092 Y10.4716
G1 X15.7925 Y10.4625
G1 X15.7739 Y10.4584
G1 X15.7717 Y10.4580
G1 X15.7022 Y10.4445
G1 X15.6318 Y10.4364
G1 X15.4281 Y10.4235
G1 X15.1964 Y10.4173
G1 X14.9041 Y10.4153
G1 X14.5841 Y10.4169
G1 X14.2813 Y10.4207
G1 X13.8938 Y10.4275
G1 X13.5313 Y10.4352
G1 X13.1314 Y10.4447
G1 X12.8196 Y10.4535
G1 X12.5925 Y10.4618
G1 X12.3535 Y10.4743
G1 X12.1646 Y10.4902
G1 X12.0334 Y10.5105
G1 X12.0329 Y10.5106
G1 X11.9915 Y10.5215
G1 X11.9528 Y10.5397
G1 X11.9398 Y10.5542
G1 X11.9382 Y10.5642
G1 X11.9466 Y10.6017
G1 X11.9749 Y10.6644
G1 X12.0273 Y10.7522
G1 X12.1164 Y10.8761
G1 X12.1572 Y10.9267
G1 X12.1825 Y10.9567
G1 X12.4585 Y11.2772
G1 X12.8165 Y11.2709
G1 X13.1742 Y11.2585
G1 X13.5318 Y11.2401
G1 X13.9090 Y11.2148
G1 X14.2858 Y11.1839
G1 X14.5160 Y11.1626
G1 X14.6939 Y11.1447
G1 X14.8932 Y11.1225
G1 X15.0643 Y11.1005
G1 X15.1817 Y11.0819
G1 X15.2531 Y11.0664
G1 X15.2437 Y11.0648
G1 X15.1892 Y11.0607
G1 X15.1160 Y11.0583
G1 X14.9773 Y11.0576
G1 X14.5780 Y11.0637
G1 X14.3467 Y11.0649
G1 X14.3260 Y11.0677
G1 X14.3067 Y11.0758
G1 X14.2902 Y11.0886
G1 X14.2776 Y11.1053
G1 X14.2697 Y11.1246
G1 X14.2671 Y11.1453
M2002
M2101 P1 R1
G0
G0 X12.1066 Y12.5343
M2100 P0.1500 D1.5 C0.1750
M2001
G1
G1 X12.1274 Y12.5362
G1 X12.1479 Y12.5326
G1 X12.1669 Y12.5237
G1 X12.1829 Y12.5103
G1 X12.1949 Y12.4932
G1 X12.2020 Y12.4736
G1 X12.2052 Y12.3286
G1 X12.2062 Y12.1506
G1 X12.2052 Y11.9755
G1 X12.2016 Y11.8201
G1 X12.1947 Y11.6978
G1 X12.1833 Y11.6022
G1 X12.1762 Y11.5683
G1 X12.1652 Y11.5354
G1 X12.1647 Y11.5338
G1 X12.1583 Y11.5204
G1 X12.1474 Y11.5102
G1 X12.1336 Y11.5046
G1 X12.1315 Y11.5045
G1 X12.1179 Y11.5081
G1 X12.1064 Y11.5159
G1 X12.0980 Y11.5272
G1 X12.0975 Y11.5282
G1 X12.0840 Y11.5538
G1 X12.0739 Y11.5809
G1 X12.0545 Y11.6591
G1 X12.0403 Y11.7463
G1 X12.0275 Y11.8587
G1 X12.0207 Y11.9370
G1 X12.0107 Y12.0845
G1 X12.0059 Y12.1998
G1 X12.0043 Y12.3061
G1 X12.0102 Y12.4842
G1 X12.0168 Y12.5535
G1 X12.0272 Y12.6224
G1 X12.0388 Y12.6741
G1 X12.0556 Y12.7244
G1 X12.0558 Y12.7248
G1 X12.0726 Y12.7580
G1 X12.0974 Y12.7857
G1 X12.1122 Y12.7937
G1 X12.1288 Y12.7966
G1 X12.1447 Y12.7922
G1 X12.1575 Y12.7817
G1 X12.1649 Y12.7669
G1 X12.1655 Y12.7651
G1 X12.1765 Y12.7327
G1 X12.1835 Y12.6993
G1 X12.1952 Y12.6005
G1 X12.2020 Y12.4736
G1 X12.1997 Y12.4528
G1 X12.1922 Y12.4334
G1 X12.1798 Y12.4165
G1 X12.1636 Y12.4034
G1 X12.1444 Y12.3950
G1 X12.1238 Y12.3918
M2002
M2101 P1 R1
G0
G0 X10.0096 Y11.5790
M2100 P0.1500 D1.5 C0.1750
M2001
G1
G1 X10.0064 Y11.5584
G1 X9.9979 Y11.5393
G1 X9.9848 Y11.5230
G1 X9.9679 Y11.5107
G1 X9.9485 Y11.5032
G1 X9.9277 Y11.5009
G1 X9.8652 Y11.5024
G1 X9.3252 Y11.5203
G1 X9.0795 Y11.5306
G1 X8.8631 Y11.5413
G1 X8.7393 Y11.5484
G1 X8.6516 Y11.5543
G1 X8.5798 Y11.5601
G1 X8.1062 Y11.6024
G1 X8.0994 Y11.8528
G1 X8.0903 Y12.2612
G1 X8.0875 Y12.4465
G1 X8.0863 Y12.6390
G1 X8.0872 Y12.7692
G1 X8.0893 Y12.8573
G1 X8.0938 Y12.9364
G1 X8.0999 Y12.9794
G1 X8.1007 Y12.9820
G1 X8.1127 Y12.9958
G1 X8.1280 Y13.0059
G1 X8.1455 Y13.0112
G1 X8.1472 Y13.0116
G1 X8.1995 Y13.0241
G1 X8.2528 Y13.0320
G1 X8.4069 Y13.0452
G1 X8.5644 Y13.0521
G1 X8.7892 Y13.0572
G1 X9.0185 Y13.0595
G1 X9.3286 Y13.0602
G1 X9.8168 Y13.0566
G1 X10.1520 Y13.0503
G1 X10.4695 Y13.0402
G1 X10.6660 Y13.0299
G1 X10.7772 Y13.0194
G1 X10.7814 Y13.0187
G1 X10.8595 Y13.0034
G1 X10.9242 Y12.9841
G1 X10.9507 Y12.9724
G1 X10.9754 Y12.9571
G1 X10.9943 Y12.9389
G1 X11.0080 Y12.9166
G1 X11.0159 Y12.8916
G1 X11.0172 Y12.8654
G1 Y12.8646
G1 X11.0208 Y12.8181
G1 X11.0306 Y12.7873
G1 X11.0513 Y12.7624
G1 X11.0798 Y12.7470
G1 X11.1232 Y12.7387
G1 X11.1236
G1 X11.1546 Y12.7375
G1 X11.1555
G1 X11.1806 Y12.7380
G1 X11.1813 Y12.7381
G1 X11.2375 Y12.7420
G1 X11.4470 Y12.7622
G1 X11.4546 Y12.4554
G1 X11.4571 Y12.2999
G1 X11.4582 Y12.1256
G1 X11.4574 Y11.9943
G1 X11.4532 Y11.8312
G1 X11.4454 Y11.7038
G1 X11.4340 Y11.6143
G1 X11.4339 Y11.6138
G1 X11.4283 Y11.5888
G1 X11.4190 Y11.5650
G1 X11.4185 Y11.5641
G1 X11.4014 Y11.5455
G1 X11.3805 Y11.5313
G1 X11.3569 Y11.5224
G1 X11.3561 Y11.5222
G1 X11.3094 Y11.5102
G1 X11.2618 Y11.5027
G1 X11.1400 Y11.4925
G1 X11.0022 Y11.4878
G1 X10.8267 Y11.4863
G1 X10.5942 Y11.4878
G1 X10.2160 Y11.4941
G1 X9.9277 Y11.5009
G1 X9.9071 Y11.5041
G1 X9.8880 Y11.5126
G1 X9.8717 Y11.5257
G1 X9.8594 Y11.5426
G1 X9.8519 Y11.5620
G1 X9.8496 Y11.5828
M2002
M2101 P1 R1
G0
G0 X8.0283 Y11.0233
M2100 P0.1500 D1.5 C0.1750
M2001
G1
G1 X8.0348 Y11.0423
G1 X8.0469 Y11.0583
G1 X8.0633 Y11.0697
G1 X8.0825 Y11.0756
G1 X8.1025 Y11.0752
G1 X8.1328 Y11.0679
G1 X8.1621 Y11.0571
G1 X8.1973 Y11.0360
G1 X8.2115 Y11.0205
G1 X8.2139 Y11.0154
G1 X8.2143 Y11.0124
G1 X8.2080 Y11.0030
G1 X8.2072 Y11.0025
G1 X8.1867 Y10.9921
G1 X8.1527 Y10.9833
G1 X8.1103 Y10.9779
G1 X8.0591 Y10.9760
G1 X8.0058 Y10.9781
G1 X7.9643 Y10.9835
G1 X7.9309 Y10.9923
G1 X7.9106 Y11.0028
G1 X7.9099 Y11.0032
G1 X7.9039 Y11.0121
G1 X7.9050 Y11.0174
G1 X7.9064 Y11.0202
G1 X7.9263 Y11.0402
G1 X7.9655 Y11.0611
G1 X8.0016 Y11.0723
G1 X8.0388 Y11.0782
G1 X8.0591 Y11.0791
G1 X8.0794 Y11.0782
G1 X8.1025 Y11.0752
G1 X8.1214 Y11.0687
G1 X8.1374 Y11.0566
G1 X8.1489 Y11.0402
G1 X8.1547 Y11.0210
G1 X8.1543 Y11.0010
M2002
M2101 P1 R1
G0
G0 X7.8851 Y9.6022
M2100 P0.1500 D1.5 C0.1750
M2001
G1
G1 X7.8826 Y9.5815
G1 X7.8747 Y9.5621
G1 X7.8622 Y9.5454
G1 X7.8457 Y9.5325
G1 X7.8265 Y9.5244
G1 X7.8058 Y9.5215
G1 X7.7433 Y9.5209
G1 X7.7443 Y9.8446
G1 X7.7472 Y10.1038
G1 X7.7513 Y10.2879
G1 X7.7591 Y10.4757
G1 X7.7717 Y10.6290
G1 X7.7791 Y10.6803
G1 X7.7912 Y10.7306
G1 X7.7916 Y10.7323
G1 X7.7962 Y10.7470
G1 X7.8048 Y10.7597
G1 X7.8168 Y10.7695
G1 X7.8399 Y10.7750
G1 X7.8793 Y10.7798
G1 X7.9379 Y10.7834
G1 X8.0299 Y10.7851
G1 X8.1167 Y10.7839
G1 X8.2992 Y10.7751
G1 X8.4854 Y10.7670
G1 X8.7129 Y10.7580
G1 X9.1093 Y10.7436
G1 X9.6326 Y10.7258
G1 X10.3191 Y10.7038
G1 X10.6643 Y10.6910
G1 X10.9198 Y10.6796
G1 X11.1932 Y10.6637
G1 X11.4089 Y10.6455
G1 X11.5630 Y10.6238
G1 X11.5634 Y10.6237
G1 X11.6085 Y10.6136
G1 X11.6518 Y10.5975
G1 X11.6533 Y10.5969
G1 X11.6611 Y10.5919
G1 X11.6657 Y10.5838
G1 X11.6591 Y10.5729
G1 X11.6583 Y10.5722
G1 X11.6352 Y10.5547
G1 X11.6143 Y10.5499
G1 X11.5511 Y10.5422
G1 X11.4824 Y10.5361
G1 X11.3481 Y10.5263
G1 X11.1813 Y10.5162
G1 X11.0228 Y10.5078
G1 X10.7746 Y10.4963
G1 X10.0125 Y10.4672
G1 X9.6687 Y10.4515
G1 X9.2927 Y10.4300
G1 X8.9784 Y10.4053
G1 X8.7522 Y10.3778
G1 X8.6178 Y10.3467
G1 X8.5908 Y10.3341
G1 X8.5739 Y10.3097
G1 X8.5743 Y10.2990
G1 X8.5875 Y10.2811
G1 X8.6071 Y10.2705
G1 X8.7092 Y10.2355
G1 X8.8980 Y10.1895
G1 X9.1939 Y10.1304
G1 X9.4967 Y10.0771
G1 X9.8403 Y10.0221
G1 X10.2505 Y9.9622
G1 X10.9789 Y9.8670
G1 X11.1159 Y9.8483
G1 X11.2058 Y9.8350
G1 X11.3120 Y9.8175
G1 X11.4066 Y9.7984
G1 X11.4849 Y9.7768
G1 X11.5142 Y9.7655
G1 X11.5418 Y9.7505
G1 X11.5588 Y9.7363
G1 X11.5711 Y9.7180
G1 X11.5780 Y9.6970
G1 X11.5788 Y9.6749
G1 Y9.6714
G1 X11.5781 Y9.6496
G1 X11.5702 Y9.6292
G1 X11.5561 Y9.6125
G1 X11.5372 Y9.6014
G1 X11.5158 Y9.5972
G1 X11.5127 Y9.5968
G1 X11.4438 Y9.5828
G1 X11.3741 Y9.5748
G1 X11.1973 Y9.5631
G1 X11.0149 Y9.5565
G1 X10.7005 Y9.5498
G1 X10.4478 Y9.5462
G1 X9.7845 Y9.5394
G1 X7.8058 Y9.5215
G1 X7.7900 Y9.5351
G1 X7.7782 Y9.5523
G1 X7.7714 Y9.5721
G1 X7.7698 Y9.5929
G1 X7.7737 Y9.6134
G1 X7.7828 Y9.6322
M2002
M2101 P1 R1
G0
G0 X7.2969 Y9.6237
M2100 P0.1500 D1.5 C0.1750
M2001
G1
G1 X7.2962 Y9.6029
G1 X7.2902 Y9.5829
G1 X7.2792 Y9.5651
G1 X7.2639 Y9.5508
G1 X7.2455 Y9.5410
G1 X7.2252 Y9.5362
G1 X7.1036 Y9.5301
G1 X6.9966 Y9.5337
G1 X6.9267 Y9.5349
G1 X6.9260
G1 X6.8354 Y9.5322
G1 X6.8343
G1 X6.7648 Y9.5250
G1 X6.7642 Y9.5249
G1 X6.7073 Y9.5125
G1 X6.6660 Y9.4938
G1 X6.6500 Y9.4783
G1 X6.6430 Y9.4572
G1 Y9.4550
G1 X6.6591 Y9.4209
G1 X6.6880 Y9.3976
G1 X6.6888 Y9.3972
G1 X6.7278 Y9.3762
G1 X6.7291 Y9.3756
G1 X6.7703 Y9.3585
G1 X6.7712 Y9.3581
G1 X6.8246 Y9.3400
G1 X6.8253 Y9.3398
G1 X6.8907 Y9.3213
G1 X6.8913 Y9.3211
G1 X6.9635 Y9.3040
G1 X6.9640 Y9.3039
G1 X7.0664 Y9.2834
G1 X7.1644 Y9.2591
G1 X7.2601 Y9.2268
G1 X7.3484 Y9.1872
G1 X7.3812 Y9.1686
G1 X7.4094 Y9.1492
G1 X7.4298 Y9.1310
G1 X7.4365 Y9.1230
G1 X7.4511 Y9.0984
G1 X7.4621 Y9.0720
G1 X7.4856 Y8.9856
G1 X7.4975 Y8.9168
G1 X7.5058 Y8.8475
G1 X7.5154 Y8.6873
G1 X7.5160 Y8.6348
G1 X7.5139 Y8.5396
G1 X7.5071 Y8.4447
G1 X7.4905 Y8.3347
G1 X7.4696 Y8.2666
G1 X7.4694 Y8.2660
G1 X7.4602 Y8.2487
G1 X7.4469 Y8.2345
G1 X7.4429 Y8.2325
G1 X7.4284 Y8.2287
G1 X7.4021 Y8.2242
G1 X7.3677 Y8.2197
G1 X7.2663 Y8.2099
G1 X7.1702 Y8.2027
G1 X7.0032 Y8.1932
G1 X6.8194 Y8.1858
G1 X6.6165 Y8.1748
G1 X6.4706 Y8.1600
G1 X6.3692 Y8.1440
G1 X6.3049 Y8.1280
G1 X6.2672 Y8.1091
G1 X6.2651 Y8.1071
G1 X6.2631 Y8.1047
G1 X6.2626 Y8.1041
G1 X6.2578 Y8.0911
G1 Y8.0904
G1 X6.2582 Y8.0864
G1 X6.2788 Y8.0605
G1 X6.3171 Y8.0402
G1 X6.3730 Y8.0185
G1 X6.3738 Y8.0182
G1 X6.4544 Y7.9927
G1 X6.4550 Y7.9925
G1 X6.5528 Y7.9660
G1 X6.5532 Y7.9659
G1 X6.6454 Y7.9438
G1 X6.7705 Y7.9172
G1 X6.9430 Y7.8838
G1 X7.0886 Y7.8535
G1 X7.2154 Y7.8239
G1 X7.3151 Y7.7967
G1 X7.3980 Y7.7684
G1 X7.4546 Y7.7413
G1 X7.4802 Y7.7223
G1 X7.4940 Y7.7019
G1 X7.4953 Y7.6925
G1 X7.4901 Y7.6745
G1 X7.4883 Y7.6713
G1 X7.4819 Y7.6682
G1 X7.4809 Y7.6680
G1 X7.4314 Y7.6587
G1 X7.3508 Y7.6516
G1 X7.2311 Y7.6461
G1 X7.0489 Y7.6429
G1 X6.7870 Y7.6443
G1 X6.7205 Y7.6455
G1 X6.3601 Y7.6581
G1 X6.1765 Y7.6700
G1 X6.0486 Y7.6830
G1 X5.9746 Y7.6961
G1 X5.9531 Y7.7038
G1 X5.9320 Y7.7247
G1 X5.9104 Y7.7651
G1 X5.9005 Y7.7969
G1 X5.8948 Y7.8297
G1 X5.8936 Y7.8526
G1 X5.8850 Y7.9033
G1 X5.8602 Y7.9829
G1 X5.8164 Y8.0981
G1 X5.7346 Y8.2866
G1 X5.6768 Y8.4078
G1 X5.6624 Y8.4369
G1 X5.5956 Y8.5663
G1 X5.5217 Y8.6918
G1 X5.4408 Y8.8129
G1 X5.3532 Y8.9293
G1 X5.2592 Y9.0405
G1 X5.1590 Y9.1462
G1 X5.0531 Y9.2462
G1 X4.9417 Y9.3399
G1 X4.8251 Y9.4273
G1 X4.7038 Y9.5080
G1 X4.5718 Y9.5818
G1 X4.4357 Y9.6481
G1 X4.2962 Y9.7067
G1 X4.1536 Y9.7574
G1 X4.0084 Y9.8000
G1 X3.8610 Y9.8344
G1 X3.7120 Y9.8605
G1 X3.5617 Y9.8782
G1 X3.4106 Y9.8875
G1 X3.2439 Y9.8915
G1 X3.0404 Y9.8858
G1 X2.8375 Y9.8691
G1 X2.6977 Y9.8517
G1 X2.5367 Y9.8324
G1 X2.4147 Y9.8231
G1 X2.3225 Y9.8200
G1 X2.2523 Y9.8215
G1 X2.2106 Y9.8256
G1 X2.1848 Y9.8317
G1 X2.1758 Y9.8368
G1 X2.1638 Y9.8566
G1 X2.1599 Y9.8794
G1 Y9.8798
G1 Y9.8816
G1 X2.1647 Y9.9164
G1 X2.1762 Y9.9496
G1 X2.1982 Y9.9935
G1 X2.2245 Y10.0350
G1 X2.2649 Y10.0890
G1 X2.3089 Y10.1402
G1 X2.3757 Y10.2086
G1 X2.4604 Y10.2848
G1 X2.5497 Y10.3555
G1 X2.6335 Y10.4145
G1 X2.7206 Y10.4685
G1 X2.8107 Y10.5173
G1 X2.9217 Y10.5712
G1 X3.0492 Y10.6251
G1 X3.1294 Y10.6521
G1 X3.2113 Y10.6738
G1 X3.2944 Y10.6902
G1 X3.4679 Y10.7132
G1 X3.6504 Y10.7284
G1 X3.8699 Y10.7413
G1 X4.0647 Y10.7507
G1 X4.4071 Y10.7645
G1 X4.8453 Y10.7765
G1 X5.3280 Y10.7853
G1 X5.8675 Y10.7902
G1 X6.2073
G1 X6.5800 Y10.7867
G1 X6.8084 Y10.7825
G1 X7.0403 Y10.7745
G1 X7.2217 Y10.7619
G1 X7.2888 Y10.7538
G1 X7.3551 Y10.7414
G1 X7.3557 Y10.7413
G1 X7.3854 Y10.7337
G1 X7.4136 Y10.7217
G1 X7.4397 Y10.7056
G1 X7.4537 Y10.6897
G1 X7.4669 Y10.6629
G1 X7.4764 Y10.6345
G1 X7.4962 Y10.5400
G1 X7.5106 Y10.4035
G1 X7.5172 Y10.2009
G1 X7.5168 Y10.1475
G1 X7.5118 Y10.0077
G1 X7.5005 Y9.8683
G1 X7.4792 Y9.7254
G1 X7.4688 Y9.6806
G1 X7.4550 Y9.6367
G1 X7.4549 Y9.6362
G1 X7.4445 Y9.6127
G1 X7.4296 Y9.5917
G1 X7.4280 Y9.5903
G1 X7.3917 Y9.5707
G1 X7.3286 Y9.5523
G1 X7.2252 Y9.5362
G1
G1 X7.2043 Y9.5368
G1 X7.1843 Y9.5429
G1 X7.1666 Y9.5539
G1 X7.1523 Y9.5691
G1 X7.1424 Y9.5875
G1 X7.1376 Y9.6078
M2002
M2101 P1 R1
G0
G0 X7.8308 Y8.7602
M2100 P0.1500 D1.5 C0.1750
M2001
G1
G1 X7.8100 Y8.7623
G1 X7.7905 Y8.7697
G1 X7.7735 Y8.7819
G1 X7.7603 Y8.7981
G1 X7.7517 Y8.8172
G1 X7.7484 Y8.8378
G1 X7.7465 Y8.9003
G1 X7.7482 Y8.9495
G1 X7.7561 Y8.9981
G1 X7.7656 Y9.0240
G1 X7.7812 Y9.0467
G1 X7.8019 Y9.0649
G1 X7.8265 Y9.0773
G1 X7.8534 Y9.0833
G1 X7.8547 Y9.0834
G1 X7.8959 Y9.0888
G1 X7.9374 Y9.0902
G1 X8.0465 Y9.0843
G1 X8.1808 Y9.0680
G1 X8.3281 Y9.0455
G1 X8.4573 Y9.0240
G1 X8.8714 Y8.9521
G1 X9.1439 Y8.9056
G1 X9.3489 Y8.8720
G1 X9.5707 Y8.8368
G1 X10.1044 Y8.7564
G1 X10.3390 Y8.7235
G1 X10.5345 Y8.6981
G1 X10.8152 Y8.6594
G1 X10.9693 Y8.6341
G1 X11.0931 Y8.6112
G1 X11.1991 Y8.5885
G1 X11.2703 Y8.5700
G1 X11.3190 Y8.5523
G1 X11.3668 Y8.5265
G1 X11.3840 Y8.5155
G1 X11.3974 Y8.5035
G1 X11.4006 Y8.4980
G1 X11.4013 Y8.4940
G1 X11.3975 Y8.4836
G1 X11.3842 Y8.4670
G1 X11.3647 Y8.4482
G1 X11.3389 Y8.4259
G1 X11.2957 Y8.3905
G1 X11.2599 Y8.3653
G1 X11.2213 Y8.3448
G1 X11.1803 Y8.3293
G1 X11.1377 Y8.3190
G1 X11.1373
G1 X11.0487 Y8.3038
G1 X10.9594 Y8.2944
G1 X10.7561 Y8.2822
G1 X10.5541 Y8.2758
G1 X10.2672 Y8.2708
G1 X9.9735 Y8.2679
G1 X9.0329 Y8.2619
G1 X8.4328 Y8.2560
G1 X8.1290 Y8.2516
G1 X7.9768 Y8.2483
G1 X7.8771 Y8.2440
G1 X7.8492 Y8.2457
G1 X7.8227 Y8.2546
G1 X7.8045 Y8.2718
G1 X7.7932 Y8.2942
G1 X7.7930 Y8.2948
G1 X7.7794 Y8.3500
G1 X7.7711 Y8.4174
G1 X7.7656 Y8.4893
G1 X7.7490 Y8.8160
G1 X7.7484 Y8.8378
G1 X7.7505 Y8.8586
G1 X7.7579 Y8.8781
G1 X7.7701 Y8.8950
G1 X7.7863 Y8.9082
G1 X7.8053 Y8.9168
G1 X7.8259 Y8.9202
M2002
M2101 P1 R1
G0
G0 X6.8041 Y7.2680
M2100 P0.1500 D1.5 C0.1750
M2001
G1
G1 X6.8085 Y7.2875
G1 X6.8188 Y7.3047
G1 X6.8338 Y7.3179
G1 X6.8522 Y7.3258
G1 X6.8722 Y7.3276
G1 X7.0388 Y7.3150
G1 X7.2005 Y7.2989
G1 X7.3074 Y7.2845
G1 X7.3754 Y7.2708
G1 X7.3457 Y7.2665
G1 X7.2546 Y7.2583
G1 X7.1150 Y7.2510
G1 X6.9235 Y7.2457
G1 X6.7018 Y7.2437
G1 X6.5276 Y7.2448
G1 X6.3929 Y7.2476
G1 X6.2418 Y7.2535
G1 X6.1119 Y7.2627
G1 X6.0198 Y7.2744
G1 X5.9651 Y7.2880
G1 X5.9624 Y7.2887
G1 X5.9555 Y7.2924
G1 X5.9567 Y7.2932
G1 X5.9829 Y7.3057
G1 X6.0226 Y7.3183
G1 X6.0759 Y7.3314
G1 X6.0964 Y7.3358
G1 X6.1348 Y7.3413
G1 X6.1933 Y7.3455
G1 X6.2728 Y7.3478
G1 X6.3273 Y7.3481
G1 X6.4210 Y7.3473
G1 X6.5753 Y7.3430
G1 X6.7385 Y7.3356
G1 X6.8722 Y7.3276
G1 X6.8917 Y7.3231
G1 X6.9089 Y7.3129
G1 X6.9221 Y7.2978
G1 X6.9300 Y7.2794
G1 X6.9318 Y7.2595
M2002
M2101 P1 R1
G0
G0 X4.8804 Y7.2322
M2100 P0.1500 D1.5 C0.1750
M2001
G1
G1 X4.8596 Y7.2304
G1 X4.8390 Y7.2340
G1 X4.8201 Y7.2429
G1 X4.8041 Y7.2563
G1 X4.7921 Y7.2734
G1 X4.7850 Y7.2930
G1 X4.7849 Y7.2933
G1 X4.7193 Y7.5442
G1 X4.6966 Y7.6224
G1 X4.6588 Y7.7412
G1 X4.6133 Y7.8572
G1 X4.5601 Y7.9699
G1 X4.4996 Y8.0788
G1 X4.4217 Y8.1925
G1 X4.3346 Y8.2994
G1 X4.2389 Y8.3986
G1 X4.1353 Y8.4895
G1 X3.9619 Y8.6209
G1 X3.8241 Y8.7121
G1 X3.7068 Y8.7836
G1 X3.7064 Y8.7838
G1 X3.6312 Y8.8268
G1 X3.5308 Y8.8766
G1 X3.5167 Y8.8826
G1 X3.4101 Y8.9186
G1 X3.2998 Y8.9403
G1 X3.1462 Y8.9544
G1 X2.9843 Y8.9597
G1 X2.8096 Y8.9610
G1 X2.7745 Y8.9611
G1 X2.4865 Y8.9542
G1 X2.1957 Y8.9212
G1 X2.1011 Y8.9004
G1 X2.0085 Y8.8719
G1 X1.9185 Y8.8360
G1 X1.8317 Y8.7929
G1 X1.7487 Y8.7429
G1 X1.5642 Y8.6021
G1 X1.4006 Y8.4491
G1 X1.2430 Y8.2856
G1 X1.2191 Y8.2598
G1 X1.0775 Y8.1121
G1 X0.9830 Y8.0201
G1 X0.9086 Y7.9530
G1 X0.8535 Y7.9090
G1 X0.8237 Y7.8913
G1 X0.8187 Y7.9008
G1 X0.8170 Y7.9114
G1 Y7.9119
G1 X0.8211 Y7.9372
G1 X0.8304 Y7.9611
G1 X0.8305 Y7.9614
G1 X0.8682 Y8.0267
G1 X0.9258 Y8.1053
G1 X1.0031 Y8.1989
G1 X1.0843 Y8.2913
G1 X1.1816 Y8.3979
G1 X1.2568 Y8.4778
G1 X1.3520 Y8.5734
G1 X1.4511 Y8.6616
G1 X1.5271 Y8.7188
G1 X1.6072 Y8.7701
G1 X1.6910 Y8.8149
G1 X1.7441 Y8.8401
G1 X1.8546 Y8.8874
G1 X1.9611 Y8.9287
G1 X2.0793 Y8.9722
G1 X2.2188 Y9.0199
G1 X2.3648 Y9.0604
G1 X2.4702 Y9.0797
G1 X2.5449 Y9.0872
G1 X2.6198 Y9.0896
G1 X2.7006 Y9.0872
G1 X2.7812 Y9.0806
G1 X2.9210 Y9.0626
G1 X3.0234 Y9.0460
G1 X3.1375 Y9.0256
G1 X3.2609 Y9.0005
G1 X3.3829 Y8.9695
G1 X3.5032 Y8.9327
G1 X3.6216 Y8.8899
G1 X3.7273 Y8.8447
G1 X3.8304 Y8.7937
G1 X3.9305 Y8.7372
G1 X4.0274 Y8.6753
G1 X4.1208 Y8.6081
G1 X4.2103 Y8.5360
G1 X4.2871 Y8.4654
G1 X4.3479 Y8.4018
G1 X4.4418 Y8.2912
G1 X4.5293 Y8.1754
G1 X4.6153 Y8.0497
G1 X4.6960 Y7.9207
G1 X4.7716 Y7.7886
G1 X4.8538 Y7.6295
G1 X4.9277 Y7.4665
G1 X4.9688 Y7.3621
G1 X5.0042 Y7.2556
G1 X5.0244 Y7.1791
G1 X5.0385 Y7.1012
G1 X5.0423 Y7.0446
G1 X5.0409 Y7.0155
G1 X5.0359 Y6.9868
G1 X5.0265 Y6.9624
G1 X5.0101 Y6.9420
G1 X5.0038 Y6.9373
G1 X4.9700 Y6.9171
G1 X4.9402 Y6.9017
G1 X4.9133 Y6.8910
G1 X4.8891 Y6.8859
G1 X4.8844 Y6.8858
G1 X4.8695 Y6.8887
G1 X4.8571 Y6.8976
G1 X4.8496 Y6.9109
G1 X4.8492 Y6.9119
G1 X4.8412 Y6.9413
G1 X4.8373 Y6.9800
G1 X4.8367 Y7.0078
G1 X4.8316 Y7.0636
G1 X4.8153 Y7.1559
G1 X4.8152 Y7.1565
G1 X4.7850 Y7.2930
G1 X4.7832 Y7.3138
G1 X4.7868 Y7.3344
G1 X4.7956 Y7.3533
G1 X4.8091 Y7.3693
G1 X4.8262 Y7.3813
G1 X4.8458 Y7.3884
M2002
M2101 P1 R1
G0
G0 X3.5819 Y7.4308
M2100 P0.1500 D1.5 C0.1750
M2001
G1
G1 X3.5932 Y7.4483
G1 X3.6087 Y7.4624
G1 X3.6272 Y7.4720
G1 X3.6476 Y7.4764
G1 X3.6685 Y7.4754
G1 X3.6884 Y7.4691
G1 X3.7149 Y7.4449
G1 X3.7360 Y7.4159
G1 X3.7555 Y7.3819
G1 X3.7740 Y7.3441
G1 X3.7871 Y7.3100
G1 X3.7947 Y7.2804
G1 X3.7970 Y7.2568
G1 X3.7932 Y7.2346
G1 X3.7867 Y7.2243
G1 X3.7768 Y7.2173
G1 X3.7649 Y7.2146
G1 X3.7572 Y7.2142
G1 X3.7335 Y7.2172
G1 X3.7049 Y7.2263
G1 X3.6738 Y7.2405
G1 X3.6384 Y7.2608
G1 X3.5893 Y7.2855
G1 X3.5107 Y7.3123
G1 X3.4228 Y7.3319
G1 X3.3360 Y7.3419
G1 X3.2440 Y7.3454
G1 X3.1944 Y7.3527
G1 X3.1574 Y7.3638
G1 X3.1330 Y7.3779
G1 X3.1325 Y7.3783
G1 X3.1267 Y7.3849
G1 X3.1242 Y7.3932
G1 X3.1258 Y7.3997
G1 X3.1272 Y7.4021
G1 X3.1413 Y7.4168
G1 X3.1668 Y7.4318
G1 X3.2032 Y7.4458
G1 X3.2475 Y7.4574
G1 X3.2887 Y7.4649
G1 X3.3577 Y7.4750
G1 X3.4234 Y7.4839
G1 X3.4864 Y7.4911
G1 X3.5426 Y7.4952
G1 X3.5717 Y7.4959
G1 X3.6294 Y7.4916
G1 X3.6601 Y7.4836
G1 X3.6884 Y7.4691
G1
G1 X3.7034 Y7.4546
G1 X3.7142 Y7.4367
G1 X3.7200 Y7.4166
G1 X3.7203 Y7.3957
G1 X3.7153 Y7.3755
G1 X3.7052 Y7.3572
M2002
M2101 P1 R1
G0
G0 X2.8778 Y7.8420
M2100 P0.1500 D1.5 C0.1750
M2001
G1
G1 X2.8909 Y7.8258
G1 X2.8995 Y7.8068
G1 X2.9028 Y7.7861
G1 X2.9006 Y7.7654
G1 X2.8932 Y7.7458
G1 X2.8809 Y7.7289
G1 X2.8193 Y7.6584
G1 X2.7469 Y7.5678
G1 X2.7024 Y7.5189
G1 X2.6610 Y7.4806
G1 X2.6265 Y7.4564
G1 X2.6004 Y7.4467
G1 X2.5967 Y7.4464
G1 X2.5872 Y7.4499
G1 X2.5819 Y7.4585
G1 X2.5816 Y7.4597
G1 X2.5783 Y7.4792
G1 X2.5811 Y7.5206
G1 X2.5903 Y7.5645
G1 X2.6053 Y7.6156
G1 X2.6276 Y7.6776
G1 X2.6444 Y7.7191
G1 X2.6628 Y7.7616
G1 X2.6825 Y7.8038
G1 X2.7022 Y7.8418
G1 X2.7139 Y7.8618
G1 X2.7528 Y7.9143
G1 X2.7797 Y7.9380
G1 X2.8107 Y7.9560
G1 X2.8446 Y7.9675
G1 X2.8802 Y7.9721
G1 X2.9195 Y7.9738
G1 X2.9215
G1 X2.9768 Y7.9705
G1 X3.0314 Y7.9611
G1 X3.0857 Y7.9434
G1 X3.1161 Y7.9254
G1 X3.1257 Y7.9146
G1 X3.1293 Y7.9076
G1 X3.1314 Y7.8994
G1 X3.1316 Y7.8967
G1 X3.1288 Y7.8872
G1 X3.1217 Y7.8803
G1 X3.1213 Y7.8800
G1 X3.1069 Y7.8740
G1 X3.0860 Y7.8713
G1 X3.0832
G1 X3.0826
G1 X3.0455 Y7.8615
G1 X3.0021 Y7.8363
G1 X2.9474 Y7.7932
G1 X2.8809 Y7.7289
G1 X2.8647 Y7.7158
G1 X2.8456 Y7.7072
G1 X2.8250 Y7.7039
G1 X2.8042 Y7.7061
G1 X2.7847 Y7.7135
G1 X2.7678 Y7.7258
M2002
M2101 P1 R1
G0
G0 X2.1874 Y7.3545
M2100 P0.1500 D1.5 C0.1750
M2001
G1
G1 X2.2082 Y7.3564
G1 X2.2288 Y7.3528
G1 X2.2478 Y7.3441
G1 X2.2638 Y7.3307
G1 X2.2759 Y7.3137
G1 X2.2831 Y7.2941
G1 X2.2838 Y7.2661
G1 X2.2808 Y7.2154
G1 X2.2727 Y7.1764
G1 X2.2606 Y7.1500
G1 X2.2602 Y7.1494
G1 X2.2463 Y7.1384
G1 X2.2431 Y7.1381
G1 X2.2329 Y7.1414
G1 X2.2197 Y7.1528
G1 X2.2037 Y7.1746
G1 X2.1933 Y7.1934
G1 X2.1832 Y7.2157
G1 X2.1570 Y7.2851
G1 X2.1567 Y7.2860
G1 X2.1357 Y7.3321
G1 X2.1355 Y7.3326
G1 X2.1208 Y7.3615
G1 X2.1205 Y7.3621
G1 X2.0805 Y7.4324
G1 X2.0799 Y7.4333
G1 X2.0291 Y7.5089
G1 X2.0136 Y7.5382
G1 X2.0052 Y7.5698
G1 X2.0051 Y7.5849
G1 X2.0145 Y7.6178
G1 X2.0307 Y7.6457
G1 X2.0543 Y7.6768
G1 X2.0894 Y7.7149
G1 X2.1233 Y7.7439
G1 X2.1545 Y7.7630
G1 X2.1828 Y7.7722
G1 X2.1918 Y7.7729
G1 X2.2059 Y7.7701
G1 X2.2176 Y7.7619
G1 X2.2250 Y7.7497
G1 X2.2252 Y7.7490
G1 X2.2312 Y7.7252
G1 X2.2339 Y7.6764
G1 Y7.6758
G1 X2.2388 Y7.6261
G1 X2.2474 Y7.5557
G1 X2.2799 Y7.3331
G1 X2.2831 Y7.2941
G1 X2.2809 Y7.2733
G1 X2.2734 Y7.2538
G1 X2.2611 Y7.2369
G1 X2.2449 Y7.2238
G1 X2.2258 Y7.2153
G1 X2.2052 Y7.2120
M2002
M2101 P1 R1
G0
G0 X2.7007 Y6.8784
M2100 P0.1500 D1.5 C0.1750
M2001
G1
G1 X2.6801 Y6.8755
G1 X2.6593 Y6.8781
G1 X2.6400 Y6.8859
G1 X2.6233 Y6.8985
G1 X2.6105 Y6.9150
G1 X2.6023 Y6.9342
G1 X2.6018 Y6.9361
G1 X2.6004 Y6.9461
G1 Y6.9486
G1 X2.6038 Y6.9615
G1 X2.6141 Y6.9700
G1 X2.6342 Y6.9756
G1 X2.6587 Y6.9773
G1 X2.6749 Y6.9769
G1 X2.6935 Y6.9754
G1 X2.7157 Y6.9727
G1 X2.7717 Y6.9597
G1 X2.8093 Y6.9433
G1 X2.8333 Y6.9255
G1 X2.8431 Y6.9086
G1 X2.8433 Y6.9063
G1 X2.8428 Y6.9019
G1 X2.8332 Y6.8826
G1 X2.8179 Y6.8673
G1 X2.7986 Y6.8578
G1 X2.7979 Y6.8576
G1 X2.7720 Y6.8509
G1 X2.7453 Y6.8488
G1 X2.7238 Y6.8500
G1 X2.6923 Y6.8558
G1 X2.6623 Y6.8673
G1 X2.6350 Y6.8841
G1 X2.6169 Y6.9025
G1 X2.6048 Y6.9254
G1 X2.6023 Y6.9342
G1 X2.6149 Y6.9509
G1 X2.6314 Y6.9637
G1 X2.6506 Y6.9719
G1 X2.6713 Y6.9748
G1 X2.6920 Y6.9722
G1 X2.7114 Y6.9643
M2002
M2101 P1 R1
G0
G0 X1.9781 Y6.7525
M2100 P0.1500 D1.5 C0.1750
M2001
G1
G1 X1.9695 Y6.7335
G1 X1.9563 Y6.7173
G1 X1.9394 Y6.7051
G1 X1.9198 Y6.6977
G1 X1.8990 Y6.6956
G1 X1.8784 Y6.6990
G1 X1.8466 Y6.7112
G1 X1.8169 Y6.7279
G1 X1.7932 Y6.7499
G1 X1.7754 Y6.7769
G1 X1.7644 Y6.8073
G1 X1.7643 Y6.8079
G1 X1.7506 Y6.8784
G1 X1.7445 Y6.9357
G1 X1.7275 Y7.1252
G1 X1.7832 Y7.0703
G1 X1.8789 Y6.9787
G1 X1.9655 Y6.8989
G1 X1.9658 Y6.8987
G1 X2.0442 Y6.8303
G1 X2.0447 Y6.8299
G1 X2.1132 Y6.7755
G1 X2.1137 Y6.7751
G1 X2.1745 Y6.7311
G1 X2.2012 Y6.7085
G1 X2.2205 Y6.6881
G1 X2.2300 Y6.6731
G1 X2.2319 Y6.6644
G1 X2.2265 Y6.6579
G1 X2.2255 Y6.6574
G1 X2.2086 Y6.6519
G1 X2.1815 Y6.6491
G1 X2.1692 Y6.6488
G1 X2.1359 Y6.6501
G1 X2.0956 Y6.6541
G1 X2.0506 Y6.6606
G1 X1.9841 Y6.6729
G1 X1.9522 Y6.6796
G1 X1.8786 Y6.6989
G1 X1.8784 Y6.6990
G1 X1.8594 Y6.7076
G1 X1.8432 Y6.7208
G1 X1.8310 Y6.7377
G1 X1.8236 Y6.7573
G1 X1.8215 Y6.7780
G1 X1.8249 Y6.7986
M2002
M2101 P1 R1
G0
G0 X2.2490 Y6.1340
M2100 P0.1500 D1.5 C0.1750
M2001
G1
G1 X2.2510 Y6.1133
G1 X2.2476 Y6.0926
G1 X2.2390 Y6.0736
G1 X2.2257 Y6.0575
G1 X2.2087 Y6.0454
G1 X2.1892 Y6.0380
G1 X2.1495 Y6.0329
G1 X2.1358 Y6.0337
G1 X2.1310 Y6.0344
G1 X2.0890 Y6.0466
G1 X2.0557 Y6.0663
G1 X2.0414 Y6.0817
G1 X2.0323 Y6.1007
G1 X2.0300 Y6.1189
G1 X2.0339 Y6.1418
G1 X2.0357 Y6.1468
G1 X2.0473 Y6.1687
G1 X2.0629 Y6.1880
G1 X2.0844 Y6.2076
G1 X2.1084 Y6.2242
G1 X2.1381 Y6.2399
G1 X2.1694 Y6.2524
G1 X2.2163 Y6.2654
G1 X2.3327 Y6.2892
G1 X2.3909 Y6.2998
G1 X2.4408 Y6.3075
G1 X2.4839 Y6.3122
G1 X2.5099 Y6.3133
G1 X2.5371 Y6.3113
G1 X2.5532 Y6.3055
G1 X2.5583 Y6.2994
G1 X2.5598 Y6.2915
G1 X2.5597 Y6.2907
G1 Y6.2887
G1 X2.5526 Y6.2669
G1 X2.5321 Y6.2383
G1 X2.4977 Y6.2041
G1 X2.4784 Y6.1878
G1 X2.4162 Y6.1428
G1 X2.3255 Y6.0903
G1 X2.2447 Y6.0547
G1 X2.1892 Y6.0380
G1
G1 X2.1684 Y6.0360
G1 X2.1478 Y6.0394
G1 X2.1288 Y6.0481
G1 X2.1126 Y6.0613
G1 X2.1005 Y6.0783
G1 X2.0931 Y6.0979
M2002
M2101 P1 R1
G0
G0 X3.1007 Y6.1915
M2100 P0.1500 D1.5 C0.1750
M2001
G1
G1 X3.1209 Y6.1861
G1 X3.1390 Y6.1757
G1 X3.1537 Y6.1609
G1 X3.1642 Y6.1428
G1 X3.1696 Y6.1226
G1 X3.1695 Y6.1017
G1 X3.1618 Y6.0437
G1 Y6.0432
G1 X3.1574 Y5.9994
G1 Y5.9987
G1 X3.1563 Y5.9742
G1 Y5.9737
G1 X3.1538 Y5.9613
G1 X3.1529 Y5.9591
G1 X3.1334 Y5.9332
G1 X3.0957 Y5.9061
G1 X3.0647 Y5.8913
G1 X3.0322 Y5.8801
G1 X3.0027 Y5.8731
G1 X2.9565 Y5.8649
G1 X2.9176 Y5.8591
G1 X2.8904 Y5.8558
G1 X2.8594 Y5.8539
G1 X2.8634 Y5.8644
G1 X2.9014 Y5.9564
G1 X2.9388 Y6.0435
G1 X2.9890 Y6.1581
G1 X3.0366 Y6.2576
G1 X3.0801 Y6.3347
G1 X3.1203 Y6.3932
G1 X3.1555 Y6.4321
G1 X3.1829 Y6.4506
G1 X3.1926 Y6.4525
G1 X3.1991 Y6.4498
G1 X3.2034 Y6.4442
G1 X3.2038 Y6.4433
G1 X3.2100 Y6.4234
G1 X3.2127 Y6.3882
G1 X3.2116 Y6.3603
G1 X3.2083 Y6.3287
G1 X3.2025 Y6.2909
G1 X3.1869 Y6.2083
G1 X3.1696 Y6.1021
G1 X3.1636 Y6.0821
G1 X3.1526 Y6.0644
G1 X3.1374 Y6.0501
G1 X3.1190 Y6.0402
G1 X3.0986 Y6.0354
G1 X3.0778 Y6.0361
M2002
M2101 P1 R1
G0
G0 X3.6707 Y6.4169
M2100 P0.1500 D1.5 C0.1750
M2001
G1
G1 X3.6499 Y6.4156
G1 X3.6294 Y6.4198
G1 X3.6107 Y6.4291
G1 X3.5951 Y6.4430
G1 X3.5836 Y6.4604
G1 X3.5770 Y6.4802
G1 X3.5705 Y6.5137
G1 X3.5704 Y6.5142
G1 X3.5220 Y6.6417
G1 X3.4851 Y6.6944
G1 X3.4847 Y6.6948
G1 X3.4430 Y6.7389
G1 X3.4155 Y6.7720
G1 X3.3959 Y6.8004
G1 X3.3835 Y6.8252
G1 X3.3802 Y6.8411
G1 X3.3801 Y6.8418
G1 X3.3847 Y6.8481
G1 X3.3935 Y6.8490
G1 X3.4173 Y6.8449
G1 X3.4536 Y6.8305
G1 X3.4947 Y6.8082
G1 X3.5459 Y6.7743
G1 X3.6035 Y6.7296
G1 X3.6074 Y6.7264
G1 X3.6687 Y6.6683
G1 X3.6936 Y6.6384
G1 X3.7153 Y6.6061
G1 X3.7324 Y6.5711
G1 X3.7431 Y6.5337
G1 X3.7456 Y6.5051
G1 X3.7422 Y6.4739
G1 X3.7330 Y6.4439
G1 X3.7183 Y6.4162
G1 X3.6982 Y6.3889
G1 X3.6748 Y6.3644
G1 X3.6569 Y6.3486
G1 X3.6380 Y6.3335
G1 X3.6221 Y6.3222
G1 X3.6091 Y6.3148
G1 X3.5987 Y6.3113
G1 X3.5974
G1 X3.5923 Y6.3152
G1 X3.5870 Y6.3322
G1 X3.5838 Y6.3555
G1 X3.5821 Y6.3858
G1 X3.5816 Y6.4239
G1 X3.5771 Y6.4797
G1 X3.5770 Y6.4802
G1
G1 X3.5758 Y6.5011
G1 X3.5799 Y6.5215
G1 X3.5893 Y6.5402
G1 X3.6031 Y6.5558
G1 X3.6206 Y6.5673
G1 X3.6404 Y6.5739
M2002
M2101 P1 R1
G0
G0 X0.7428 Y4.4669
M2100 P0.1500 D1.5 C0.1750
M2001
G1
G1 X0.7534 Y4.4849
G1 X0.7683 Y4.4996
G1 X0.7865 Y4.5099
G1 X0.8067 Y4.5151
G1 X0.8276 Y4.5149
G1 X0.8477 Y4.5093
G1 X0.8675 Y4.4856
G1 X0.8831 Y4.4590
G1 X0.8890 Y4.4454
G1 X0.8979 Y4.4158
G1 X0.9018 Y4.3849
G1 X0.9019 Y4.3805
G1 X0.8990 Y4.3525
G1 X0.8897 Y4.3259
G1 X0.8761 Y4.3053
G1 X0.8572 Y4.2894
G1 X0.8346 Y4.2794
G1 X0.8101 Y4.2761
G1 X0.7794 Y4.2806
G1 X0.7520 Y4.2916
G1 X0.7406 Y4.2981
G1 X0.7226 Y4.3134
G1 X0.7085 Y4.3323
G1 X0.6988 Y4.3539
G1 X0.6941 Y4.3770
G1 X0.6925 Y4.4003
G1 X0.6929 Y4.4107
G1 X0.6981 Y4.4452
G1 X0.7103 Y4.4779
G1 X0.7290 Y4.5074
G1 X0.7468 Y4.5243
G1 X0.7686 Y4.5353
G1 X0.7927 Y4.5394
G1 X0.8064 Y4.5370
G1 X0.8205 Y4.5307
G1 X0.8477 Y4.5094
G1 Y4.5093
G1 X0.8603 Y4.4927
G1 X0.8681 Y4.4733
G1 X0.8707 Y4.4526
G1 X0.8678 Y4.4319
G1 X0.8596 Y4.4127
G1 X0.8467 Y4.3962
M2002
M2101 P1 R1
G0
G0 X1.4579 Y1.8584
M2100 P0.1500 D1.5 C0.1750
M2001
G1
G1 X1.4764 Y1.8487
G1 X1.4917 Y1.8345
G1 X1.5028 Y1.8168
G1 X1.5090 Y1.7969
G1 X1.5099 Y1.7760
G1 X1.5053 Y1.7557
G1 X1.4836 Y1.6970
G1 X1.4395 Y1.5842
G1 X1.4034 Y1.5034
G1 X1.4032 Y1.5030
G1 X1.3761 Y1.4605
G1 X1.3758 Y1.4601
G1 X1.3736 Y1.4583
G1 X1.3718 Y1.4609
G1 X1.3710 Y1.4630
G1 X1.3622 Y1.4901
G1 X1.3524 Y1.5421
G1 X1.3331 Y1.6825
G1 X1.3179 Y1.7843
G1 X1.2941 Y1.9245
G1 X1.2440 Y2.1910
G1 X1.2110 Y2.3529
G1 X1.1797 Y2.4971
G1 X1.1447 Y2.6649
G1 X1.1151 Y2.8337
G1 X1.0848 Y3.0689
G1 X1.0734 Y3.2399
G1 X1.0727 Y3.2899
G1 X1.0763 Y3.3838
G1 X1.0867 Y3.4531
G1 X1.1031 Y3.4979
G1 X1.1116 Y3.5091
G1 X1.1264 Y3.5193
G1 X1.1431 Y3.5262
G1 X1.1434 Y3.5264
G1 X1.1968 Y3.5385
G1 X1.2721 Y3.5453
G1 X1.3312 Y3.5466
G1 X1.4283 Y3.5441
G1 X1.5555 Y3.5353
G1 X1.6753 Y3.5231
G1 X1.8642 Y3.4995
G1 X1.9146 Y3.4941
G1 X1.9940 Y3.4818
G1 X1.9956 Y3.4815
G1 X2.0147 Y3.4765
G1 X2.0317 Y3.4663
G1 X2.0451 Y3.4517
G1 X2.0537 Y3.4339
G1 X2.0570 Y3.4144
G1 X2.0576 Y3.3994
G1 X2.0543 Y3.3579
G1 X2.0467 Y3.3170
G1 X2.0211 Y3.2192
G1 X1.9791 Y3.0877
G1 X1.9329 Y2.9534
G1 X1.5346 Y1.8353
G1 X1.5053 Y1.7557
G1 X1.4955 Y1.7372
G1 X1.4814 Y1.7218
G1 X1.4637 Y1.7107
G1 X1.4438 Y1.7045
G1 X1.4229 Y1.7037
G1 X1.4025 Y1.7083
M2002
M2101 P1 R1
G0
G0 X2.8807 Y1.7924
M2100 P0.1500 D1.5 C0.1750
M2001
G1
G1 X2.8989 Y1.7821
G1 X2.9138 Y1.7674
G1 X2.9243 Y1.7494
G1 X2.9299 Y1.7293
G1 X2.9300 Y1.7084
G1 X2.9248 Y1.6882
G1 X2.8983 Y1.6229
G1 X2.8704 Y1.5660
G1 X2.8475 Y1.5337
G1 X2.8470 Y1.5331
G1 X2.8392 Y1.5285
G1 X2.8360 Y1.5307
G1 X2.8271 Y1.5464
G1 X2.7947 Y1.6324
G1 X2.7269 Y1.8048
G1 X2.7061 Y1.8615
G1 X2.6839 Y1.9344
G1 X2.6539 Y2.0420
G1 X2.6121 Y2.2034
G1 X2.5630 Y2.4065
G1 X2.5183 Y2.5953
G1 X2.4673 Y2.7942
G1 X2.4187 Y2.9703
G1 X2.3826 Y3.0916
G1 X2.3575 Y3.1686
G1 X2.3150 Y3.2885
G1 X2.2928 Y3.3545
G1 X2.2749 Y3.4106
G1 X2.2645 Y3.4467
G1 X2.2614 Y3.4621
G1 X2.2641 Y3.4627
G1 X2.2966 Y3.4703
G1 X2.3572 Y3.4769
G1 X2.4452 Y3.4812
G1 X2.5497 Y3.4826
G1 X2.6439 Y3.4817
G1 X2.7416 Y3.4790
G1 X2.9715 Y3.4657
G1 X3.0912 Y3.4534
G1 X3.1686 Y3.4409
G1 X3.2132 Y3.4287
G1 X3.2226 Y3.4240
G1 X3.2432 Y3.4032
G1 X3.2566 Y3.3771
G1 X3.2567 Y3.3766
G1 X3.2684 Y3.3385
G1 X3.2754 Y3.2992
G1 X3.2817 Y3.1924
G1 Y3.1918
G1 X3.2783 Y3.0950
G1 X3.2695 Y2.9985
G1 X3.2513 Y2.8651
G1 X3.2279 Y2.7325
G1 X3.1914 Y2.5616
G1 X3.1494 Y2.3919
G1 X3.0965 Y2.2027
G1 X3.0384 Y2.0152
G1 X2.9980 Y1.8929
G1 X2.9666 Y1.8014
G1 X2.9305 Y1.7023
G1 X2.9248 Y1.6882
G1 X2.9144 Y1.6700
G1 X2.8998 Y1.6551
G1 X2.8818 Y1.6446
G1 X2.8616 Y1.6390
G1 X2.8407 Y1.6389
G1 X2.8205 Y1.6441
M2002
M2101 P1 R1
G0
G0 X7.4385 Y12.7884
M2100 P0.1500 D1.5 C0.1750
M2001
G1
G1 X7.4593 Y12.7869
G1 X7.4791 Y12.7801
G1 X7.4964 Y12.7685
G1 X7.5101 Y12.7527
G1 X7.5193 Y12.7339
G1 X7.5233 Y12.7134
G1 X7.5271 Y12.6510
G1 X7.5360 Y12.3898
G1 X7.5385 Y12.1889
G1 X7.5368 Y12.0455
G1 X7.5310 Y11.9289
G1 X7.5203 Y11.8395
G1 X7.5132 Y11.8061
G1 X7.5025 Y11.7736
G1 X7.5022 Y11.7728
G1 X7.4907 Y11.7517
G1 X7.4723 Y11.7362
G1 X7.4706 Y11.7355
G1 X7.4356 Y11.7279
G1 X7.3686 Y11.7202
G1 X7.2694 Y11.7131
G1 X7.1074 Y11.7062
G1 X6.8684 Y11.7027
G1 X6.7476 Y11.7037
G1 X6.6269 Y11.7086
G1 X6.5592 Y11.7138
G1 X6.4920 Y11.7233
G1 X6.4256 Y11.7373
G1 X6.4250 Y11.7374
G1 X6.3817 Y11.7495
G1 X6.3408 Y11.7680
G1 X6.3032 Y11.7925
G1 X6.2698 Y11.8224
G1 X6.2412 Y11.8571
G1 X6.2183 Y11.8956
G1 X6.2015 Y11.9373
G1 X6.1912 Y11.9809
G1 X6.1910 Y11.9819
G1 X6.1736 Y12.0779
G1 X6.1645 Y12.1750
G1 X6.1593 Y12.2984
G1 X6.1579 Y12.4218
G1 Y12.4409
G1 X6.1631 Y12.6732
G1 X6.1710 Y12.7672
G1 X6.1866 Y12.8603
G1 X6.1867 Y12.8608
G1 X6.1983 Y12.9067
G1 X6.2165 Y12.9503
G1 X6.2410 Y12.9908
G1 X6.2712 Y13.0272
G1 X6.3079 Y13.0549
G1 X6.3482 Y13.0771
G1 X6.3912 Y13.0934
G1 X6.4361 Y13.1034
G1 X6.4366 Y13.1035
G1 X6.5260 Y13.1160
G1 X6.6161 Y13.1212
G1 X6.6899 Y13.1222
G1 X6.7675 Y13.1213
G1 X6.9128 Y13.1166
G1 X7.1275 Y13.1043
G1 X7.2621 Y13.0929
G1 X7.3558 Y13.0823
G1 X7.4283 Y13.0713
G1 X7.4570 Y13.0654
G1 X7.4767 Y13.0599
G1 X7.4850 Y13.0559
G1 X7.4858 Y13.0547
G1 X7.4881 Y13.0489
G1 X7.4973 Y13.0057
G1 X7.5068 Y12.9318
G1 X7.5164 Y12.8250
G1 X7.5233 Y12.7134
G1 X7.5218 Y12.6926
G1 X7.5150 Y12.6728
G1 X7.5033 Y12.6555
G1 X7.4876 Y12.6418
G1 X7.4688 Y12.6327
G1 X7.4483 Y12.6287
M2002
M2101 P1 R1
G0
G0 X13.6250 Y11.6008
M2100 P0.1500 D1.5 C0.1750
M2001
G1
G1 X13.6210 Y11.5803
G1 X13.6118 Y11.5616
G1 X13.5980 Y11.5459
G1 X13.5807 Y11.5342
G1 X13.5609 Y11.5275
G1 X13.5401 Y11.5261
G1 X13.4777 Y11.5301
G1 X13.2331 Y11.5465
G1 X12.9770 Y11.5683
G1 X12.8652 Y11.5818
G1 X12.7543 Y11.6008
G1 X12.6961 Y11.6142
G1 X12.6398 Y11.6336
G1 X12.5857 Y11.6589
G1 X12.5544 Y11.6822
G1 X12.5268 Y11.7097
G1 X12.5035 Y11.7410
G1 X12.4850 Y11.7754
G1 X12.4717 Y11.8120
G1 X12.4639 Y11.8502
G1 X12.4617 Y11.8892
G1 Y11.8908
G1 X12.4540 Y12.0019
G1 X12.4511 Y12.1132
G1 X12.4475 Y12.2661
G1 X12.4427 Y12.4244
G1 X12.4399 Y12.5498
G1 X12.4394 Y12.6124
G1 X12.4414 Y12.7059
G1 X12.4488 Y12.7810
G1 X12.4555 Y12.8107
G1 X12.4668 Y12.8390
G1 X12.4820 Y12.8582
G1 X12.5008 Y12.8737
G1 X12.5225 Y12.8849
G1 X12.5461 Y12.8913
G1 X12.5475 Y12.8916
G1 X12.6055 Y12.9067
G1 X12.6061 Y12.9069
G1 X12.6590 Y12.9230
G1 X12.6595 Y12.9231
G1 X12.7032 Y12.9422
G1 X12.7382 Y12.9706
G1 X12.7526 Y13.0130
G1 X12.7418 Y13.0577
G1 X12.7187 Y13.0988
G1 X12.7183 Y13.0992
G1 X12.6861 Y13.1430
G1 X12.6856 Y13.1438
G1 X12.6439 Y13.1934
G1 X12.6435 Y13.1938
G1 X12.5745 Y13.2697
G1 X12.5741 Y13.2701
G1 X12.4932 Y13.3431
G1 X12.4039 Y13.4054
G1 X12.3074 Y13.4562
G1 X12.1507 Y13.5215
G1 X11.9892 Y13.5741
G1 X11.6268 Y13.6630
G1 X11.1801 Y13.7442
G1 X11.0077 Y13.7709
G1 X10.8200 Y13.7980
G1 X10.5332 Y13.8363
G1 X10.1747 Y13.8804
G1 X9.6995 Y13.9376
G1 X9.0148 Y14.0227
G1 X8.7648 Y14.0502
G1 X8.6264 Y14.0621
G1 X8.5305 Y14.0681
G1 X8.5300
G1 X8.4577 Y14.0703
G1 X8.4568
G1 X8.4219 Y14.0690
G1 X8.4214
G1 X8.3788 Y14.0661
G1 X8.2730 Y14.0605
G1 X8.1035 Y14.0526
G1 X7.8579 Y14.0421
G1 X7.1998 Y14.0166
G1 X6.6270 Y13.9902
G1 X6.3901 Y13.9718
G1 X6.1543 Y13.9422
G1 X6.0504 Y13.9246
G1 X5.9483 Y13.8986
G1 X5.8486 Y13.8645
G1 X5.7520 Y13.8225
G1 X5.7513 Y13.8222
G1 X5.6923 Y13.7853
G1 X5.6374 Y13.7425
G1 X5.5873 Y13.6942
G1 X5.5425 Y13.6410
G1 X5.5035 Y13.5834
G1 X5.4706 Y13.5220
G1 X5.4444 Y13.4576
G1 X5.4249 Y13.3908
G1 X5.4126 Y13.3223
G1 X5.3770 Y13.1058
G1 X5.3574 Y12.8873
G1 X5.3362 Y12.4381
G1 X5.3192 Y12.0845
G1 X5.3007 Y11.8321
G1 X5.2829 Y11.6561
G1 X5.2642 Y11.5252
G1 X5.2559 Y11.4839
G1 X5.2477 Y11.4548
G1 X5.2401 Y11.4402
G1 X5.2071 Y11.4220
G1 X5.2065 Y11.4218
G1 X5.1332 Y11.3966
G1 X5.0145 Y11.3656
G1 X4.8694 Y11.3340
G1 X4.8155 Y11.3234
G1 X4.5779 Y11.2812
G1 X4.1965 Y11.2259
G1 X4.0645 Y11.2099
G1 X3.9619 Y11.1987
G1 X3.6225 Y11.1448
G1 X3.3267 Y11.0726
G1 X3.1016 Y11.0039
G1 X2.8804 Y10.9234
G1 X2.6637 Y10.8316
G1 X2.5749 Y10.7891
G1 X2.4687 Y10.7322
G1 X2.3671 Y10.6673
G1 X2.2708 Y10.5949
G1 X2.1803 Y10.5154
G1 X2.0961 Y10.4292
G1 X2.0187 Y10.3368
G1 X1.8582 Y10.1084
G1 X1.7638 Y9.9490
G1 X1.6664 Y9.7667
G1 X1.6193 Y9.6843
G1 X1.5526 Y9.5870
G1 X1.4874 Y9.5036
G1 X1.4182 Y9.4235
G1 X1.3452 Y9.3468
G1 X1.2844 Y9.2886
G1 X1.2208 Y9.2335
G1 X1.1307 Y9.1678
G1 X1.0979 Y9.1489
G1 X1.0634 Y9.1337
G1 X1.0293 Y9.1265
G1 X1.0131 Y9.1303
G1 X0.9830 Y9.1435
G1 X0.9377 Y9.1677
G1 X0.8668 Y9.2112
G1 X0.8007 Y9.2561
G1 X0.7316 Y9.3006
G1 X0.6653 Y9.3332
G1 X0.6001 Y9.3532
G1 X0.5541 Y9.3581
G1 X0.5190 Y9.3552
G1 X0.4856 Y9.3440
G1 X0.4560 Y9.3249
G1 X0.4319 Y9.2992
G1 X0.4148 Y9.2684
G1 X0.3947 Y9.1911
G1 Y9.1904
G1 X0.3920 Y9.1426
G1 Y9.1414
G1 X0.3929 Y9.1113
G1 Y9.1106
G1 X0.3948 Y9.0858
G1 X0.3949 Y9.0850
G1 X0.4045 Y9.0141
G1 Y9.0136
G1 X0.4233 Y8.9482
G1 X0.4412 Y8.9169
G1 X0.4661 Y8.8907
G1 X0.4966 Y8.8714
G1 X0.5308 Y8.8599
G1 X0.6002 Y8.8466
G1 X0.6131 Y8.8451
G1 X0.6681 Y8.8369
G1 X0.7122 Y8.8250
G1 X0.7306 Y8.8168
G1 X0.7470 Y8.8051
G1 X0.7583 Y8.7910
G1 X0.7657 Y8.7744
G1 X0.7687 Y8.7565
G1 X0.7694 Y8.7405
G1 X0.7687 Y8.7226
G1 X0.7657 Y8.6960
G1 X0.7584 Y8.6618
G1 X0.7450 Y8.6295
G1 X0.7257 Y8.6031
G1 X0.7009 Y8.5818
G1 X0.6719 Y8.5667
G1 X0.6402 Y8.5557
G1 X0.6074 Y8.5484
G1 X0.5763 Y8.5439
G1 X0.5198 Y8.5346
G1 X0.4654 Y8.5163
G1 X0.4148 Y8.4895
G1 X0.4142 Y8.4892
G1 X0.3667 Y8.4475
G1 X0.3291 Y8.3968
G1 X0.3030 Y8.3393
G1 X0.2697 Y8.1951
G1 X0.2600 Y8.0317
G1 Y8.0194
G1 X0.2606 Y7.9649
G1 X0.2640 Y7.8719
G1 X0.2663 Y7.7409
G1 X0.2644 Y7.6266
G1 X0.2600 Y7.5476
G1 X0.2546 Y7.4972
G1 X0.2440 Y7.4482
G1 X0.2437 Y7.4466
G1 X0.2422 Y7.4309
G1 X0.2421 Y7.4297
G1 X0.2469 Y7.4033
G1 X0.2614 Y7.3808
G1 X0.2833 Y7.3655
G1 X0.3210 Y7.3518
G1 X0.3218 Y7.3517
G1 X0.3646 Y7.3441
G1 X0.3660 Y7.3439
G1 X0.4287 Y7.3392
G1 X0.6123 Y7.3301
G1 X0.7081 Y7.3228
G1 X0.7239 Y7.3151
G1 X0.7342 Y7.3009
G1 X0.7347 Y7.2998
G1 X0.7456 Y7.2747
G1 X0.7532 Y7.2483
G1 X0.7661 Y7.1729
G1 X0.7735 Y7.0872
G1 X0.7775 Y6.9775
G1 X0.7782 Y6.9012
G1 X0.7798 Y6.8169
G1 X0.7889 Y6.6807
G1 X0.8059 Y6.5452
G1 X0.8309 Y6.4110
G1 X0.8637 Y6.2785
G1 X0.9042 Y6.1481
G1 X0.9523 Y6.0204
G1 X1.0125 Y5.8901
G1 X1.0850 Y5.7661
G1 X1.1690 Y5.6497
G1 X1.2452 Y5.5672
G1 X1.2649 Y5.5480
G1 X1.3477 Y5.4611
G1 X1.3943 Y5.4057
G1 X1.4233 Y5.3655
G1 X1.4370 Y5.3402
G1 X1.4376 Y5.3375
G1 X1.4361 Y5.3370
G1 X1.3929 Y5.3253
G1 X1.3109 Y5.3138
G1 X1.1968 Y5.3043
G1 X1.0440 Y5.2975
G1 X0.8701 Y5.2950
G1 X0.7111 Y5.2943
G1 X0.5705 Y5.2912
G1 X0.4414 Y5.2827
G1 X0.3271 Y5.2629
G1 X0.2718 Y5.2438
G1 X0.2206 Y5.2156
G1 X0.1748 Y5.1791
G1 X0.1334 Y5.1379
G1 X0.1328 Y5.1373
G1 X0.1039 Y5.1047
G1 X0.0635 Y5.0484
G1 X0.0332 Y4.9861
G1 X0.0138 Y4.9195
G1 X-0.0041 Y4.7972
G1 X-0.0117 Y4.6623
G1 X-0.0139 Y4.5556
G1 X-0.0145 Y4.4310
G1 X-0.0139 Y4.2911
G1 X-0.0108 Y4.1545
G1 X-0.0024 Y4.0338
G1 X0.0190 Y3.9192
G1 X0.0470 Y3.8489
G1 X0.0883 Y3.7856
G1 X0.0887 Y3.7852
G1 X0.1286 Y3.7392
G1 X0.1291 Y3.7386
G1 X0.1618 Y3.7050
G1 X0.2140 Y3.6462
G1 X0.2599 Y3.5823
G1 X0.3027 Y3.5116
G1 X0.3410 Y3.4385
G1 X0.3681 Y3.3813
G1 X0.4150 Y3.2707
G1 X0.4574 Y3.1583
G1 X0.5435 Y2.8954
G1 X0.6306 Y2.5880
G1 X0.7201 Y2.2364
G1 X0.9133 Y1.4309
G1 X0.9758 Y1.1777
G1 X0.9986 Y1.0913
G1 X0.9988 Y1.0906
G1 X1.0154 Y1.0380
G1 X1.0328 Y0.9732
G1 X1.0470 Y0.9168
G1 X1.0760 Y0.7962
G1 X1.1192 Y0.6719
G1 X1.1879 Y0.5703
G1 X1.2391 Y0.5273
G1 X1.2999 Y0.4994
G1 X1.3545 Y0.4918
G1 X1.3996 Y0.4969
G1 X1.4722 Y0.5277
G1 X1.5266 Y0.5716
G1 X1.5269 Y0.5719
G1 X1.5465 Y0.5930
G1 X1.5469 Y0.5934
G1 X1.5976 Y0.6596
G1 X1.6353 Y0.7215
G1 X1.6357 Y0.7222
G1 X1.6550 Y0.7631
G1 X1.6557 Y0.7650
G1 X1.6651 Y0.7953
G1 X1.6657 Y0.7979
G1 X1.6672 Y0.8103
G1 X1.6718 Y0.8371
G1 X1.6905 Y0.9032
G1 X1.7244 Y1.0077
G1 X1.7755 Y1.1551
G1 X1.9068 Y1.5126
G1 X1.9846 Y1.7145
G1 X2.0384 Y1.8490
G1 X2.0859 Y1.9624
G1 X2.1185 Y2.0341
G1 X2.1350 Y2.0638
G1 X2.1383 Y2.0584
G1 X2.1392 Y2.0566
G1 X2.1759 Y1.9787
G1 X2.2247 Y1.8455
G1 X2.2792 Y1.6792
G1 X2.3525 Y1.4393
G1 X2.4232 Y1.1971
G1 X2.5207 Y0.8530
G1 X2.5407 Y0.7880
G1 X2.5609 Y0.7281
G1 X2.5610 Y0.7277
G1 X2.5730 Y0.6951
G1 X2.6134 Y0.6040
G1 X2.6644 Y0.5276
G1 X2.7007 Y0.4941
G1 X2.7436 Y0.4698
G1 X2.7909 Y0.4559
G1 X2.8402 Y0.4532
G1 X2.8752 Y0.4547
G1 X2.8761 Y0.4548
G1 X2.8982 Y0.4570
G1 X2.9368 Y0.4622
G1 X2.9735 Y0.4752
G1 X3.0068 Y0.4953
G1 X3.0353 Y0.5219
G1 X3.0361 Y0.5228
G1 X3.0583 Y0.5527
G1 X3.0589 Y0.5537
G1 X3.0992 Y0.6303
G1 X3.1357 Y0.7220
G1 X3.1688 Y0.8183
G1 X3.1962 Y0.9046
G1 X3.2398 Y1.0486
G1 X3.2977 Y1.2470
G1 X3.5019 Y1.9338
G1 X3.6771 Y2.4875
G1 X3.8023 Y2.8562
G1 X3.9029 Y3.1242
G1 X3.9554 Y3.2429
G1 X3.9770 Y3.2820
G1 X4.0022 Y3.3189
G1 X4.0292 Y3.3506
G1 X4.0600 Y3.3786
G1 X4.0944 Y3.4017
G1 X4.1324 Y3.4181
G1 X4.1409 Y3.4205
G1 X4.1839 Y3.4262
G1 X4.2165 Y3.4226
G1 X4.2478 Y3.4127
G1 X4.2766 Y3.3969
G1 X4.3017 Y3.3758
G1 X4.3314 Y3.3407
G1 X4.3545 Y3.3010
G1 X4.3722 Y3.2579
G1 X4.3850 Y3.2131
G1 X4.3981 Y3.1268
G1 X4.4093 Y2.9823
G1 X4.4180 Y2.7683
G1 X4.4232 Y2.4443
G1 X4.4236 Y2.3263
G1 X4.4210 Y1.9843
G1 X4.4189 Y1.8679
G1 X4.4020 Y1.3382
G1 X4.3834 Y1.0125
G1 X4.3731 Y0.8825
G1 X4.3317 Y0.4138
G1 X4.3447 Y0.3981
G1 X4.5849 Y0.3738
G1 X4.8170 Y0.3528
G1 X4.9732 Y0.3408
G1 X5.1800 Y0.3290
G1 X5.3571 Y0.3250
G1 X5.5882 Y0.3360
G1 X5.6893 Y0.3519
G1 X5.7877 Y0.3803
G1 X5.7881 Y0.3804
G1 X5.8437 Y0.4069
G1 X5.8949 Y0.4411
G1 X5.9408 Y0.4822
G1 X5.9803 Y0.5294
G1 X6.0127 Y0.5818
G1 X6.0373 Y0.6383
G1 X6.0536 Y0.6977
G1 X6.0716 Y0.7601
G1 X6.0718 Y0.7610
G1 X6.0764 Y0.7819
G1 X6.0766 Y0.7828
G1 X6.0795 Y0.8015
G1 X6.0797 Y0.8029
G1 X6.0804 Y0.8152
G1 X6.0803 Y0.8176
G1 X6.0787 Y0.8317
G1 X6.0786 Y0.8328
G1 X6.0677 Y0.8526
G1 X6.0470 Y0.8618
G1 X6.0466
G1 X6.0407 Y0.8622
G1 X6.0383
G1 X6.0260 Y0.8610
G1 X6.0241 Y0.8606
G1 X6.0099 Y0.8572
G1 X6.0086 Y0.8569
G1 X5.9838 Y0.8484
G1 X5.9550 Y0.8400
G1 X5.9154 Y0.8316
G1 X5.8567 Y0.8212
G1 X5.7323 Y0.8027
G1 X5.6087 Y0.7872
G1 X5.3816 Y0.7636
G1 X4.8973 Y0.7197
G1 X4.9353 Y1.6659
G1 X5.1593 Y1.6708
G1 X5.3802 Y1.6886
G1 X5.5641 Y1.7226
G1 X5.6384 Y1.7462
G1 X5.7088 Y1.7798
G1 X5.7431 Y1.8016
G1 X5.7727 Y1.8293
G1 X5.7967 Y1.8620
G1 X5.8143 Y1.8986
G1 X5.8247 Y1.9379
G1 X5.8276 Y1.9784
G1 X5.8259 Y2.0133
G1 X5.8167 Y2.0470
G1 X5.8005 Y2.0779
G1 X5.7780 Y2.1047
G1 X5.7503 Y2.1259
G1 X5.7186 Y2.1407
G1 X5.6177 Y2.1693
G1 X5.4940 Y2.1840
G1 X5.3452 Y2.1899
G1 X5.2831 Y2.1903
G1 X5.2048 Y2.1924
G1 X5.1268 Y2.1987
G1 X5.0320 Y2.2134
G1 X4.9705 Y2.2304
G1 X4.9376 Y2.2469
G1 X4.9311 Y2.2539
G1 X4.9262 Y2.2682
G1 X4.9213 Y2.2985
G1 X4.9180 Y2.3435
G1 X4.9169 Y2.3994
G1 X4.9181 Y2.4685
G1 X4.9244 Y2.5822
G1 X4.9370 Y2.7132
G1 X4.9817 Y3.0985
G1 X5.2177 Y3.0736
G1 X5.3440 Y3.0613
G1 X5.4265 Y3.0541
G1 X5.5319 Y3.0470
G1 X5.5324
G1 X5.6190 Y3.0445
G1 X5.7106 Y3.0492
G1 X5.7979 Y3.0700
G1 X5.7983 Y3.0702
G1 X5.8536 Y3.1024
G1 X5.8991 Y3.1474
G1 X5.9274 Y3.1834
G1 X5.9278 Y3.1838
G1 X5.9922 Y3.2724
G1 X6.0248 Y3.3131
G1 X6.0569 Y3.3472
G1 X6.0808 Y3.3677
G1 X6.1106 Y3.3861
G1 X6.1437 Y3.3978
G1 X6.1785 Y3.4022
G1 X6.1885 Y3.4024
G1 X6.2273 Y3.4001
G1 X6.2676 Y3.3943
G1 X6.3064 Y3.3867
G1 X6.3715 Y3.3689
G1 X6.4345 Y3.3447
G1 X6.4899 Y3.3160
G1 X6.5100 Y3.3025
G1 X6.5261 Y3.2892
G1 X6.5397 Y3.2733
G1 X6.5497 Y3.2471
G1 X6.5553 Y3.2196
G1 X6.5554 Y3.2190
G1 X6.5693 Y3.1004
G1 X6.5784 Y2.9386
G1 X6.5828 Y2.7731
G1 X6.5843 Y2.5844
G1 X6.5822 Y2.3360
G1 X6.5716 Y1.9275
G1 X6.5518 Y1.4961
G1 X6.5157 Y0.9260
G1 X6.5090 Y0.7540
G1 X6.5067 Y0.6055
G1 Y0.6051
G1 X6.5080 Y0.5146
G1 Y0.5140
G1 X6.5114 Y0.4466
G1 X6.5115 Y0.4457
G1 X6.5170 Y0.3973
G1 X6.5257 Y0.3670
G1 X6.5269 Y0.3648
G1 X6.5291 Y0.3617
G1 X6.5313 Y0.3591
G1 X6.5514 Y0.3474
G1 X6.5797 Y0.3384
G1 X6.5809 Y0.3381
G1 X6.6230 Y0.3285
G1 X6.6236 Y0.3284
G1 X6.6547 Y0.3226
G1 X6.6551 Y0.3225
G1 X6.7523 Y0.3078
G1 X6.7528 Y0.3077
G1 X6.8871 Y0.2919
G1 X7.0585 Y0.2764
G1 X7.2464 Y0.2639
G1 X7.9025 Y0.2277
G1 X7.9148 Y0.2334
G1 X7.9978 Y0.3412
G1 X7.9980 Y0.3416
G1 X8.0594 Y0.4260
G1 X8.0598 Y0.4266
G1 X8.1144 Y0.5095
G1 X8.1147 Y0.5099
G1 X8.1542 Y0.5822
G1 X8.1771 Y0.6464
G1 X8.1774 Y0.6480
G1 X8.1804 Y0.6743
G1 X8.1805 Y0.6757
G1 X8.1761 Y0.7042
G1 X8.1623 Y0.7297
G1 X8.1406 Y0.7489
G1 X8.1138 Y0.7597
G1 X8.0564 Y0.7708
G1 X8.0559
G1 X8.0004 Y0.7732
G1 X7.9994
G1 X7.9480 Y0.7718
G1 X7.9474
G1 X7.8833 Y0.7675
G1 X7.8828 Y0.7674
G1 X7.8099 Y0.7604
G1 X7.6879 Y0.7478
G1 X7.4969 Y0.7297
G1 X7.3130 Y0.7148
G1 X7.2656 Y0.7119
G1 X7.1159 Y0.7047
G1 X7.1200 Y1.2394
G1 X7.1247 Y1.6500
G1 X7.1322 Y2.0965
G1 X7.1416 Y2.4722
G1 X7.1535 Y2.7762
G1 X7.1670 Y2.9769
G1 X7.1754 Y3.0492
G1 X7.2209 Y3.3503
G1 X7.7441 Y3.3491
G1 X8.1387 Y3.3467
G1 X8.5597 Y3.3422
G1 X8.9030 Y3.3357
G1 X9.1572 Y3.3270
G1 X9.3167 Y3.3160
G1 X9.3606 Y3.3090
G1 X9.3962 Y3.2986
G1 X9.4174 Y3.2905
G1 X9.4321 Y3.2817
G1 X9.4348 Y3.2770
G1 X9.4294 Y3.2651
G1 X9.4085 Y3.2437
G1 X9.3770 Y3.2186
G1 X9.3357 Y3.1896
G1 X9.2851 Y3.1560
G1 X9.2036 Y3.1038
G1 X9.1253 Y3.0491
G1 X9.0514 Y2.9889
G1 X8.9821 Y2.9233
G1 X8.9178 Y2.8527
G1 X8.8590 Y2.7775
G1 X8.8060 Y2.6982
G1 X8.7589 Y2.6152
G1 X8.7182 Y2.5289
G1 X8.6840 Y2.4399
G1 X8.6329 Y2.2757
G1 X8.5955 Y2.1080
G1 X8.5720 Y1.9377
G1 X8.5581 Y1.7445
G1 X8.5561 Y1.6437
G1 X8.5609 Y1.4901
G1 X8.5786 Y1.3374
G1 X8.6092 Y1.1868
G1 X8.6379 Y1.0910
G1 X8.6742 Y0.9977
G1 X8.7178 Y0.9077
G1 X8.7686 Y0.8215
G1 X8.8262 Y0.7397
G1 X8.8902 Y0.6628
G1 X8.9602 Y0.5913
G1 X9.0358 Y0.5257
G1 X9.1163 Y0.4664
G1 X9.2014 Y0.4138
G1 X9.3028 Y0.3592
G1 X9.4076 Y0.3116
G1 X9.5154 Y0.2713
G1 X9.6256 Y0.2384
G1 X9.7379 Y0.2131
G1 X9.8517 Y0.1954
G1 X10.1126 Y0.1780
G1 X10.2521 Y0.1829
G1 X10.3906 Y0.1998
G1 X10.5271 Y0.2286
G1 X10.6206 Y0.2575
G1 X10.7102 Y0.2967
G1 X10.7949 Y0.3458
G1 X10.8385 Y0.3768
G1 X10.8772 Y0.4139
G1 X10.9100 Y0.4561
G1 X10.9364 Y0.5027
G1 X10.9559 Y0.5525
G1 X10.9678 Y0.6047
G1 X10.9679 Y0.6056
G1 X10.9742 Y0.6712
G1 X10.9743 Y0.6721
G1 X10.9752 Y0.6984
G1 X10.9718 Y0.7370
G1 X10.9630 Y0.7623
G1 X10.9442 Y0.7815
G1 X10.9191 Y0.7909
G1 X10.9182 Y0.7910
G1 X10.9009 Y0.7924
G1 X10.8995 Y0.7925
G1 X10.8605 Y0.7884
G1 X10.8600 Y0.7883
G1 X10.8151 Y0.7780
G1 X10.8143 Y0.7777
G1 X10.7716 Y0.7652
G1 X10.7711 Y0.7650
G1 X10.7142 Y0.7463
G1 X10.5975 Y0.7051
G1 X10.4863 Y0.6701
G1 X10.3728 Y0.6434
G1 X10.2577 Y0.6250
G1 X10.1546 Y0.6153
G1 X10.0510 Y0.6119
G1 X9.9637 Y0.6143
G1 X9.8768 Y0.6223
G1 X9.7905 Y0.6358
G1 X9.7277 Y0.6500
G1 X9.6662 Y0.6690
G1 X9.6062 Y0.6925
G1 X9.5768 Y0.7067
G1 X9.5303 Y0.7356
G1 X9.4867 Y0.7688
G1 X9.4464 Y0.8059
G1 X9.4098 Y0.8467
G1 X9.3607 Y0.9093
G1 X9.3157 Y0.9749
G1 X9.2749 Y1.0431
G1 X9.2385 Y1.1138
G1 X9.1919 Y1.2176
G1 X9.1522 Y1.3242
G1 X9.1194 Y1.4332
G1 X9.0938 Y1.5440
G1 X9.0802 Y1.6239
G1 X9.0712 Y1.7045
G1 X9.0668 Y1.7854
G1 X9.0665 Y1.8125
G1 X9.0698 Y1.9067
G1 X9.0791 Y2.0004
G1 X9.0944 Y2.0933
G1 X9.1157 Y2.1850
G1 X9.1428 Y2.2752
G1 X9.1757 Y2.3634
G1 X9.2142 Y2.4493
G1 X9.2512 Y2.5194
G1 X9.2937 Y2.5863
G1 X9.3414 Y2.6496
G1 X9.3941 Y2.7088
G1 X9.4514 Y2.7636
G1 X9.4908 Y2.7945
G1 X9.5325 Y2.8223
G1 X9.5753 Y2.8450
G1 X9.6199 Y2.8637
G1 X9.6889 Y2.8868
G1 X9.7591 Y2.9054
G1 X9.8774 Y2.9292
G1 X9.9970 Y2.9457
G1 X10.1667 Y2.9578
G1 X10.2208 Y2.9586
G1 X10.3532 Y2.9524
G1 X10.4435 Y2.9371
G1 X10.4731 Y2.9281
G1 X10.5012 Y2.9151
G1 X10.5140 Y2.9061
G1 X10.5242 Y2.8943
G1 X10.5530 Y2.8669
G1 X10.5968 Y2.8455
G1 X10.6732 Y2.8264
G1 X10.6741 Y2.8263
G1 X10.7330 Y2.8219
G1 X10.7339
G1 X10.7966 Y2.8263
G1 X10.8284 Y2.8341
G1 X10.8570 Y2.8502
G1 X10.8802 Y2.8734
G1 X10.8964 Y2.9019
G1 X10.9138 Y2.9600
G1 X10.9139 Y2.9605
G1 X10.9236 Y3.0240
G1 X10.9237 Y3.0247
G1 X10.9263 Y3.0497
G1 X10.9458 Y3.2517
G1 X11.1279 Y3.2575
G1 X11.2631 Y3.2610
G1 X11.4229 Y3.2640
G1 X11.6006 Y3.2653
G1 X11.7758 Y3.2635
G1 X11.9222 Y3.2579
G1 X12.0301 Y3.2486
G1 X12.1061 Y3.2348
G1 X12.1320 Y3.2248
G1 X12.1509 Y3.2133
G1 X12.1662 Y3.2027
G1 X12.1777 Y3.1934
G1 X12.1846 Y3.1862
G1 X12.1850 Y3.1855
G1 X12.1842 Y3.1852
G1 X12.1759 Y3.1838
G1 X12.1660 Y3.1832
G1 X12.0795 Y3.1624
G1 X11.9777 Y3.1068
G1 X11.8573 Y3.0132
G1 X11.8163 Y2.9757
G1 X11.7203 Y2.8774
G1 X11.6317 Y2.7723
G1 X11.5510 Y2.6610
G1 X11.4788 Y2.5441
G1 X11.4785 Y2.5436
G1 X11.4475 Y2.4842
G1 X11.4473 Y2.4838
G1 X11.3956 Y2.3656
G1 X11.3525 Y2.2440
G1 X11.3182 Y2.1197
G1 X11.2930 Y1.9932
G1 X11.2769 Y1.8652
G1 X11.2701 Y1.7364
G1 X11.2696 Y1.6942
G1 X11.2720 Y1.5786
G1 X11.2819 Y1.4634
G1 X11.2995 Y1.3491
G1 X11.3246 Y1.2362
G1 X11.3571 Y1.1252
G1 X11.3968 Y1.0166
G1 X11.4436 Y0.9108
G1 X11.4972 Y0.8084
G1 X11.5576 Y0.7097
G1 X11.6242 Y0.6153
G1 X11.6247 Y0.6147
G1 X11.6723 Y0.5576
G1 X11.6727 Y0.5571
G1 X11.7472 Y0.4851
G1 X11.8300 Y0.4228
G1 X11.9654 Y0.3418
G1 X12.1081 Y0.2744
G1 X12.2675 Y0.2150
G1 X12.4314 Y0.1692
G1 X12.6405 Y0.1337
G1 X12.8303 Y0.1231
G1 X12.8426
G1 X12.9481 Y0.1251
G1 X13.0533 Y0.1347
G1 X13.1575 Y0.1520
G1 X13.2601 Y0.1766
G1 X13.3607 Y0.2087
G1 X13.4588 Y0.2479
G1 X13.5537 Y0.2942
G1 X13.6440 Y0.3494
G1 X13.7301 Y0.4111
G1 X13.8115 Y0.4789
G1 X13.8877 Y0.5524
G1 X13.9583 Y0.6313
G1 X14.0230 Y0.7152
G1 X14.0814 Y0.8035
G1 X14.1926 Y1.0046
G1 X14.2492 Y1.1339
G1 X14.2958 Y1.2672
G1 X14.3322 Y1.4037
G1 X14.3441 Y1.4612
G1 X14.3664 Y1.6186
G1 X14.3740 Y1.7774
G1 X14.3706 Y1.8845
G1 X14.3601 Y1.9911
G1 X14.3425 Y2.0967
G1 X14.3180 Y2.2010
G1 X14.2866 Y2.3034
G1 X14.2484 Y2.4034
G1 X14.2037 Y2.5008
G1 X14.1527 Y2.5949
G1 X14.0954 Y2.6854
G1 X14.0323 Y2.7720
G1 X13.9636 Y2.8541
G1 X13.8896 Y2.9315
G1 X13.8106 Y3.0038
G1 X13.5500 Y3.2290
G1 X13.8605 Y3.2146
G1 X14.0759 Y3.2020
G1 X14.2791 Y3.1857
G1 X14.4477 Y3.1641
G1 X14.5180 Y3.1502
G1 X14.5869 Y3.1304
G1 X14.6378 Y3.1091
G1 X14.6855 Y3.0811
G1 X14.7288 Y3.0469
G1 X14.7540 Y3.0240
G1 X14.9243 Y2.8640
G1 X14.8960 Y1.7409
G1 X14.8816 Y1.2337
G1 X14.8683 Y0.8242
G1 X14.8598 Y0.6024
G1 X14.8492 Y0.3898
G1 X14.8410 Y0.3015
G1 X14.8409 Y0.3009
G1 X14.8389 Y0.2807
G1 X14.8388 Y0.2785
G1 X14.8463 Y0.2393
G1 X14.8642 Y0.2036
G1 X14.8912 Y0.1742
G1 X14.9381 Y0.1394
G1 X14.9905 Y0.1134
G1 X15.0808 Y0.0864
G1 X15.1745 Y0.0758
G1 X15.1892 Y0.0756
G1 X15.1899
G1 X15.2221 Y0.0766
G1 X15.2226 Y0.0767
G1 X15.3155 Y0.0913
G1 X15.3471 Y0.1016
G1 X15.3744 Y0.1205
G1 X15.3951 Y0.1465
G1 X15.4074 Y0.1774
G1 X15.4228 Y0.2550
G1 X15.4296 Y0.3500
G1 X15.4317 Y0.4792
G1 X15.4310 Y0.5762
G1 X15.4272 Y0.7603
G1 X15.4137 Y1.2366
G1 X15.4114 Y1.3720
G1 X15.4107 Y1.4978
G1 X15.4128 Y1.6895
G1 X15.4182 Y1.8302
G1 X15.4271 Y1.9421
G1 X15.4388 Y2.0143
G1 X15.4390 Y2.0152
G1 X15.4496 Y2.0415
G1 X15.4546 Y2.0432
G1 X15.4741 Y2.0384
G1 X15.4917 Y2.0288
G1 X15.4923 Y2.0284
G1 X15.5517 Y1.9824
G1 X15.6208 Y1.9155
G1 X15.7150 Y1.8124
G1 X15.8070 Y1.7038
G1 X16.0770 Y1.3686
G1 X16.1878 Y1.2371
G1 X16.2741 Y1.1397
G1 X16.2745 Y1.1393
G1 X16.3356 Y1.0756
G1 X16.3728 Y1.0440
G1 X16.3757 Y1.0424
G1 X16.3833 Y1.0394
G1 X16.3927 Y1.0389
G1 X16.4172 Y1.0529
G1 X16.4645 Y1.0960
G1 X16.5387 Y1.1725
G1 X16.5390 Y1.1727
G1 X16.6148 Y1.2553
G1 X16.7477 Y1.4058
G1 X16.8954 Y1.5797
G1 X17.0663 Y1.7829
G1 X17.1215 Y1.8469
G1 X17.1828 Y1.9155
G1 X17.2417 Y1.9764
G1 X17.2880 Y2.0161
G1 X17.2884 Y2.0165
G1 X17.3049 Y2.0271
G1 X17.3233 Y2.0339
G1 X17.3284 Y2.0344
G1 X17.3407 Y2.0302
G1 X17.3496 Y2.0206
G1 X17.3502 Y2.0196
G1 X17.3655 Y1.9902
G1 X17.3753 Y1.9652
G1 X17.3842 Y1.9274
G1 X17.3914 Y1.8602
G1 X17.3951 Y1.7819
G1 X17.3964 Y1.6877
G1 X17.3942 Y1.5421
G1 X17.3866 Y1.3542
G1 X17.3696 Y1.0921
G1 X17.3443 Y0.7723
G1 X17.3299 Y0.5402
G1 X17.3227 Y0.3754
G1 X17.3202 Y0.2455
G1 Y0.2450
G1 X17.3208 Y0.1981
G1 Y0.1975
G1 X17.3228 Y0.1570
G1 X17.3229 Y0.1558
G1 X17.3263 Y0.1295
G1 X17.3270 Y0.1267
G1 X17.3302 Y0.1173
G1 X17.3321 Y0.1137
G1 X17.3687 Y0.0832
G1 X17.4210 Y0.0646
G1 X17.4992 Y0.0517
G1 X17.5901 Y0.0474
G1 X17.6313 Y0.0482
G1 X17.7797 Y0.0647
G1 X17.8569 Y0.0855
G1 X17.9076 Y0.1113
G1 X17.9343 Y0.1432
G1 X17.9350 Y0.1454
G1 X17.9400 Y0.1645
G1 X17.9403 Y0.1664
G1 X17.9436 Y0.1938
G1 X17.9437 Y0.1950
G1 X17.9452 Y0.2398
G1 Y0.2407
G1 X17.9430 Y0.3070
G1 Y0.3078
G1 X17.9342 Y0.4057
G1 X17.9341 Y0.4064
G1 X17.9228 Y0.4875
G1 X17.9227 Y0.4880
G1 X17.9162 Y0.5259
G1 X17.9072 Y0.5983
G1 X17.9003 Y0.7051
G1 X17.8957 Y0.8539
G1 X17.8942 Y1.0293
G1 X17.8963 Y1.2587
G1 X17.9091 Y1.6738
G1 X17.9146 Y1.7886
G1 X17.9352 Y2.1299
G1 X17.9616 Y2.4334
G1 X17.9761 Y2.5532
G1 X17.9948 Y2.6724
G1 X18.0153 Y2.7723
G1 X18.0435 Y2.8703
G1 X18.0625 Y2.9204
G1 X18.0881 Y2.9675
G1 X18.1199 Y3.0107
G1 X18.1420 Y3.0311
G1 X18.1673 Y3.0474
G1 X18.1950 Y3.0591
G1 X18.2244 Y3.0658
G1 X18.2545 Y3.0673
G1 X18.2549
G1 X18.3174 Y3.0610
G1 X18.3582 Y3.0517
G1 X18.4670 Y3.0224
G1 X18.5213 Y3.0052
G1 X18.5282 Y3.0021
G1 X18.5299 Y2.9960
G1 X18.5352 Y2.9687
G1 X18.5450 Y2.9110
G1 X18.5585 Y2.8253
G1 X18.5764 Y2.7051
G1 X18.6103 Y2.4654
G1 X18.6318 Y2.2751
G1 X18.6447 Y2.0839
G1 X18.6503 Y1.8293
G1 X18.6452 Y1.5583
G1 X18.6332 Y1.3051
G1 X18.5970 Y0.7773
G1 X18.5871 Y0.6072
G1 X18.5783 Y0.4094
G1 X18.5745 Y0.2650
G1 X18.5741 Y0.2104
G1 X18.5747 Y0.1542
G1 Y0.1537
G1 X18.5770 Y0.1070
G1 X18.5771 Y0.1058
G1 X18.5808 Y0.0772
G1 X18.5817 Y0.0737
G1 X18.5858 Y0.0636
G1 X18.5907 Y0.0573
G1 X18.6208 Y0.0440
G1 X18.6920 Y0.0304
G1 X18.8073 Y0.0173
G1 X18.8079 Y0.0172
G1 X18.9739 Y0.0046
G1 X19.2977 Y-0.0099
G1 X19.5181 Y-0.0142
G1 X19.5881 Y-0.0145
G1 X19.7161 Y-0.0133
G1 X19.8297 Y-0.0094
G1 X19.8303
G1 X19.9115 Y-0.0035
G1 X19.9126 Y-0.0033
G1 X19.9755 Y0.0064
G1 X19.9781 Y0.0070
G1 X20.0104 Y0.0186
G1 X20.0120 Y0.0193
G1 X20.0268 Y0.0267
G1 X20.0275 Y0.0270
G1 X20.1065 Y0.0862
G1 X20.1742 Y0.1635
G1 X20.2284 Y0.2507
G1 X20.2589 Y0.3232
G1 X20.2721 Y0.3816
G1 X20.2722 Y0.3825
G1 X20.2734 Y0.4040
G1 X20.2735 Y0.4047
G1 X20.2690 Y0.4414
G1 X20.2577 Y0.4682
G1 X20.2574 Y0.4687
G1 X20.2319 Y0.4896
G1 X20.2051 Y0.4971
G1 X20.2040 Y0.4973
G1 X20.1782 Y0.4991
G1 X20.1761
G1 X20.1385 Y0.4963
G1 X20.1367 Y0.4960
G1 X20.0906 Y0.4866
G1 X20.0890 Y0.4862
G1 X20.0375 Y0.4696
G1 X20.0370 Y0.4694
G1 X19.9783 Y0.4526
G1 X19.8817 Y0.4350
G1 X19.7316 Y0.4178
G1 X19.6036 Y0.4095
G1 X19.4827 Y0.4067
G1 X19.1053
G1 Y1.3820
G1 X19.3075 Y1.3572
G1 X19.4176 Y1.3447
G1 X19.5176 Y1.3350
G1 X19.5180 Y1.3349
G1 X19.6051 Y1.3291
G1 X19.6057
G1 X19.6557 Y1.3279
G1 X19.7351 Y1.3327
G1 X19.8105 Y1.3550
G1 X19.8113 Y1.3554
G1 X19.8585 Y1.3923
G1 X19.8931 Y1.4412
G1 X19.9237 Y1.4976
G1 X19.9240 Y1.4982
G1 X19.9501 Y1.5517
G1 X19.9505 Y1.5528
G1 X19.9694 Y1.6007
G1 X19.9696 Y1.6013
G1 X19.9804 Y1.6483
G1 X19.9805 Y1.6493
G1 X19.9812 Y1.6623
G1 Y1.6629
G1 X19.9766 Y1.6933
G1 X19.9627 Y1.7207
G1 X19.9409 Y1.7423
G1 X19.9133 Y1.7559
G1 X19.8417 Y1.7759
G1 X19.7563 Y1.7864
G1 X19.6436 Y1.7921
G1 X19.6430
G1 X19.4815 Y1.7940
G1 X19.3387 Y1.7922
G1 X19.2955 Y1.7933
G1 X19.2527 Y1.7992
G1 X19.2320 Y1.8064
G1 X19.2136 Y1.8182
G1 X19.1985 Y1.8340
G1 X19.1875 Y1.8530
G1 X19.1813 Y1.8740
G1 X19.1810 Y1.8753
G1 X19.1715 Y1.9182
G1 X19.1658 Y1.9617
G1 X19.1582 Y2.0714
G1 X19.1528 Y2.2307
G1 X19.1440 Y2.5722
G1 X19.1471 Y2.6338
G1 X19.1472 Y2.6342
G1 X19.1520 Y2.6583
G1 X19.1621 Y2.6806
G1 X19.1742 Y2.6933
G1 X19.1893 Y2.7023
G1 X19.2062 Y2.7070
G1 X19.2069 Y2.7071
G1 X19.2536 Y2.7111
G1 X19.3049 Y2.7087
G1 X19.3612 Y2.7027
G1 X19.4106 Y2.6960
G1 X19.6517 Y2.6591
G1 X19.6521
G1 X19.7037 Y2.6529
G1 X19.7044 Y2.6528
G1 X19.7515 Y2.6493
G1 X19.7522 Y2.6492
G1 X19.7778 Y2.6486
G1 X19.8423 Y2.6538
G1 X19.8865 Y2.6661
G1 X19.9275 Y2.6869
G1 X19.9636 Y2.7152
G1 X19.9887 Y2.7400
G1 X19.9893 Y2.7406
G1 X20.0474 Y2.8060
G1 X20.1032 Y2.8661
G1 X20.2409 Y3.0080
G1 X20.3896 Y3.1542
G1 X20.3899 Y3.1546
G1 X20.4381 Y3.2052
G1 X20.4387 Y3.2060
G1 X20.4633 Y3.2356
G1 X20.4635 Y3.2359
G1 X20.4976 Y3.2881
G1 X20.5226 Y3.3453
G1 X20.5377 Y3.4058
G1 X20.5508 Y3.5162
G1 X20.5555 Y3.6371
G1 X20.5556 Y3.6376
G1 X20.5567 Y3.7927
G1 X20.5564 Y3.9220
G1 X20.5513 Y4.1548
G1 X20.5398 Y4.3294
G1 X20.5213 Y4.4737
G1 X20.4968 Y4.5778
G1 X20.4670 Y4.6406
G1 X20.4658 Y4.6421
G1 X20.4200 Y4.6813
G1 X20.3657 Y4.7077
G1 X20.2053 Y4.7535
G1 X19.9833 Y4.7881
G1 X19.7097 Y4.8117
G1 X19.3908 Y4.8256
G1 X19.2729 Y4.8282
G1 X19.1938 Y4.8319
G1 X19.1312 Y4.8403
G1 X19.0851 Y4.8544
G1 X19.0847 Y4.8546
G1 X19.0678 Y4.8646
G1 X19.0549 Y4.8793
G1 X19.0501 Y4.8993
G1 X19.0581 Y4.9345
G1 X19.0799 Y4.9759
G1 X19.1143 Y5.0243
G1 X19.1585 Y5.0777
G1 X19.2010 Y5.1248
G1 X19.2758 Y5.2142
G1 X19.3447 Y5.3080
G1 X19.4077 Y5.4061
G1 X19.4643 Y5.5079
G1 X19.5143 Y5.6131
G1 X19.5577 Y5.7212
G1 X19.5941 Y5.8318
G1 X19.6235 Y5.9446
G1 X19.6457 Y6.0589
G1 X19.6606 Y6.1745
G1 X19.6682 Y6.2907
G1 X19.6700 Y6.3727
G1 X19.6671 Y6.4909
G1 X19.6559 Y6.6085
G1 X19.6366 Y6.7251
G1 X19.6093 Y6.8401
G1 X19.5741 Y6.9529
G1 X19.5311 Y7.0630
G1 X19.4805 Y7.1698
G1 X19.4231 Y7.2767
G1 X19.3659 Y7.3787
G1 X19.3032 Y7.4812
G1 X19.2794 Y7.5164
G1 X19.2006 Y7.6173
G1 X19.1100 Y7.7077
G1 X19.0185 Y7.7825
G1 X18.9266 Y7.8498
G1 X18.7802 Y7.9516
G1 X18.6838 Y8.0259
G1 X18.6155 Y8.0874
G1 X18.5721 Y8.1345
G1 X18.5491 Y8.1691
G1 X18.5449 Y8.1839
G1 X18.5451 Y8.1850
G1 X18.5552 Y8.1941
G1 X18.5676 Y8.1997
G1 X18.5684 Y8.1999
G1 X18.6160 Y8.2098
G1 X18.6855 Y8.2135
G1 X18.6909
G1 X18.8400 Y8.2056
G1 X19.0265 Y8.1828
G1 X19.2768 Y8.1402
G1 X19.6070 Y8.0702
G1 X19.7697 Y8.0313
G1 X19.9398 Y7.9925
G1 X20.0821 Y7.9661
G1 X20.2108 Y7.9491
G1 X20.3195 Y7.9425
G1 X20.3334 Y7.9424
G1 X20.4235 Y7.9481
G1 X20.4945 Y7.9668
G1 X20.5276 Y7.9865
G1 X20.5512 Y8.0169
G1 X20.5516 Y8.0177
G1 X20.5585 Y8.0517
G1 Y8.0529
G1 X20.5489 Y8.0945
G1 X20.5286 Y8.1321
G1 X20.4542 Y8.2227
G1 X20.3265 Y8.3389
G1 X20.1379 Y8.4802
G1 X20.1078 Y8.5007
G1 X19.8355 Y8.6690
G1 X19.5758 Y8.8030
G1 X19.0392 Y9.0540
G1 X19.0380 Y9.2845
G1 X19.0345 Y9.4670
G1 X19.0260 Y9.6456
G1 X19.0101 Y9.7903
G1 X18.9786 Y9.9094
G1 X18.9473 Y9.9657
G1 X18.9038 Y10.0131
G1 X18.8725 Y10.0403
G1 X18.8718 Y10.0409
G1 X18.8401 Y10.0648
G1 X18.8396 Y10.0651
G1 X18.7991 Y10.0875
G1 X18.7352 Y10.1004
G1 X18.6858 Y10.0946
G1 X18.6852 Y10.0944
G1 X18.6437 Y10.0830
G1 X18.6427 Y10.0827
G1 X18.5974 Y10.0664
G1 X18.5969 Y10.0662
G1 X18.5563 Y10.0499
G1 X18.4723 Y10.0197
G1 X18.4153 Y10.0049
G1 X18.3747 Y9.9984
G1 X18.3556 Y9.9973
G1 X18.3426 Y9.9982
G1 X18.3342 Y10.0003
G1 X18.3327 Y10.0013
G1 X18.3279 Y10.0101
G1 X18.3204 Y10.0347
G1 X18.3118 Y10.0731
G1 X18.3016 Y10.1300
G1 X18.2911 Y10.2011
G1 X18.2796 Y10.2930
G1 X18.2630 Y10.4654
G1 X18.2451 Y10.6359
G1 X18.2301 Y10.7366
G1 X18.2300 Y10.7372
G1 X18.2137 Y10.8213
G1 X18.2136 Y10.8220
G1 X18.2021 Y10.8684
G1 X18.2018 Y10.8693
G1 X18.1919 Y10.9010
G1 X18.1914 Y10.9023
G1 X18.1819 Y10.9245
G1 X18.1805 Y10.9271
G1 X18.1714 Y10.9403
G1 X18.1684 Y10.9435
G1 X18.1657 Y10.9456
G1 X18.1648 Y10.9463
G1 X18.1490 Y10.9593
G1 X18.1365 Y10.9754
G1 X18.1276 Y10.9938
G1 X18.1193 Y11.0226
G1 X18.1153 Y11.0523
G1 X18.1147 Y11.0713
G1 X18.1192 Y11.1247
G1 X18.1216 Y11.1377
G1 X18.1320 Y11.1784
G1 X18.1475 Y11.2175
G1 X18.1678 Y11.2543
G1 X18.1926 Y11.2882
G1 X18.2240 Y11.3170
G1 X18.2560 Y11.3417
G1 X18.2569 Y11.3424
G1 X18.2812 Y11.3644
G1 X18.2827 Y11.3660
G1 X18.3006 Y11.3876
G1 X18.3013 Y11.3886
G1 X18.3125 Y11.4194
G1 X18.3126 Y11.4204
G1 Y11.4220
G1 Y11.4227
G1 X18.2976 Y11.4573
G1 X18.2966 Y11.4582
G1 X18.2795 Y11.4721
G1 X18.2771 Y11.4737
G1 X18.2478 Y11.4890
G1 X18.2464 Y11.4897
G1 X18.2174 Y11.5011
G1 X18.2167 Y11.5014
G1 X18.1831 Y11.5125
G1 X18.1826 Y11.5126
G1 X18.1445 Y11.5237
G1 X18.0875 Y11.5387
G1 X18.0528 Y11.5468
G1 X18.0521 Y11.5470
G1 X18.0193 Y11.5530
G1 X18.0179 Y11.5532
G1 X17.9796 Y11.5564
G1 X17.9788
G1 X17.9265 Y11.5471
G1 X17.9260 Y11.5469
G1 X17.8781 Y11.5085
G1 X17.8545 Y11.4707
G1 X17.8505 Y11.4627
G1 X17.8502 Y11.4623
G1 X17.8397 Y11.4394
G1 X17.8394 Y11.4387
G1 X17.8211 Y11.3934
G1 X17.7558 Y11.2217
G1 X17.1969 Y11.2573
G1 X16.6811 Y11.2919
G1 X16.2132 Y11.3257
G1 X15.9035 Y11.3498
G1 X15.4729 Y11.3865
G1 X15.2192 Y11.4069
G1 X14.5014 Y11.4609
G1 X13.7112 Y11.5151
G1 X13.5401 Y11.5261
G1 X13.5196 Y11.5301
G1 X13.5009 Y11.5393
G1 X13.4851 Y11.5531
G1 X13.4735 Y11.5704
G1 X13.4668 Y11.5902
G1 X13.4654 Y11.6110
M2002
M2101 P1 R1
G0
M2002
M30
