(Filename: trigger_wheel.ngc)
(Post processor: Xmotion_Gen3.scpost)
(Date: 21/07/2019)
G20 (Units: Inches)
M2000 V80
(Part: 2 [1])
(Operation: Outside Offset, 0, T1: Plasma, 0.029 in kerf)
G0
G0 X2.7675 Y2.1570
M2001
G1 F42
G1 X2.7648 Y2.1363
G1 X2.7568 Y2.1170
G1 X2.7441 Y2.1004
G1 X2.7275 Y2.0877
G1 X2.7082 Y2.0797
G1 X2.6875 Y2.0770
G1 X2.6257 Y2.0801
G1 X2.5646 Y2.0895
G1 X2.5047 Y2.1050
G1 X2.4467 Y2.1265
G1 X2.3912 Y2.1537
G1 X2.3387 Y2.1864
G1 X2.2898 Y2.2243
G1 X2.2450 Y2.2669
G1 X2.2047 Y2.3138
G1 X2.1694 Y2.3646
G1 X2.1394 Y2.4186
G1 X2.1150 Y2.4755
G1 X2.0965 Y2.5345
G1 X2.0840 Y2.5951
G1 X2.0778 Y2.6566
G1 Y2.7184
G1 X2.0840 Y2.7799
G1 X2.0965 Y2.8405
G1 X2.1150 Y2.8995
G1 X2.1394 Y2.9564
G1 X2.1694 Y3.0104
G1 X2.2047 Y3.0612
G1 X2.2450 Y3.1081
G1 X2.2898 Y3.1507
G1 X2.3387 Y3.1886
G1 X2.3912 Y3.2213
G1 X2.4467 Y3.2485
G1 X2.5047 Y3.2700
G1 X2.5646 Y3.2855
G1 X2.6257 Y3.2949
G1 X2.6875 Y3.2980
G1 X2.7493 Y3.2949
G1 X2.8104 Y3.2855
G1 X2.8703 Y3.2700
G1 X2.9283 Y3.2485
G1 X2.9838 Y3.2213
G1 X3.0363 Y3.1886
G1 X3.0852 Y3.1507
G1 X3.1300 Y3.1081
G1 X3.1703 Y3.0612
G1 X3.2056 Y3.0104
G1 X3.2356 Y2.9564
G1 X3.2600 Y2.8995
G1 X3.2785 Y2.8405
G1 X3.2910 Y2.7799
G1 X3.2972 Y2.7184
G1 Y2.6566
G1 X3.2910 Y2.5951
G1 X3.2785 Y2.5345
G1 X3.2600 Y2.4755
G1 X3.2356 Y2.4186
G1 X3.2056 Y2.3646
G1 X3.1703 Y2.3138
G1 X3.1300 Y2.2669
G1 X3.0852 Y2.2243
G1 X3.0363 Y2.1864
G1 X2.9838 Y2.1537
G1 X2.9283 Y2.1265
G1 X2.8703 Y2.1050
G1 X2.8104 Y2.0895
G1 X2.7493 Y2.0801
G1 X2.6875 Y2.0770
G1 X2.6668 Y2.0797
G1 X2.6475 Y2.0877
G1 X2.6309 Y2.1004
G1 X2.6182 Y2.1170
G1 X2.6102 Y2.1363
G1 X2.6075 Y2.1570
M2002
M2101 P1 R1
G0
G0 X2.7675 Y1.8320
M2001
G1
G1 X2.7648 Y1.8113
G1 X2.7568 Y1.7920
G1 X2.7441 Y1.7754
G1 X2.7275 Y1.7627
G1 X2.7082 Y1.7547
G1 X2.6875 Y1.7520
G1 X2.6601 Y1.7551
G1 X2.6341 Y1.7642
G1 X2.6108 Y1.7788
G1 X2.5913 Y1.7983
G1 X2.5767 Y1.8216
G1 X2.5676 Y1.8476
G1 X2.5645 Y1.8750
G1 X2.5676 Y1.9024
G1 X2.5767 Y1.9284
G1 X2.5913 Y1.9517
G1 X2.6108 Y1.9712
G1 X2.6341 Y1.9858
G1 X2.6601 Y1.9949
G1 X2.6875 Y1.9980
G1 X2.7149 Y1.9949
G1 X2.7409 Y1.9858
G1 X2.7642 Y1.9712
G1 X2.7837 Y1.9517
G1 X2.7983 Y1.9284
G1 X2.8074 Y1.9024
G1 X2.8105 Y1.8750
G1 X2.8074 Y1.8476
G1 X2.7983 Y1.8216
G1 X2.7837 Y1.7983
G1 X2.7642 Y1.7788
G1 X2.7409 Y1.7642
G1 X2.7149 Y1.7551
G1 X2.6875 Y1.7520
G1 X2.6668 Y1.7547
G1 X2.6475 Y1.7627
G1 X2.6309 Y1.7754
G1 X2.6182 Y1.7920
G1 X2.6102 Y1.8113
G1 X2.6075 Y1.8320
M2002
M2101 P1 R1
G0
G0 X3.5402 Y2.3934
M2001
G1
G1 X3.5375 Y2.3727
G1 X3.5295 Y2.3534
G1 X3.5168 Y2.3369
G1 X3.5002 Y2.3241
G1 X3.4809 Y2.3161
G1 X3.4602 Y2.3134
G1 X3.4329 Y2.3165
G1 X3.4069 Y2.3256
G1 X3.3835 Y2.3403
G1 X3.3641 Y2.3597
G1 X3.3494 Y2.3831
G1 X3.3403 Y2.4091
G1 X3.3372 Y2.4364
G1 X3.3403 Y2.4638
G1 X3.3494 Y2.4898
G1 X3.3641 Y2.5131
G1 X3.3835 Y2.5326
G1 X3.4069 Y2.5472
G1 X3.4329 Y2.5563
G1 X3.4602 Y2.5594
G1 X3.4876 Y2.5563
G1 X3.5136 Y2.5472
G1 X3.5369 Y2.5326
G1 X3.5564 Y2.5131
G1 X3.5711 Y2.4898
G1 X3.5801 Y2.4638
G1 X3.5832 Y2.4364
G1 X3.5801 Y2.4091
G1 X3.5711 Y2.3831
G1 X3.5564 Y2.3597
G1 X3.5369 Y2.3403
G1 X3.5136 Y2.3256
G1 X3.4876 Y2.3165
G1 X3.4602 Y2.3134
G1 X3.4395 Y2.3161
G1 X3.4202 Y2.3241
G1 X3.4037 Y2.3369
G1 X3.3910 Y2.3534
G1 X3.3830 Y2.3727
G1 X3.3802 Y2.3934
M2002
M2101 P1 R1
G0
G0 X3.2451 Y3.3043
M2001
G1
G1 X3.2423 Y3.2836
G1 X3.2344 Y3.2643
G1 X3.2216 Y3.2478
G1 X3.2051 Y3.2350
G1 X3.1858 Y3.2271
G1 X3.1651 Y3.2243
G1 X3.1373 Y3.2276
G1 X3.1110 Y3.2371
G1 X3.0876 Y3.2525
G1 X3.0684 Y3.2729
G1 X3.0544 Y3.2971
G1 X3.0464 Y3.3239
G1 X3.0448 Y3.3518
G1 X3.0496 Y3.3794
G1 X3.0607 Y3.4051
G1 X3.0774 Y3.4275
G1 X3.0989 Y3.4455
G1 X3.1239 Y3.4581
G1 X3.1511 Y3.4645
G1 X3.1791
G1 X3.2063 Y3.4581
G1 X3.2313 Y3.4455
G1 X3.2527 Y3.4275
G1 X3.2694 Y3.4051
G1 X3.2805 Y3.3794
G1 X3.2854 Y3.3518
G1 X3.2837 Y3.3239
G1 X3.2757 Y3.2971
G1 X3.2617 Y3.2729
G1 X3.2425 Y3.2525
G1 X3.2192 Y3.2371
G1 X3.1929 Y3.2276
G1 X3.1651 Y3.2243
G1 X3.1444 Y3.2271
G1 X3.1251 Y3.2350
G1 X3.1085 Y3.2478
G1 X3.0958 Y3.2643
G1 X3.0878 Y3.2836
G1 X3.0851 Y3.3043
M2002
M2101 P1 R1
G0
G0 X2.2899 Y3.3018
M2001
G1
G1 X2.2872 Y3.2811
G1 X2.2792 Y3.2618
G1 X2.2665 Y3.2453
G1 X2.2499 Y3.2325
G1 X2.2306 Y3.2246
G1 X2.2099 Y3.2218
G1 X2.1826 Y3.2249
G1 X2.1566 Y3.2340
G1 X2.1332 Y3.2487
G1 X2.1138 Y3.2681
G1 X2.0991 Y3.2915
G1 X2.0900 Y3.3175
G1 X2.0869 Y3.3448
G1 X2.0900 Y3.3722
G1 X2.0991 Y3.3982
G1 X2.1138 Y3.4215
G1 X2.1332 Y3.4410
G1 X2.1566 Y3.4556
G1 X2.1826 Y3.4647
G1 X2.2099 Y3.4678
G1 X2.2373 Y3.4647
G1 X2.2633 Y3.4556
G1 X2.2866 Y3.4410
G1 X2.3061 Y3.4215
G1 X2.3207 Y3.3982
G1 X2.3298 Y3.3722
G1 X2.3329 Y3.3448
G1 X2.3298 Y3.3175
G1 X2.3207 Y3.2915
G1 X2.3061 Y3.2681
G1 X2.2866 Y3.2487
G1 X2.2633 Y3.2340
G1 X2.2373 Y3.2249
G1 X2.2099 Y3.2218
G1 X2.1892 Y3.2246
G1 X2.1699 Y3.2325
G1 X2.1534 Y3.2453
G1 X2.1406 Y3.2618
G1 X2.1327 Y3.2811
G1 X2.1299 Y3.3018
M2002
M2101 P1 R1
G0
G0 X1.9948 Y2.3934
M2001
G1
G1 X1.9920 Y2.3727
G1 X1.9840 Y2.3534
G1 X1.9713 Y2.3369
G1 X1.9548 Y2.3241
G1 X1.9355 Y2.3161
G1 X1.9148 Y2.3134
G1 X1.8874 Y2.3165
G1 X1.8614 Y2.3256
G1 X1.8381 Y2.3403
G1 X1.8186 Y2.3597
G1 X1.8039 Y2.3831
G1 X1.7949 Y2.4091
G1 X1.7918 Y2.4364
G1 X1.7949 Y2.4638
G1 X1.8039 Y2.4898
G1 X1.8186 Y2.5131
G1 X1.8381 Y2.5326
G1 X1.8614 Y2.5472
G1 X1.8874 Y2.5563
G1 X1.9148 Y2.5594
G1 X1.9421 Y2.5563
G1 X1.9681 Y2.5472
G1 X1.9915 Y2.5326
G1 X2.0109 Y2.5131
G1 X2.0256 Y2.4898
G1 X2.0347 Y2.4638
G1 X2.0378 Y2.4364
G1 X2.0347 Y2.4091
G1 X2.0256 Y2.3831
G1 X2.0109 Y2.3597
G1 X1.9915 Y2.3403
G1 X1.9681 Y2.3256
G1 X1.9421 Y2.3165
G1 X1.9148 Y2.3134
G1 X1.8941 Y2.3161
G1 X1.8748 Y2.3241
G1 X1.8582 Y2.3369
G1 X1.8455 Y2.3534
G1 X1.8375 Y2.3727
G1 X1.8348 Y2.3934
M2002
M2101 P1 R1
G0
G0 X2.9787 Y-0.0861
M2001
G1
G1 X2.9777 Y-0.0652
G1 X2.9823 Y-0.0448
G1 X2.9919 Y-0.0263
G1 X3.0060 Y-0.0109
G1 X3.0236 Y0.0003
G1 X3.0435 Y0.0066
G1 X3.2699 Y0.0465
G1 X3.2816 Y0.0633
G1 X3.2405 Y0.2965
G1 X3.3221 Y0.3190
G1 X3.4041 Y0.3404
G1 X3.4851 Y0.1178
G1 X3.5037 Y0.1092
G1 X3.7196 Y0.1877
G1 X3.7283 Y0.2063
G1 X3.6473 Y0.4289
G1 X3.7238 Y0.4652
G1 X3.8008 Y0.5004
G1 X3.9192 Y0.2954
G1 X3.9390 Y0.2900
G1 X4.1380 Y0.4049
G1 X4.1433 Y0.4248
G1 X4.0249 Y0.6298
G1 X4.0939 Y0.6789
G1 X4.1636 Y0.7270
G1 X4.3159 Y0.5456
G1 X4.3363 Y0.5438
G1 X4.5123 Y0.6915
G1 X4.5141 Y0.7119
G1 X4.3619 Y0.8933
G1 X4.4213 Y0.9537
G1 X4.4817 Y1.0131
G1 X4.6631 Y0.8609
G1 X4.6835 Y0.8627
G1 X4.8312 Y1.0387
G1 X4.8294 Y1.0591
G1 X4.6480 Y1.2114
G1 X4.6961 Y1.2811
G1 X4.7452 Y1.3501
G1 X4.9502 Y1.2317
G1 X4.9701 Y1.2370
G1 X5.0850 Y1.4360
G1 X5.0796 Y1.4558
G1 X4.8746 Y1.5742
G1 X4.9098 Y1.6512
G1 X4.9461 Y1.7277
G1 X5.1687 Y1.6467
G1 X5.1873 Y1.6554
G1 X5.2658 Y1.8713
G1 X5.2572 Y1.8899
G1 X5.0346 Y1.9709
G1 X5.0560 Y2.0529
G1 X5.0785 Y2.1345
G1 X5.3117 Y2.0934
G1 X5.3285 Y2.1051
G1 X5.3684 Y2.3315
G1 X5.3566 Y2.3483
G1 X5.1234 Y2.3894
G1 X5.1302 Y2.4738
G1 X5.1382 Y2.5581
G1 X5.3750
G1 X5.3895 Y2.5726
G1 Y2.8024
G1 X5.3750 Y2.8169
G1 X5.1382
G1 X5.1302 Y2.9012
G1 X5.1234 Y2.9856
G1 X5.3566 Y3.0267
G1 X5.3684 Y3.0435
G1 X5.3285 Y3.2699
G1 X5.3117 Y3.2816
G1 X5.0785 Y3.2405
G1 X5.0560 Y3.3221
G1 X5.0346 Y3.4041
G1 X5.2572 Y3.4851
G1 X5.2658 Y3.5037
G1 X5.1873 Y3.7196
G1 X5.1687 Y3.7283
G1 X4.9461 Y3.6473
G1 X4.9098 Y3.7238
G1 X4.8746 Y3.8008
G1 X5.0796 Y3.9192
G1 X5.0850 Y3.9390
G1 X4.9701 Y4.1380
G1 X4.9502 Y4.1433
G1 X4.7452 Y4.0249
G1 X4.6961 Y4.0939
G1 X4.6480 Y4.1636
G1 X4.8294 Y4.3159
G1 X4.8312 Y4.3363
G1 X4.6835 Y4.5123
G1 X4.6631 Y4.5141
G1 X4.4817 Y4.3619
G1 X4.4213 Y4.4213
G1 X4.3619 Y4.4817
G1 X4.5141 Y4.6631
G1 X4.5123 Y4.6835
G1 X4.3363 Y4.8312
G1 X4.3159 Y4.8294
G1 X4.1636 Y4.6480
G1 X4.0939 Y4.6961
G1 X4.0249 Y4.7452
G1 X4.1433 Y4.9502
G1 X4.1380 Y4.9701
G1 X3.9390 Y5.0850
G1 X3.9192 Y5.0796
G1 X3.8008 Y4.8746
G1 X3.7238 Y4.9098
G1 X3.6473 Y4.9461
G1 X3.7283 Y5.1687
G1 X3.7196 Y5.1873
G1 X3.5037 Y5.2658
G1 X3.4851 Y5.2572
G1 X3.4041 Y5.0346
G1 X3.3221 Y5.0560
G1 X3.2405 Y5.0785
G1 X3.2816 Y5.3117
G1 X3.2699 Y5.3285
G1 X3.0435 Y5.3684
G1 X3.0267 Y5.3566
G1 X2.9856 Y5.1234
G1 X2.9012 Y5.1302
G1 X2.8169 Y5.1382
G1 Y5.3750
G1 X2.8024 Y5.3895
G1 X2.5726
G1 X2.5581 Y5.3750
G1 Y5.1382
G1 X2.4738 Y5.1302
G1 X2.3894 Y5.1234
G1 X2.3483 Y5.3566
G1 X2.3315 Y5.3684
G1 X2.1051 Y5.3285
G1 X2.0934 Y5.3117
G1 X2.1345 Y5.0785
G1 X2.0529 Y5.0560
G1 X1.9709 Y5.0346
G1 X1.8899 Y5.2572
G1 X1.8713 Y5.2658
G1 X1.6554 Y5.1873
G1 X1.6467 Y5.1687
G1 X1.7277 Y4.9461
G1 X1.6512 Y4.9098
G1 X1.5742 Y4.8746
G1 X1.4558 Y5.0796
G1 X1.4360 Y5.0850
G1 X1.2370 Y4.9701
G1 X1.2317 Y4.9502
G1 X1.3501 Y4.7452
G1 X1.2811 Y4.6961
G1 X1.2114 Y4.6480
G1 X1.0591 Y4.8294
G1 X1.0387 Y4.8312
G1 X0.8627 Y4.6835
G1 X0.8609 Y4.6631
G1 X1.0131 Y4.4817
G1 X0.9537 Y4.4213
G1 X0.8933 Y4.3619
G1 X0.7119 Y4.5141
G1 X0.6915 Y4.5123
G1 X0.5438 Y4.3363
G1 X0.5456 Y4.3159
G1 X0.7270 Y4.1636
G1 X0.6789 Y4.0939
G1 X0.6298 Y4.0249
G1 X0.4248 Y4.1433
G1 X0.4049 Y4.1380
G1 X0.2900 Y3.9390
G1 X0.2954 Y3.9192
G1 X0.5004 Y3.8008
G1 X0.4652 Y3.7238
G1 X0.4289 Y3.6473
G1 X0.2063 Y3.7283
G1 X0.1877 Y3.7196
G1 X0.1092 Y3.5037
G1 X0.1178 Y3.4851
G1 X0.3404 Y3.4041
G1 X0.3190 Y3.3221
G1 X0.2965 Y3.2405
G1 X0.0633 Y3.2816
G1 X0.0465 Y3.2699
G1 X0.0066 Y3.0435
G1 X0.0184 Y3.0267
G1 X0.2516 Y2.9856
G1 X0.2448 Y2.9012
G1 X0.2368 Y2.8169
G1 X0.0000
G1 X-0.0145 Y2.8024
G1 Y2.5726
G1 X0.0000 Y2.5581
G1 X0.2368
G1 X0.2448 Y2.4738
G1 X0.2516 Y2.3894
G1 X0.0184 Y2.3483
G1 X0.0066 Y2.3315
G1 X0.0465 Y2.1051
G1 X0.0633 Y2.0934
G1 X0.2965 Y2.1345
G1 X0.3190 Y2.0529
G1 X0.3404 Y1.9709
G1 X0.1178 Y1.8899
G1 X0.1092 Y1.8713
G1 X0.1877 Y1.6554
G1 X0.2063 Y1.6467
G1 X0.4289 Y1.7277
G1 X0.4652 Y1.6512
G1 X0.5004 Y1.5742
G1 X0.2954 Y1.4558
G1 X0.2900 Y1.4360
G1 X0.4049 Y1.2370
G1 X0.4248 Y1.2317
G1 X0.6298 Y1.3501
G1 X0.6789 Y1.2811
G1 X0.7270 Y1.2114
G1 X0.5456 Y1.0591
G1 X0.5438 Y1.0387
G1 X0.6915 Y0.8627
G1 X0.7119 Y0.8609
G1 X0.8933 Y1.0131
G1 X0.9537 Y0.9537
G1 X1.0131 Y0.8933
G1 X0.8609 Y0.7119
G1 X0.8627 Y0.6915
G1 X1.0387 Y0.5438
G1 X1.0591 Y0.5456
G1 X1.2114 Y0.7270
G1 X1.2811 Y0.6789
G1 X1.3501 Y0.6298
G1 X1.2317 Y0.4248
G1 X1.2370 Y0.4049
G1 X1.4360 Y0.2900
G1 X1.4558 Y0.2954
G1 X1.5742 Y0.5004
G1 X1.6512 Y0.4652
G1 X1.7277 Y0.4289
G1 X1.6467 Y0.2063
G1 X1.6554 Y0.1877
G1 X1.8713 Y0.1092
G1 X1.8899 Y0.1178
G1 X1.9709 Y0.3404
G1 X2.0530 Y0.3190
G1 X2.0541 Y0.3188
G1 X2.4725 Y0.2450
G1 X2.4737 Y0.2448
G1 X2.5581 Y0.2368
G1 Y0.0000
G1 X2.5726 Y-0.0145
G1 X2.8024
G1 X2.8169 Y0.0000
G1 Y0.2368
G1 X2.9012 Y0.2448
G1 X2.9856 Y0.2516
G1 X3.0267 Y0.0184
G1 X3.0277 Y-0.0025
G1 X3.0231 Y-0.0229
G1 X3.0135 Y-0.0414
G1 X2.9994 Y-0.0568
G1 X2.9818 Y-0.0680
G1 X2.9619 Y-0.0743
M2002
M2101 P1 R1
G0
M2002
M30