( This gcode generated by /root/.eagle/ulp/pcb-gcode.ulp )
( Copyright 2005 by John Johnson. See readme.txt for licensing terms. )

( This file generated from the board /root/Downloads/pcb-gcode-3.3.3/04151_lcdi2c.brd )
( This file generated 23 Sep 2015 21:00:39 )

G20

G90
G00 Z0.5000 
G00 X0 Y0
M03
G04 P3.000000
G00 Z0.0200 
G00 X-2.5701 Y0.2030 
G01 Z-0.0100 F10.00 
G01 X-2.5852 Y0.2182 
G01 X-2.6397 Y0.2182 
G01 X-2.5800 Y0.1585 
G01 X-2.5701 Y0.1684 
G01 X-2.5701 Y0.2030 
G00 Z0.0200 
G00 X-2.6800 Y0.2030 
G01 Z-0.0100 F10.00 
G01 X-2.6800 Y0.1684 
G01 X-2.6649 Y0.1533 
G01 X-2.6104 Y0.1533 
G01 X-2.6701 Y0.2129 
G01 X-2.6800 Y0.2030 
G00 Z0.0200 
G00 X-2.6622 Y0.3337 
G01 Z-0.0100 F10.00 
G01 X-2.6377 Y0.3092 
G01 X-2.6377 Y0.3337 
G01 X-2.6622 Y0.3337 
G00 Z0.0200 
G00 X-2.6424 Y1.0469 
G01 Z-0.0100 F10.00 
G01 X-2.6748 Y1.0144 
G01 X-2.6424 Y0.9820 
G01 X-2.6377 Y0.9820 
G01 X-2.6377 Y1.0469 
G01 X-2.6424 Y1.0469 
G00 Z0.0200 
G00 X-0.2098 Y0.8631 
G01 Z-0.0100 F10.00 
G01 X-0.2301 Y0.8834 
G01 X-0.2301 Y0.9166 
G01 X-0.2276 Y0.9191 
G01 X-0.2454 Y0.9369 
G01 X-0.2702 Y0.9369 
G01 X-0.2499 Y0.9166 
G01 X-0.2499 Y0.8834 
G01 X-0.2524 Y0.8809 
G01 X-0.2346 Y0.8631 
G01 X-0.2098 Y0.8631 
G00 Z0.0200 
G00 X-0.1499 Y0.8166 
G01 Z-0.0100 F10.00 
G01 X-0.1499 Y0.7834 
G01 X-0.1734 Y0.7599 
G01 X-0.2066 Y0.7599 
G01 X-0.2091 Y0.7624 
G01 X-0.2295 Y0.7420 
G01 X-0.2320 Y0.7395 
G01 X-0.2349 Y0.7378 
G01 X-0.2383 Y0.7369 
G01 X-0.2702 Y0.7369 
G01 X-0.2499 Y0.7166 
G01 X-0.2499 Y0.6834 
G01 X-0.2702 Y0.6631 
G01 X-0.2098 Y0.6631 
G01 X-0.2301 Y0.6834 
G01 X-0.2301 Y0.7166 
G01 X-0.2066 Y0.7401 
G01 X-0.1734 Y0.7401 
G01 X-0.1499 Y0.7166 
G01 X-0.1499 Y0.6834 
G01 X-0.1577 Y0.6756 
G01 X-0.1431 Y0.6865 
G01 X-0.1431 Y0.8135 
G01 X-0.1577 Y0.8244 
G01 X-0.1499 Y0.8166 
G00 Z0.0200 
G00 X-0.3301 Y0.6834 
G01 Z-0.0100 F10.00 
G01 X-0.3301 Y0.7166 
G01 X-0.3098 Y0.7369 
G01 X-0.3517 Y0.7369 
G01 X-0.3551 Y0.7378 
G01 X-0.3580 Y0.7395 
G01 X-0.5054 Y0.8869 
G01 X-0.7579 Y0.8869 
G01 X-0.7522 Y0.8858 
G01 X-0.7457 Y0.8830 
G01 X-0.7397 Y0.8791 
G01 X-0.7347 Y0.8741 
G01 X-0.7308 Y0.8682 
G01 X-0.7280 Y0.8616 
G01 X-0.7267 Y0.8546 
G01 X-0.7267 Y0.7855 
G01 X-0.7280 Y0.7785 
G01 X-0.7308 Y0.7720 
G01 X-0.7318 Y0.7704 
G01 X-0.6595 Y0.6980 
G01 X-0.6578 Y0.6951 
G01 X-0.6569 Y0.6917 
G01 X-0.6569 Y0.5633 
G01 X-0.6578 Y0.5599 
G01 X-0.6595 Y0.5570 
G01 X-0.8045 Y0.4120 
G01 X-0.8045 Y0.4120 
G01 X-0.8070 Y0.4095 
G01 X-0.8099 Y0.4078 
G01 X-0.8133 Y0.4069 
G01 X-0.9119 Y0.4069 
G01 X-0.9119 Y0.3231 
G01 X-0.7104 Y0.3231 
G01 X-0.6630 Y0.3705 
G01 X-0.6601 Y0.3722 
G01 X-0.6567 Y0.3731 
G01 X-0.5304 Y0.3731 
G01 X-0.3430 Y0.5605 
G01 X-0.3401 Y0.5622 
G01 X-0.3367 Y0.5631 
G01 X-0.3098 Y0.5631 
G01 X-0.3301 Y0.5834 
G01 X-0.3301 Y0.6166 
G01 X-0.3098 Y0.6369 
G01 X-0.3346 Y0.6369 
G01 X-0.4669 Y0.5046 
G01 X-0.4669 Y0.5033 
G01 X-0.4678 Y0.4999 
G01 X-0.4695 Y0.4970 
G01 X-0.5445 Y0.4220 
G01 X-0.5470 Y0.4195 
G01 X-0.5499 Y0.4178 
G01 X-0.5533 Y0.4169 
G01 X-0.6896 Y0.4169 
G01 X-0.7329 Y0.3736 
G01 X-0.7329 Y0.3736 
G01 X-0.7329 Y0.3664 
G01 X-0.7343 Y0.3595 
G01 X-0.7370 Y0.3529 
G01 X-0.7410 Y0.3470 
G01 X-0.7460 Y0.3420 
G01 X-0.7519 Y0.3380 
G01 X-0.7585 Y0.3353 
G01 X-0.7654 Y0.3339 
G01 X-0.8346 Y0.3339 
G01 X-0.8415 Y0.3353 
G01 X-0.8481 Y0.3380 
G01 X-0.8540 Y0.3420 
G01 X-0.8590 Y0.3470 
G01 X-0.8630 Y0.3529 
G01 X-0.8657 Y0.3595 
G01 X-0.8671 Y0.3664 
G01 X-0.8671 Y0.3736 
G01 X-0.8657 Y0.3805 
G01 X-0.8630 Y0.3871 
G01 X-0.8590 Y0.3930 
G01 X-0.8540 Y0.3980 
G01 X-0.8481 Y0.4020 
G01 X-0.8415 Y0.4047 
G01 X-0.8346 Y0.4061 
G01 X-0.7654 Y0.4061 
G01 X-0.7585 Y0.4047 
G01 X-0.7519 Y0.4020 
G01 X-0.7460 Y0.3980 
G01 X-0.7457 Y0.3978 
G01 X-0.7030 Y0.4405 
G01 X-0.7001 Y0.4422 
G01 X-0.6967 Y0.4431 
G01 X-0.5604 Y0.4431 
G01 X-0.4931 Y0.5104 
G01 X-0.4931 Y0.5117 
G01 X-0.4922 Y0.5151 
G01 X-0.4905 Y0.5180 
G01 X-0.4880 Y0.5205 
G01 X-0.3480 Y0.6605 
G01 X-0.3451 Y0.6622 
G01 X-0.3417 Y0.6631 
G01 X-0.3098 Y0.6631 
G01 X-0.3301 Y0.6834 
G00 Z0.0200 
G00 X-0.2499 Y0.6166 
G01 Z-0.0100 F10.00 
G01 X-0.2499 Y0.5834 
G01 X-0.2702 Y0.5631 
G01 X-0.2098 Y0.5631 
G01 X-0.2301 Y0.5834 
G01 X-0.2301 Y0.6166 
G01 X-0.2098 Y0.6369 
G01 X-0.2702 Y0.6369 
G01 X-0.2499 Y0.6166 
G00 Z0.0200 
G00 X-0.5854 Y0.1231 
G01 Z-0.0100 F10.00 
G01 X-0.3276 Y0.3809 
G01 X-0.3301 Y0.3834 
G01 X-0.3301 Y0.4166 
G01 X-0.3066 Y0.4401 
G01 X-0.2734 Y0.4401 
G01 X-0.2531 Y0.4198 
G01 X-0.2531 Y0.4517 
G01 X-0.2522 Y0.4551 
G01 X-0.2505 Y0.4580 
G01 X-0.2276 Y0.4809 
G01 X-0.2301 Y0.4834 
G01 X-0.2301 Y0.5166 
G01 X-0.2098 Y0.5369 
G01 X-0.2702 Y0.5369 
G01 X-0.2499 Y0.5166 
G01 X-0.2499 Y0.4834 
G01 X-0.2734 Y0.4599 
G01 X-0.3066 Y0.4599 
G01 X-0.3091 Y0.4624 
G01 X-0.3669 Y0.4046 
G01 X-0.3669 Y0.3683 
G01 X-0.3678 Y0.3649 
G01 X-0.3695 Y0.3620 
G01 X-0.3720 Y0.3595 
G01 X-0.5995 Y0.1320 
G01 X-0.5995 Y0.1320 
G01 X-0.6020 Y0.1295 
G01 X-0.6049 Y0.1278 
G01 X-0.6083 Y0.1269 
G01 X-1.4217 Y0.1269 
G01 X-1.4251 Y0.1278 
G01 X-1.4280 Y0.1295 
G01 X-1.4305 Y0.1320 
G01 X-1.4605 Y0.1620 
G01 X-1.4622 Y0.1649 
G01 X-1.4631 Y0.1683 
G01 X-1.4631 Y0.5991 
G01 X-1.4632 Y0.5999 
G01 X-1.4631 Y0.6008 
G01 X-1.4631 Y0.6017 
G01 X-1.4629 Y0.6025 
G01 X-1.4628 Y0.6033 
G01 X-1.4625 Y0.6041 
G01 X-1.4622 Y0.6051 
G01 X-1.4618 Y0.6057 
G01 X-1.4615 Y0.6065 
G01 X-1.4610 Y0.6072 
G01 X-1.4605 Y0.6080 
G01 X-1.4599 Y0.6086 
G01 X-1.4481 Y0.6244 
G01 X-1.4481 Y0.8249 
G01 X-1.4958 Y0.8769 
G01 X-1.6146 Y0.8769 
G01 X-1.6223 Y0.8692 
G01 X-1.6181 Y0.8720 
G01 X-1.6115 Y0.8747 
G01 X-1.6046 Y0.8761 
G01 X-1.5354 Y0.8761 
G01 X-1.5285 Y0.8747 
G01 X-1.5219 Y0.8720 
G01 X-1.5160 Y0.8680 
G01 X-1.5110 Y0.8630 
G01 X-1.5070 Y0.8571 
G01 X-1.5054 Y0.8531 
G01 X-1.5013 Y0.8531 
G01 X-1.5008 Y0.8532 
G01 X-1.4996 Y0.8531 
G01 X-1.4983 Y0.8531 
G01 X-1.4978 Y0.8530 
G01 X-1.4974 Y0.8530 
G01 X-1.4962 Y0.8525 
G01 X-1.4949 Y0.8522 
G01 X-1.4946 Y0.8520 
G01 X-1.4941 Y0.8518 
G01 X-1.4931 Y0.8511 
G01 X-1.4920 Y0.8505 
G01 X-1.4916 Y0.8502 
G01 X-1.4913 Y0.8499 
G01 X-1.4904 Y0.8490 
G01 X-1.4895 Y0.8480 
G01 X-1.4893 Y0.8477 
G01 X-1.4554 Y0.8090 
G01 X-1.4545 Y0.8080 
G01 X-1.4543 Y0.8077 
G01 X-1.4540 Y0.8073 
G01 X-1.4534 Y0.8062 
G01 X-1.4528 Y0.8051 
G01 X-1.4527 Y0.8046 
G01 X-1.4525 Y0.8042 
G01 X-1.4522 Y0.8030 
G01 X-1.4519 Y0.8017 
G01 X-1.4519 Y0.8013 
G01 X-1.4518 Y0.8008 
G01 X-1.4519 Y0.7996 
G01 X-1.4519 Y0.6506 
G01 X-1.4518 Y0.6495 
G01 X-1.4519 Y0.6489 
G01 X-1.4519 Y0.6483 
G01 X-1.4522 Y0.6472 
G01 X-1.4524 Y0.6461 
G01 X-1.4526 Y0.6455 
G01 X-1.4528 Y0.6449 
G01 X-1.4534 Y0.6440 
G01 X-1.4538 Y0.6429 
G01 X-1.4542 Y0.6425 
G01 X-1.4545 Y0.6420 
G01 X-1.4553 Y0.6412 
G01 X-1.4769 Y0.6153 
G01 X-1.4769 Y0.1454 
G01 X-1.4546 Y0.1231 
G01 X-0.5854 Y0.1231 
G00 Z0.0200 
G00 X-1.6369 Y0.8446 
G01 Z-0.0100 F10.00 
G01 X-1.6357 Y0.8505 
G01 X-1.6330 Y0.8571 
G01 X-1.6302 Y0.8613 
G01 X-1.6369 Y0.8546 
G01 X-1.6369 Y0.8446 
G00 Z0.0200 
G00 X-0.2066 Y0.4401 
G01 Z-0.0100 F10.00 
G01 X-0.1734 Y0.4401 
G01 X-0.1531 Y0.4198 
G01 X-0.1531 Y0.4802 
G01 X-0.1734 Y0.4599 
G01 X-0.2066 Y0.4599 
G01 X-0.2091 Y0.4624 
G01 X-0.2269 Y0.4446 
G01 X-0.2269 Y0.4198 
G01 X-0.2066 Y0.4401 
G00 Z0.0200 
G00 X-0.1667 Y0.5372 
G01 Z-0.0100 F10.00 
G01 X-0.1675 Y0.5371 
G01 X-0.1683 Y0.5369 
G01 X-0.1692 Y0.5369 
G01 X-0.1701 Y0.5368 
G01 X-0.1531 Y0.5198 
G01 X-0.1531 Y0.5427 
G01 X-0.1643 Y0.5382 
G01 X-0.1649 Y0.5378 
G01 X-0.1659 Y0.5375 
G01 X-0.1667 Y0.5372 
G00 Z0.0200 
G00 X-1.9030 Y0.2787 
G01 Z-0.0100 F10.00 
G01 X-1.8981 Y0.2820 
G01 X-1.8915 Y0.2847 
G01 X-1.8846 Y0.2861 
G01 X-1.8154 Y0.2861 
G01 X-1.8129 Y0.2856 
G01 X-1.6480 Y0.4505 
G01 X-1.6451 Y0.4522 
G01 X-1.6417 Y0.4531 
G01 X-1.6346 Y0.4531 
G01 X-1.6330 Y0.4571 
G01 X-1.6290 Y0.4630 
G01 X-1.6240 Y0.4680 
G01 X-1.6181 Y0.4720 
G01 X-1.6115 Y0.4747 
G01 X-1.6046 Y0.4761 
G01 X-1.5354 Y0.4761 
G01 X-1.5285 Y0.4747 
G01 X-1.5219 Y0.4720 
G01 X-1.5160 Y0.4680 
G01 X-1.5110 Y0.4630 
G01 X-1.5070 Y0.4571 
G01 X-1.5043 Y0.4505 
G01 X-1.5031 Y0.4446 
G01 X-1.5031 Y0.5354 
G01 X-1.5043 Y0.5295 
G01 X-1.5070 Y0.5229 
G01 X-1.5110 Y0.5170 
G01 X-1.5160 Y0.5120 
G01 X-1.5219 Y0.5080 
G01 X-1.5285 Y0.5053 
G01 X-1.5354 Y0.5039 
G01 X-1.6046 Y0.5039 
G01 X-1.6115 Y0.5053 
G01 X-1.6181 Y0.5080 
G01 X-1.6240 Y0.5120 
G01 X-1.6268 Y0.5147 
G01 X-1.6695 Y0.4720 
G01 X-1.6720 Y0.4695 
G01 X-1.6749 Y0.4678 
G01 X-1.6783 Y0.4669 
G01 X-1.7639 Y0.4669 
G01 X-1.7639 Y0.4650 
G01 X-1.7850 Y0.4439 
G01 X-1.8076 Y0.4439 
G01 X-1.8369 Y0.4146 
G01 X-1.8369 Y0.3861 
G01 X-1.8154 Y0.3861 
G01 X-1.8085 Y0.3847 
G01 X-1.8019 Y0.3820 
G01 X-1.7960 Y0.3780 
G01 X-1.7910 Y0.3730 
G01 X-1.7870 Y0.3671 
G01 X-1.7843 Y0.3605 
G01 X-1.7829 Y0.3536 
G01 X-1.7829 Y0.3464 
G01 X-1.7843 Y0.3395 
G01 X-1.7870 Y0.3329 
G01 X-1.7910 Y0.3270 
G01 X-1.7960 Y0.3220 
G01 X-1.8019 Y0.3180 
G01 X-1.8085 Y0.3153 
G01 X-1.8154 Y0.3139 
G01 X-1.8846 Y0.3139 
G01 X-1.8915 Y0.3153 
G01 X-1.8981 Y0.3180 
G01 X-1.9040 Y0.3220 
G01 X-1.9090 Y0.3270 
G01 X-1.9130 Y0.3329 
G01 X-1.9157 Y0.3395 
G01 X-1.9169 Y0.3454 
G01 X-1.9169 Y0.2909 
G01 X-1.9030 Y0.2787 
G00 Z0.0200 
G00 X-2.0761 Y0.4650 
G01 Z-0.0100 F10.00 
G01 X-2.0761 Y0.4950 
G01 X-2.0550 Y0.5161 
G01 X-2.0250 Y0.5161 
G01 X-2.0039 Y0.4950 
G01 X-2.0039 Y0.4650 
G01 X-2.0069 Y0.4621 
G01 X-1.9604 Y0.4090 
G01 X-1.9595 Y0.4080 
G01 X-1.9593 Y0.4077 
G01 X-1.9590 Y0.4073 
G01 X-1.9584 Y0.4062 
G01 X-1.9578 Y0.4051 
G01 X-1.9577 Y0.4046 
G01 X-1.9575 Y0.4042 
G01 X-1.9572 Y0.4030 
G01 X-1.9569 Y0.4017 
G01 X-1.9569 Y0.4013 
G01 X-1.9568 Y0.4008 
G01 X-1.9569 Y0.3996 
G01 X-1.9569 Y0.2260 
G01 X-1.9023 Y0.1792 
G01 X-1.8981 Y0.1820 
G01 X-1.8915 Y0.1847 
G01 X-1.8846 Y0.1861 
G01 X-1.8154 Y0.1861 
G01 X-1.8085 Y0.1847 
G01 X-1.8019 Y0.1820 
G01 X-1.7960 Y0.1780 
G01 X-1.7910 Y0.1730 
G01 X-1.7885 Y0.1693 
G01 X-1.7560 Y0.1726 
G01 X-1.6195 Y0.3090 
G01 X-1.6240 Y0.3120 
G01 X-1.6290 Y0.3170 
G01 X-1.6330 Y0.3229 
G01 X-1.6357 Y0.3295 
G01 X-1.6371 Y0.3364 
G01 X-1.6371 Y0.3436 
G01 X-1.6357 Y0.3505 
G01 X-1.6330 Y0.3571 
G01 X-1.6290 Y0.3630 
G01 X-1.6240 Y0.3680 
G01 X-1.6181 Y0.3720 
G01 X-1.6115 Y0.3747 
G01 X-1.6046 Y0.3761 
G01 X-1.5354 Y0.3761 
G01 X-1.5285 Y0.3747 
G01 X-1.5219 Y0.3720 
G01 X-1.5160 Y0.3680 
G01 X-1.5110 Y0.3630 
G01 X-1.5070 Y0.3571 
G01 X-1.5043 Y0.3505 
G01 X-1.5031 Y0.3446 
G01 X-1.5031 Y0.4354 
G01 X-1.5043 Y0.4295 
G01 X-1.5070 Y0.4229 
G01 X-1.5110 Y0.4170 
G01 X-1.5160 Y0.4120 
G01 X-1.5219 Y0.4080 
G01 X-1.5285 Y0.4053 
G01 X-1.5354 Y0.4039 
G01 X-1.6046 Y0.4039 
G01 X-1.6115 Y0.4053 
G01 X-1.6181 Y0.4080 
G01 X-1.6240 Y0.4120 
G01 X-1.6290 Y0.4170 
G01 X-1.6330 Y0.4229 
G01 X-1.6346 Y0.4268 
G01 X-1.7900 Y0.2715 
G01 X-1.7870 Y0.2671 
G01 X-1.7843 Y0.2605 
G01 X-1.7829 Y0.2536 
G01 X-1.7829 Y0.2464 
G01 X-1.7843 Y0.2395 
G01 X-1.7870 Y0.2329 
G01 X-1.7910 Y0.2270 
G01 X-1.7960 Y0.2220 
G01 X-1.8019 Y0.2180 
G01 X-1.8085 Y0.2153 
G01 X-1.8154 Y0.2139 
G01 X-1.8846 Y0.2139 
G01 X-1.8915 Y0.2153 
G01 X-1.8981 Y0.2180 
G01 X-1.9040 Y0.2220 
G01 X-1.9090 Y0.2270 
G01 X-1.9130 Y0.2329 
G01 X-1.9157 Y0.2395 
G01 X-1.9171 Y0.2464 
G01 X-1.9171 Y0.2536 
G01 X-1.9166 Y0.2559 
G01 X-1.9377 Y0.2743 
G01 X-1.9380 Y0.2745 
G01 X-1.9390 Y0.2754 
G01 X-1.9399 Y0.2763 
G01 X-1.9402 Y0.2766 
G01 X-1.9405 Y0.2770 
G01 X-1.9411 Y0.2781 
G01 X-1.9418 Y0.2791 
G01 X-1.9420 Y0.2796 
G01 X-1.9422 Y0.2799 
G01 X-1.9425 Y0.2812 
G01 X-1.9430 Y0.2824 
G01 X-1.9430 Y0.2828 
G01 X-1.9431 Y0.2833 
G01 X-1.9431 Y0.2846 
G01 X-1.9432 Y0.2858 
G01 X-1.9431 Y0.2863 
G01 X-1.9431 Y0.4520 
G01 X-1.9561 Y0.4650 
G01 X-1.9561 Y0.4950 
G01 X-1.9350 Y0.5161 
G01 X-1.9050 Y0.5161 
G01 X-1.8839 Y0.4950 
G01 X-1.8839 Y0.4650 
G01 X-1.9050 Y0.4439 
G01 X-1.9169 Y0.4439 
G01 X-1.9169 Y0.3546 
G01 X-1.9157 Y0.3605 
G01 X-1.9130 Y0.3671 
G01 X-1.9090 Y0.3730 
G01 X-1.9040 Y0.3780 
G01 X-1.8981 Y0.3820 
G01 X-1.8915 Y0.3847 
G01 X-1.8846 Y0.3861 
G01 X-1.8631 Y0.3861 
G01 X-1.8631 Y0.4217 
G01 X-1.8622 Y0.4251 
G01 X-1.8605 Y0.4280 
G01 X-1.8580 Y0.4305 
G01 X-1.8580 Y0.4305 
G01 X-1.8298 Y0.4587 
G01 X-1.8361 Y0.4650 
G01 X-1.8361 Y0.4950 
G01 X-1.8150 Y0.5161 
G01 X-1.7850 Y0.5161 
G01 X-1.7639 Y0.4950 
G01 X-1.7639 Y0.4931 
G01 X-1.6854 Y0.4931 
G01 X-1.6371 Y0.5414 
G01 X-1.6371 Y0.5436 
G01 X-1.6357 Y0.5505 
G01 X-1.6330 Y0.5571 
G01 X-1.6290 Y0.5630 
G01 X-1.6240 Y0.5680 
G01 X-1.6181 Y0.5720 
G01 X-1.6115 Y0.5747 
G01 X-1.6046 Y0.5761 
G01 X-1.5354 Y0.5761 
G01 X-1.5285 Y0.5747 
G01 X-1.5219 Y0.5720 
G01 X-1.5160 Y0.5680 
G01 X-1.5110 Y0.5630 
G01 X-1.5070 Y0.5571 
G01 X-1.5043 Y0.5505 
G01 X-1.5031 Y0.5446 
G01 X-1.5031 Y0.6194 
G01 X-1.5032 Y0.6205 
G01 X-1.5031 Y0.6211 
G01 X-1.5031 Y0.6217 
G01 X-1.5028 Y0.6228 
G01 X-1.5026 Y0.6239 
G01 X-1.5024 Y0.6245 
G01 X-1.5022 Y0.6251 
G01 X-1.5016 Y0.6260 
G01 X-1.5012 Y0.6271 
G01 X-1.5008 Y0.6275 
G01 X-1.5005 Y0.6280 
G01 X-1.4997 Y0.6288 
G01 X-1.4781 Y0.6547 
G01 X-1.4781 Y0.7951 
G01 X-1.5055 Y0.8264 
G01 X-1.5070 Y0.8229 
G01 X-1.5110 Y0.8170 
G01 X-1.5160 Y0.8120 
G01 X-1.5219 Y0.8080 
G01 X-1.5285 Y0.8053 
G01 X-1.5354 Y0.8039 
G01 X-1.6046 Y0.8039 
G01 X-1.6115 Y0.8053 
G01 X-1.6181 Y0.8080 
G01 X-1.6240 Y0.8120 
G01 X-1.6290 Y0.8170 
G01 X-1.6330 Y0.8229 
G01 X-1.6357 Y0.8295 
G01 X-1.6369 Y0.8354 
G01 X-1.6369 Y0.8154 
G01 X-1.6246 Y0.8031 
G01 X-1.5013 Y0.8031 
G01 X-1.5009 Y0.8032 
G01 X-1.4996 Y0.8031 
G01 X-1.4983 Y0.8031 
G01 X-1.4979 Y0.8030 
G01 X-1.4975 Y0.8030 
G01 X-1.4962 Y0.8026 
G01 X-1.4949 Y0.8022 
G01 X-1.4946 Y0.8020 
G01 X-1.4942 Y0.8019 
G01 X-1.4931 Y0.8011 
G01 X-1.4920 Y0.8005 
G01 X-1.4917 Y0.8002 
G01 X-1.4913 Y0.8000 
G01 X-1.4905 Y0.7990 
G01 X-1.4895 Y0.7980 
G01 X-1.4893 Y0.7977 
G01 X-1.4891 Y0.7974 
G01 X-1.4885 Y0.7962 
G01 X-1.4878 Y0.7951 
G01 X-1.4877 Y0.7947 
G01 X-1.4835 Y0.7862 
G01 X-1.4828 Y0.7851 
G01 X-1.4827 Y0.7847 
G01 X-1.4825 Y0.7843 
G01 X-1.4822 Y0.7830 
G01 X-1.4819 Y0.7817 
G01 X-1.4819 Y0.7813 
G01 X-1.4818 Y0.7809 
G01 X-1.4819 Y0.7796 
G01 X-1.4819 Y0.6706 
G01 X-1.4818 Y0.6695 
G01 X-1.4819 Y0.6689 
G01 X-1.4819 Y0.6683 
G01 X-1.4822 Y0.6672 
G01 X-1.4824 Y0.6661 
G01 X-1.4826 Y0.6655 
G01 X-1.4828 Y0.6649 
G01 X-1.4834 Y0.6640 
G01 X-1.4838 Y0.6629 
G01 X-1.4842 Y0.6625 
G01 X-1.4845 Y0.6620 
G01 X-1.4853 Y0.6612 
G01 X-1.5029 Y0.6401 
G01 X-1.5029 Y0.6364 
G01 X-1.5043 Y0.6295 
G01 X-1.5070 Y0.6229 
G01 X-1.5110 Y0.6170 
G01 X-1.5160 Y0.6120 
G01 X-1.5219 Y0.6080 
G01 X-1.5285 Y0.6053 
G01 X-1.5354 Y0.6039 
G01 X-1.6046 Y0.6039 
G01 X-1.6115 Y0.6053 
G01 X-1.6181 Y0.6080 
G01 X-1.6240 Y0.6120 
G01 X-1.6290 Y0.6170 
G01 X-1.6330 Y0.6229 
G01 X-1.6357 Y0.6295 
G01 X-1.6371 Y0.6364 
G01 X-1.6371 Y0.6436 
G01 X-1.6357 Y0.6505 
G01 X-1.6330 Y0.6571 
G01 X-1.6290 Y0.6630 
G01 X-1.6240 Y0.6680 
G01 X-1.6181 Y0.6720 
G01 X-1.6115 Y0.6747 
G01 X-1.6046 Y0.6761 
G01 X-1.5354 Y0.6761 
G01 X-1.5285 Y0.6747 
G01 X-1.5219 Y0.6720 
G01 X-1.5160 Y0.6680 
G01 X-1.5147 Y0.6668 
G01 X-1.5081 Y0.6747 
G01 X-1.5081 Y0.7213 
G01 X-1.5110 Y0.7170 
G01 X-1.5160 Y0.7120 
G01 X-1.5219 Y0.7080 
G01 X-1.5285 Y0.7053 
G01 X-1.5354 Y0.7039 
G01 X-1.6046 Y0.7039 
G01 X-1.6115 Y0.7053 
G01 X-1.6181 Y0.7080 
G01 X-1.6240 Y0.7120 
G01 X-1.6290 Y0.7170 
G01 X-1.6323 Y0.7219 
G01 X-1.6396 Y0.7219 
G01 X-1.6469 Y0.7146 
G01 X-1.6469 Y0.5783 
G01 X-1.6478 Y0.5749 
G01 X-1.6495 Y0.5720 
G01 X-1.6520 Y0.5695 
G01 X-1.6520 Y0.5695 
G01 X-1.6820 Y0.5395 
G01 X-1.6849 Y0.5378 
G01 X-1.6883 Y0.5369 
G01 X-2.0646 Y0.5369 
G01 X-2.0969 Y0.5046 
G01 X-2.0969 Y0.4704 
G01 X-2.0546 Y0.4281 
G01 X-2.0283 Y0.4281 
G01 X-2.0249 Y0.4272 
G01 X-2.0220 Y0.4255 
G01 X-2.0195 Y0.4230 
G01 X-2.0195 Y0.4230 
G01 X-1.9995 Y0.4030 
G01 X-1.9978 Y0.4001 
G01 X-1.9969 Y0.3967 
G01 X-1.9969 Y0.1854 
G01 X-1.9046 Y0.0931 
G01 X-0.5404 Y0.0931 
G01 X-0.2736 Y0.3599 
G01 X-0.3066 Y0.3599 
G01 X-0.3091 Y0.3624 
G01 X-0.5695 Y0.1020 
G01 X-0.5720 Y0.0995 
G01 X-0.5749 Y0.0978 
G01 X-0.5783 Y0.0969 
G01 X-1.4617 Y0.0969 
G01 X-1.4651 Y0.0978 
G01 X-1.4680 Y0.0995 
G01 X-1.5005 Y0.1320 
G01 X-1.5022 Y0.1349 
G01 X-1.5031 Y0.1383 
G01 X-1.5031 Y0.3354 
G01 X-1.5043 Y0.3295 
G01 X-1.5070 Y0.3229 
G01 X-1.5110 Y0.3170 
G01 X-1.5160 Y0.3120 
G01 X-1.5219 Y0.3080 
G01 X-1.5285 Y0.3053 
G01 X-1.5354 Y0.3039 
G01 X-1.5876 Y0.3039 
G01 X-1.7403 Y0.1512 
G01 X-1.7410 Y0.1504 
G01 X-1.7415 Y0.1500 
G01 X-1.7420 Y0.1495 
G01 X-1.7429 Y0.1490 
G01 X-1.7438 Y0.1484 
G01 X-1.7444 Y0.1481 
G01 X-1.7449 Y0.1478 
G01 X-1.7460 Y0.1475 
G01 X-1.7470 Y0.1471 
G01 X-1.7476 Y0.1471 
G01 X-1.7483 Y0.1469 
G01 X-1.7493 Y0.1469 
G01 X-1.7835 Y0.1435 
G01 X-1.7843 Y0.1395 
G01 X-1.7870 Y0.1329 
G01 X-1.7910 Y0.1270 
G01 X-1.7960 Y0.1220 
G01 X-1.8019 Y0.1180 
G01 X-1.8085 Y0.1153 
G01 X-1.8154 Y0.1139 
G01 X-1.8846 Y0.1139 
G01 X-1.8915 Y0.1153 
G01 X-1.8981 Y0.1180 
G01 X-1.9040 Y0.1220 
G01 X-1.9090 Y0.1270 
G01 X-1.9130 Y0.1329 
G01 X-1.9157 Y0.1395 
G01 X-1.9171 Y0.1464 
G01 X-1.9171 Y0.1536 
G01 X-1.9164 Y0.1568 
G01 X-1.9776 Y0.2093 
G01 X-1.9780 Y0.2095 
G01 X-1.9789 Y0.2104 
G01 X-1.9798 Y0.2112 
G01 X-1.9801 Y0.2116 
G01 X-1.9805 Y0.2120 
G01 X-1.9811 Y0.2130 
G01 X-1.9818 Y0.2140 
G01 X-1.9820 Y0.2145 
G01 X-1.9822 Y0.2149 
G01 X-1.9825 Y0.2161 
G01 X-1.9829 Y0.2173 
G01 X-1.9830 Y0.2178 
G01 X-1.9831 Y0.2183 
G01 X-1.9831 Y0.2195 
G01 X-1.9832 Y0.2207 
G01 X-1.9831 Y0.2212 
G01 X-1.9831 Y0.3951 
G01 X-2.0258 Y0.4439 
G01 X-2.0550 Y0.4439 
G01 X-2.0761 Y0.4650 
G00 Z0.0200 
G00 X-1.3290 Y0.8630 
G01 Z-0.0100 F10.00 
G01 X-1.3240 Y0.8680 
G01 X-1.3181 Y0.8720 
G01 X-1.3115 Y0.8747 
G01 X-1.3046 Y0.8761 
G01 X-1.2354 Y0.8761 
G01 X-1.2285 Y0.8747 
G01 X-1.2219 Y0.8720 
G01 X-1.2160 Y0.8680 
G01 X-1.2110 Y0.8630 
G01 X-1.2088 Y0.8597 
G01 X-1.1580 Y0.9105 
G01 X-1.1551 Y0.9122 
G01 X-1.1517 Y0.9131 
G01 X-0.4983 Y0.9131 
G01 X-0.4949 Y0.9122 
G01 X-0.4920 Y0.9105 
G01 X-0.4895 Y0.9080 
G01 X-0.3446 Y0.7631 
G01 X-0.3098 Y0.7631 
G01 X-0.3301 Y0.7834 
G01 X-0.3301 Y0.7869 
G01 X-0.3335 Y0.7869 
G01 X-0.3338 Y0.7868 
G01 X-0.3352 Y0.7869 
G01 X-0.3367 Y0.7869 
G01 X-0.3370 Y0.7870 
G01 X-0.3372 Y0.7870 
G01 X-0.3386 Y0.7874 
G01 X-0.3401 Y0.7878 
G01 X-0.3403 Y0.7879 
G01 X-0.3405 Y0.7880 
G01 X-0.3418 Y0.7888 
G01 X-0.3430 Y0.7895 
G01 X-0.3432 Y0.7897 
G01 X-0.3434 Y0.7898 
G01 X-0.3444 Y0.7909 
G01 X-0.3455 Y0.7920 
G01 X-0.3456 Y0.7922 
G01 X-0.4707 Y0.9269 
G01 X-1.2054 Y0.9269 
G01 X-1.2070 Y0.9229 
G01 X-1.2110 Y0.9170 
G01 X-1.2160 Y0.9120 
G01 X-1.2219 Y0.9080 
G01 X-1.2285 Y0.9053 
G01 X-1.2354 Y0.9039 
G01 X-1.3046 Y0.9039 
G01 X-1.3115 Y0.9053 
G01 X-1.3181 Y0.9080 
G01 X-1.3240 Y0.9120 
G01 X-1.3290 Y0.9170 
G01 X-1.3319 Y0.9213 
G01 X-1.3319 Y0.8587 
G01 X-1.3290 Y0.8630 
G00 Z0.0200 
G00 X-0.9563 Y0.8546 
G01 Z-0.0100 F10.00 
G01 X-0.9549 Y0.8616 
G01 X-0.9522 Y0.8682 
G01 X-0.9483 Y0.8741 
G01 X-0.9432 Y0.8791 
G01 X-0.9373 Y0.8830 
G01 X-0.9308 Y0.8858 
G01 X-0.9251 Y0.8869 
G01 X-1.1446 Y0.8869 
G01 X-1.1995 Y0.8320 
G01 X-1.2020 Y0.8295 
G01 X-1.2049 Y0.8278 
G01 X-1.2050 Y0.8278 
G01 X-1.2070 Y0.8229 
G01 X-1.2110 Y0.8170 
G01 X-1.2160 Y0.8120 
G01 X-1.2219 Y0.8080 
G01 X-1.2285 Y0.8053 
G01 X-1.2354 Y0.8039 
G01 X-1.3046 Y0.8039 
G01 X-1.3115 Y0.8053 
G01 X-1.3181 Y0.8080 
G01 X-1.3240 Y0.8120 
G01 X-1.3290 Y0.8170 
G01 X-1.3319 Y0.8213 
G01 X-1.3319 Y0.8104 
G01 X-1.3246 Y0.8031 
G01 X-1.2004 Y0.8031 
G01 X-1.1755 Y0.8280 
G01 X-1.1730 Y0.8305 
G01 X-1.1701 Y0.8322 
G01 X-1.1667 Y0.8331 
G01 X-0.9563 Y0.8331 
G01 X-0.9563 Y0.8546 
G00 Z0.0200 
G00 X-1.5261 Y1.1550 
G01 Z-0.0100 F10.00 
G01 X-1.5261 Y1.1850 
G01 X-1.5248 Y1.1863 
G01 X-1.5254 Y1.1869 
G01 X-1.7096 Y1.1869 
G01 X-1.7109 Y1.1868 
G01 X-1.7113 Y1.1869 
G01 X-1.7117 Y1.1869 
G01 X-1.7130 Y1.1872 
G01 X-1.7143 Y1.1875 
G01 X-1.7144 Y1.1876 
G01 X-1.7187 Y1.1833 
G01 X-1.7248 Y1.1789 
G01 X-1.7315 Y1.1754 
G01 X-1.7387 Y1.1731 
G01 X-1.7462 Y1.1719 
G01 X-1.7538 Y1.1719 
G01 X-1.7613 Y1.1731 
G01 X-1.7685 Y1.1754 
G01 X-1.7752 Y1.1789 
G01 X-1.7813 Y1.1833 
G01 X-1.7867 Y1.1887 
G01 X-1.7911 Y1.1948 
G01 X-1.7946 Y1.2015 
G01 X-1.7969 Y1.2087 
G01 X-1.7981 Y1.2162 
G01 X-1.7981 Y1.2238 
G01 X-1.7969 Y1.2313 
G01 X-1.7946 Y1.2385 
G01 X-1.7911 Y1.2452 
G01 X-1.7867 Y1.2513 
G01 X-1.7813 Y1.2567 
G01 X-1.7752 Y1.2611 
G01 X-1.7685 Y1.2646 
G01 X-1.7613 Y1.2669 
G01 X-1.7538 Y1.2681 
G01 X-1.7462 Y1.2681 
G01 X-1.7387 Y1.2669 
G01 X-1.7315 Y1.2646 
G01 X-1.7248 Y1.2611 
G01 X-1.7187 Y1.2567 
G01 X-1.7133 Y1.2513 
G01 X-1.7089 Y1.2452 
G01 X-1.7054 Y1.2385 
G01 X-1.7031 Y1.2313 
G01 X-1.7019 Y1.2238 
G01 X-1.7019 Y1.2162 
G01 X-1.7024 Y1.2131 
G01 X-1.5183 Y1.2131 
G01 X-1.5149 Y1.2122 
G01 X-1.5120 Y1.2105 
G01 X-1.5095 Y1.2080 
G01 X-1.5095 Y1.2080 
G01 X-1.5063 Y1.2048 
G01 X-1.5050 Y1.2061 
G01 X-1.4750 Y1.2061 
G01 X-1.4539 Y1.1850 
G01 X-1.4539 Y1.1550 
G01 X-1.4750 Y1.1339 
G01 X-1.4754 Y1.1339 
G01 X-1.3440 Y1.0025 
G01 X-1.3417 Y1.0031 
G01 X-0.5461 Y1.0031 
G01 X-0.5461 Y1.0150 
G01 X-0.5250 Y1.0361 
G01 X-0.4950 Y1.0361 
G01 X-0.4739 Y1.0150 
G01 X-0.4739 Y0.9850 
G01 X-0.4950 Y0.9639 
G01 X-0.5250 Y0.9639 
G01 X-0.5380 Y0.9769 
G01 X-1.3319 Y0.9769 
G01 X-1.3319 Y0.9587 
G01 X-1.3290 Y0.9630 
G01 X-1.3240 Y0.9680 
G01 X-1.3181 Y0.9720 
G01 X-1.3115 Y0.9747 
G01 X-1.3046 Y0.9761 
G01 X-1.2354 Y0.9761 
G01 X-1.2285 Y0.9747 
G01 X-1.2219 Y0.9720 
G01 X-1.2160 Y0.9680 
G01 X-1.2110 Y0.9630 
G01 X-1.2070 Y0.9571 
G01 X-1.2054 Y0.9531 
G01 X-0.4665 Y0.9531 
G01 X-0.4662 Y0.9532 
G01 X-0.4648 Y0.9531 
G01 X-0.4633 Y0.9531 
G01 X-0.4630 Y0.9530 
G01 X-0.4628 Y0.9530 
G01 X-0.4614 Y0.9526 
G01 X-0.4599 Y0.9522 
G01 X-0.4597 Y0.9521 
G01 X-0.4595 Y0.9520 
G01 X-0.4582 Y0.9512 
G01 X-0.4570 Y0.9505 
G01 X-0.4568 Y0.9503 
G01 X-0.4566 Y0.9502 
G01 X-0.4556 Y0.9491 
G01 X-0.4545 Y0.9480 
G01 X-0.4544 Y0.9478 
G01 X-0.3301 Y0.8140 
G01 X-0.3301 Y0.8166 
G01 X-0.3066 Y0.8401 
G01 X-0.2734 Y0.8401 
G01 X-0.2499 Y0.8166 
G01 X-0.2499 Y0.7834 
G01 X-0.2702 Y0.7631 
G01 X-0.2454 Y0.7631 
G01 X-0.2276 Y0.7809 
G01 X-0.2301 Y0.7834 
G01 X-0.2301 Y0.8166 
G01 X-0.2098 Y0.8369 
G01 X-0.2417 Y0.8369 
G01 X-0.2451 Y0.8378 
G01 X-0.2480 Y0.8395 
G01 X-0.2709 Y0.8624 
G01 X-0.2734 Y0.8599 
G01 X-0.3066 Y0.8599 
G01 X-0.3301 Y0.8834 
G01 X-0.3301 Y0.9166 
G01 X-0.3098 Y0.9369 
G01 X-0.4317 Y0.9369 
G01 X-0.4351 Y0.9378 
G01 X-0.4380 Y0.9395 
G01 X-0.4405 Y0.9420 
G01 X-0.4405 Y0.9420 
G01 X-0.4705 Y0.9720 
G01 X-0.4722 Y0.9749 
G01 X-0.4731 Y0.9783 
G01 X-0.4731 Y1.0146 
G01 X-0.4954 Y1.0369 
G01 X-1.2029 Y1.0369 
G01 X-1.2029 Y1.0364 
G01 X-1.2043 Y1.0295 
G01 X-1.2070 Y1.0229 
G01 X-1.2110 Y1.0170 
G01 X-1.2160 Y1.0120 
G01 X-1.2219 Y1.0080 
G01 X-1.2285 Y1.0053 
G01 X-1.2354 Y1.0039 
G01 X-1.3046 Y1.0039 
G01 X-1.3115 Y1.0053 
G01 X-1.3181 Y1.0080 
G01 X-1.3240 Y1.0120 
G01 X-1.3290 Y1.0170 
G01 X-1.3330 Y1.0229 
G01 X-1.3357 Y1.0295 
G01 X-1.3371 Y1.0364 
G01 X-1.3371 Y1.0436 
G01 X-1.3357 Y1.0505 
G01 X-1.3330 Y1.0571 
G01 X-1.3290 Y1.0630 
G01 X-1.3240 Y1.0680 
G01 X-1.3181 Y1.0720 
G01 X-1.3115 Y1.0747 
G01 X-1.3046 Y1.0761 
G01 X-1.2354 Y1.0761 
G01 X-1.2285 Y1.0747 
G01 X-1.2219 Y1.0720 
G01 X-1.2160 Y1.0680 
G01 X-1.2110 Y1.0631 
G01 X-0.4883 Y1.0631 
G01 X-0.4849 Y1.0622 
G01 X-0.4820 Y1.0605 
G01 X-0.4795 Y1.0580 
G01 X-0.4795 Y1.0580 
G01 X-0.4520 Y1.0305 
G01 X-0.4520 Y1.0305 
G01 X-0.4495 Y1.0280 
G01 X-0.4478 Y1.0251 
G01 X-0.4469 Y1.0217 
G01 X-0.4469 Y0.9854 
G01 X-0.4246 Y0.9631 
G01 X-0.3098 Y0.9631 
G01 X-0.3236 Y0.9769 
G01 X-0.3820 Y0.9769 
G01 X-0.3950 Y0.9639 
G01 X-0.4250 Y0.9639 
G01 X-0.4461 Y0.9850 
G01 X-0.4461 Y1.0150 
G01 X-0.4348 Y1.0263 
G01 X-0.5054 Y1.0969 
G01 X-1.1617 Y1.0969 
G01 X-1.1651 Y1.0978 
G01 X-1.1680 Y1.0995 
G01 X-1.2053 Y1.1367 
G01 X-1.2101 Y1.1319 
G01 X-1.2499 Y1.1319 
G01 X-1.2647 Y1.1467 
G01 X-1.2995 Y1.1120 
G01 X-1.2995 Y1.1120 
G01 X-1.3020 Y1.1095 
G01 X-1.3049 Y1.1078 
G01 X-1.3083 Y1.1069 
G01 X-1.4217 Y1.1069 
G01 X-1.4251 Y1.1078 
G01 X-1.4280 Y1.1095 
G01 X-1.4480 Y1.1295 
G01 X-1.4505 Y1.1320 
G01 X-1.4522 Y1.1349 
G01 X-1.4531 Y1.1383 
G01 X-1.4531 Y1.2089 
G01 X-1.4550 Y1.2089 
G01 X-1.4761 Y1.2300 
G01 X-1.4761 Y1.2600 
G01 X-1.4748 Y1.2613 
G01 X-1.4904 Y1.2769 
G01 X-1.7646 Y1.2769 
G01 X-1.8069 Y1.2346 
G01 X-1.8069 Y1.1954 
G01 X-1.7747 Y1.1633 
G01 X-1.7699 Y1.1681 
G01 X-1.7301 Y1.1681 
G01 X-1.7019 Y1.1399 
G01 X-1.7019 Y1.1001 
G01 X-1.7301 Y1.0719 
G01 X-1.7699 Y1.0719 
G01 X-1.7981 Y1.1001 
G01 X-1.7981 Y1.1399 
G01 X-1.7933 Y1.1447 
G01 X-1.8254 Y1.1769 
G01 X-2.2946 Y1.1769 
G01 X-2.3969 Y1.0746 
G01 X-2.3969 Y0.9954 
G01 X-2.3546 Y0.9531 
G01 X-2.1954 Y0.9531 
G01 X-2.1131 Y1.0354 
G01 X-2.1131 Y1.0617 
G01 X-2.1122 Y1.0651 
G01 X-2.1105 Y1.0680 
G01 X-2.1080 Y1.0705 
G01 X-2.0480 Y1.1305 
G01 X-2.0451 Y1.1322 
G01 X-2.0417 Y1.1331 
G01 X-1.9683 Y1.1331 
G01 X-1.9649 Y1.1322 
G01 X-1.9620 Y1.1305 
G01 X-1.9595 Y1.1280 
G01 X-1.9095 Y1.0780 
G01 X-1.9078 Y1.0751 
G01 X-1.9069 Y1.0717 
G01 X-1.9069 Y0.9904 
G01 X-1.8846 Y0.9681 
G01 X-1.7354 Y0.9681 
G01 X-1.6730 Y1.0305 
G01 X-1.6701 Y1.0322 
G01 X-1.6667 Y1.0331 
G01 X-1.6364 Y1.0331 
G01 X-1.6371 Y1.0364 
G01 X-1.6371 Y1.0436 
G01 X-1.6357 Y1.0505 
G01 X-1.6330 Y1.0571 
G01 X-1.6290 Y1.0630 
G01 X-1.6240 Y1.0680 
G01 X-1.6181 Y1.0720 
G01 X-1.6115 Y1.0747 
G01 X-1.6046 Y1.0761 
G01 X-1.5354 Y1.0761 
G01 X-1.5285 Y1.0747 
G01 X-1.5219 Y1.0720 
G01 X-1.5160 Y1.0680 
G01 X-1.5110 Y1.0630 
G01 X-1.5070 Y1.0571 
G01 X-1.5043 Y1.0505 
G01 X-1.5029 Y1.0436 
G01 X-1.5029 Y1.0364 
G01 X-1.5039 Y1.0316 
G01 X-1.5033 Y1.0313 
G01 X-1.5020 Y1.0305 
G01 X-1.5018 Y1.0304 
G01 X-1.5017 Y1.0303 
G01 X-1.5006 Y1.0292 
G01 X-1.4995 Y1.0280 
G01 X-1.4994 Y1.0279 
G01 X-1.3956 Y0.9192 
G01 X-1.3945 Y0.9180 
G01 X-1.3944 Y0.9179 
G01 X-1.3943 Y0.9178 
G01 X-1.3936 Y0.9164 
G01 X-1.3928 Y0.9151 
G01 X-1.3928 Y0.9149 
G01 X-1.3927 Y0.9148 
G01 X-1.3923 Y0.9132 
G01 X-1.3919 Y0.9117 
G01 X-1.3919 Y0.9116 
G01 X-1.3919 Y0.9114 
G01 X-1.3919 Y0.9098 
G01 X-1.3919 Y0.5504 
G01 X-1.3895 Y0.5480 
G01 X-1.3878 Y0.5451 
G01 X-1.3869 Y0.5417 
G01 X-1.3869 Y0.5383 
G01 X-1.3878 Y0.5349 
G01 X-1.3895 Y0.5320 
G01 X-1.3919 Y0.5296 
G01 X-1.3919 Y0.5031 
G01 X-0.8904 Y0.5031 
G01 X-0.8173 Y0.5762 
G01 X-0.8192 Y0.5770 
G01 X-0.8251 Y0.5809 
G01 X-0.8302 Y0.5859 
G01 X-0.8341 Y0.5918 
G01 X-0.8368 Y0.5984 
G01 X-0.8382 Y0.6054 
G01 X-0.8382 Y0.6745 
G01 X-0.8368 Y0.6815 
G01 X-0.8341 Y0.6880 
G01 X-0.8302 Y0.6940 
G01 X-0.8251 Y0.6990 
G01 X-0.8192 Y0.7029 
G01 X-0.8127 Y0.7057 
G01 X-0.8057 Y0.7070 
G01 X-0.7986 Y0.7070 
G01 X-0.7916 Y0.7057 
G01 X-0.7850 Y0.7029 
G01 X-0.7791 Y0.6990 
G01 X-0.7741 Y0.6940 
G01 X-0.7701 Y0.6880 
G01 X-0.7674 Y0.6815 
G01 X-0.7660 Y0.6745 
G01 X-0.7660 Y0.6054 
G01 X-0.7674 Y0.5984 
G01 X-0.7701 Y0.5918 
G01 X-0.7741 Y0.5859 
G01 X-0.7791 Y0.5809 
G01 X-0.7850 Y0.5770 
G01 X-0.7869 Y0.5762 
G01 X-0.7869 Y0.5733 
G01 X-0.7878 Y0.5699 
G01 X-0.7895 Y0.5670 
G01 X-0.7920 Y0.5645 
G01 X-0.8745 Y0.4820 
G01 X-0.8770 Y0.4795 
G01 X-0.8799 Y0.4778 
G01 X-0.8833 Y0.4769 
G01 X-1.3919 Y0.4769 
G01 X-1.3919 Y0.3554 
G01 X-1.3620 Y0.3255 
G01 X-1.3595 Y0.3230 
G01 X-1.3578 Y0.3201 
G01 X-1.3569 Y0.3167 
G01 X-1.3569 Y0.2661 
G01 X-1.3550 Y0.2661 
G01 X-1.3339 Y0.2450 
G01 X-1.3339 Y0.2224 
G01 X-1.3046 Y0.1931 
G01 X-1.0354 Y0.1931 
G01 X-0.9580 Y0.2705 
G01 X-0.9551 Y0.2722 
G01 X-0.9517 Y0.2731 
G01 X-0.6671 Y0.2731 
G01 X-0.6671 Y0.2736 
G01 X-0.6657 Y0.2805 
G01 X-0.6630 Y0.2871 
G01 X-0.6590 Y0.2930 
G01 X-0.6540 Y0.2980 
G01 X-0.6481 Y0.3020 
G01 X-0.6415 Y0.3047 
G01 X-0.6346 Y0.3061 
G01 X-0.5654 Y0.3061 
G01 X-0.5585 Y0.3047 
G01 X-0.5519 Y0.3020 
G01 X-0.5460 Y0.2980 
G01 X-0.5410 Y0.2930 
G01 X-0.5370 Y0.2871 
G01 X-0.5343 Y0.2805 
G01 X-0.5329 Y0.2736 
G01 X-0.5329 Y0.2664 
G01 X-0.5343 Y0.2595 
G01 X-0.5370 Y0.2529 
G01 X-0.5410 Y0.2470 
G01 X-0.5460 Y0.2420 
G01 X-0.5519 Y0.2380 
G01 X-0.5585 Y0.2353 
G01 X-0.5654 Y0.2339 
G01 X-0.6346 Y0.2339 
G01 X-0.6415 Y0.2353 
G01 X-0.6481 Y0.2380 
G01 X-0.6540 Y0.2420 
G01 X-0.6590 Y0.2469 
G01 X-0.9446 Y0.2469 
G01 X-1.0195 Y0.1720 
G01 X-1.0220 Y0.1695 
G01 X-1.0249 Y0.1678 
G01 X-1.0283 Y0.1669 
G01 X-1.3117 Y0.1669 
G01 X-1.3151 Y0.1678 
G01 X-1.3180 Y0.1695 
G01 X-1.3487 Y0.2002 
G01 X-1.3550 Y0.1939 
G01 X-1.3850 Y0.1939 
G01 X-1.4061 Y0.2150 
G01 X-1.4061 Y0.2450 
G01 X-1.3850 Y0.2661 
G01 X-1.3831 Y0.2661 
G01 X-1.3831 Y0.3096 
G01 X-1.4155 Y0.3420 
G01 X-1.4172 Y0.3449 
G01 X-1.4181 Y0.3483 
G01 X-1.4181 Y0.5367 
G01 X-1.4179 Y0.5375 
G01 X-1.4181 Y0.5383 
G01 X-1.4181 Y0.9048 
G01 X-1.5156 Y1.0069 
G01 X-1.5246 Y1.0069 
G01 X-1.5285 Y1.0053 
G01 X-1.5354 Y1.0039 
G01 X-1.6046 Y1.0039 
G01 X-1.6115 Y1.0053 
G01 X-1.6154 Y1.0069 
G01 X-1.6596 Y1.0069 
G01 X-1.7195 Y0.9470 
G01 X-1.7220 Y0.9445 
G01 X-1.7249 Y0.9428 
G01 X-1.7283 Y0.9419 
G01 X-1.7869 Y0.9419 
G01 X-1.7869 Y0.7161 
G01 X-1.7850 Y0.7161 
G01 X-1.7639 Y0.6950 
G01 X-1.7639 Y0.6650 
G01 X-1.7850 Y0.6439 
G01 X-1.8150 Y0.6439 
G01 X-1.8280 Y0.6569 
G01 X-1.8920 Y0.6569 
G01 X-1.9050 Y0.6439 
G01 X-1.9350 Y0.6439 
G01 X-1.9480 Y0.6569 
G01 X-2.0120 Y0.6569 
G01 X-2.0250 Y0.6439 
G01 X-2.0550 Y0.6439 
G01 X-2.0761 Y0.6650 
G01 X-2.0761 Y0.6950 
G01 X-2.0550 Y0.7161 
G01 X-2.0250 Y0.7161 
G01 X-2.0039 Y0.6950 
G01 X-2.0039 Y0.6831 
G01 X-1.9561 Y0.6831 
G01 X-1.9561 Y0.6950 
G01 X-1.9350 Y0.7161 
G01 X-1.9050 Y0.7161 
G01 X-1.8839 Y0.6950 
G01 X-1.8839 Y0.6831 
G01 X-1.8361 Y0.6831 
G01 X-1.8361 Y0.6950 
G01 X-1.8150 Y0.7161 
G01 X-1.8131 Y0.7161 
G01 X-1.8131 Y0.9419 
G01 X-1.8917 Y0.9419 
G01 X-1.8951 Y0.9428 
G01 X-1.8980 Y0.9445 
G01 X-1.9305 Y0.9770 
G01 X-1.9322 Y0.9799 
G01 X-1.9331 Y0.9833 
G01 X-1.9331 Y1.0646 
G01 X-1.9754 Y1.1069 
G01 X-2.0346 Y1.1069 
G01 X-2.0869 Y1.0546 
G01 X-2.0869 Y1.0283 
G01 X-2.0878 Y1.0249 
G01 X-2.0895 Y1.0220 
G01 X-2.1795 Y0.9320 
G01 X-2.1820 Y0.9295 
G01 X-2.1849 Y0.9278 
G01 X-2.1883 Y0.9269 
G01 X-2.3617 Y0.9269 
G01 X-2.3651 Y0.9278 
G01 X-2.3680 Y0.9295 
G01 X-2.4180 Y0.9795 
G01 X-2.4205 Y0.9820 
G01 X-2.4222 Y0.9849 
G01 X-2.4231 Y0.9883 
G01 X-2.4231 Y1.0817 
G01 X-2.4222 Y1.0851 
G01 X-2.4205 Y1.0880 
G01 X-2.3105 Y1.1980 
G01 X-2.3080 Y1.2005 
G01 X-2.3051 Y1.2022 
G01 X-2.3017 Y1.2031 
G01 X-1.8331 Y1.2031 
G01 X-1.8331 Y1.2417 
G01 X-1.8322 Y1.2451 
G01 X-1.8305 Y1.2480 
G01 X-1.7805 Y1.2980 
G01 X-1.7805 Y1.2980 
G01 X-1.7780 Y1.3005 
G01 X-1.7751 Y1.3022 
G01 X-1.7717 Y1.3031 
G01 X-1.4833 Y1.3031 
G01 X-1.4799 Y1.3022 
G01 X-1.4770 Y1.3005 
G01 X-1.4745 Y1.2980 
G01 X-1.4563 Y1.2798 
G01 X-1.4550 Y1.2811 
G01 X-1.4250 Y1.2811 
G01 X-1.4039 Y1.2600 
G01 X-1.4039 Y1.2300 
G01 X-1.4250 Y1.2089 
G01 X-1.4269 Y1.2089 
G01 X-1.4269 Y1.1454 
G01 X-1.4146 Y1.1331 
G01 X-1.3154 Y1.1331 
G01 X-1.2802 Y1.1683 
G01 X-1.2800 Y1.1687 
G01 X-1.2790 Y1.1695 
G01 X-1.2781 Y1.1704 
G01 X-1.2781 Y1.1999 
G01 X-1.2499 Y1.2281 
G01 X-1.2101 Y1.2281 
G01 X-1.1819 Y1.1999 
G01 X-1.1819 Y1.1601 
G01 X-1.1867 Y1.1553 
G01 X-1.1546 Y1.1231 
G01 X-0.4983 Y1.1231 
G01 X-0.4949 Y1.1222 
G01 X-0.4920 Y1.1205 
G01 X-0.4895 Y1.1180 
G01 X-0.4076 Y1.0361 
G01 X-0.3950 Y1.0361 
G01 X-0.3739 Y1.0150 
G01 X-0.3739 Y1.0031 
G01 X-0.3301 Y1.0031 
G01 X-0.3301 Y1.0166 
G01 X-0.3066 Y1.0401 
G01 X-0.2734 Y1.0401 
G01 X-0.2499 Y1.0166 
G01 X-0.2499 Y0.9834 
G01 X-0.2702 Y0.9631 
G01 X-0.2383 Y0.9631 
G01 X-0.2349 Y0.9622 
G01 X-0.2320 Y0.9605 
G01 X-0.2091 Y0.9376 
G01 X-0.2066 Y0.9401 
G01 X-0.1734 Y0.9401 
G01 X-0.1499 Y0.9166 
G01 X-0.1499 Y0.8834 
G01 X-0.1701 Y0.8632 
G01 X-0.1692 Y0.8631 
G01 X-0.1683 Y0.8631 
G01 X-0.1675 Y0.8629 
G01 X-0.1667 Y0.8628 
G01 X-0.1659 Y0.8625 
G01 X-0.1649 Y0.8622 
G01 X-0.1643 Y0.8618 
G01 X-0.1635 Y0.8615 
G01 X-0.1628 Y0.8610 
G01 X-0.1620 Y0.8605 
G01 X-0.1614 Y0.8599 
G01 X-0.1228 Y0.8310 
G01 X-0.1220 Y0.8305 
G01 X-0.1214 Y0.8299 
G01 X-0.1208 Y0.8294 
G01 X-0.1202 Y0.8287 
G01 X-0.1195 Y0.8280 
G01 X-0.1191 Y0.8274 
G01 X-0.1186 Y0.8267 
G01 X-0.1183 Y0.8259 
G01 X-0.1178 Y0.8251 
G01 X-0.1176 Y0.8243 
G01 X-0.1173 Y0.8236 
G01 X-0.1171 Y0.8226 
G01 X-0.1169 Y0.8217 
G01 X-0.1169 Y0.8209 
G01 X-0.1168 Y0.8201 
G01 X-0.1169 Y0.8192 
G01 X-0.1169 Y0.6808 
G01 X-0.1168 Y0.6799 
G01 X-0.1169 Y0.6791 
G01 X-0.1169 Y0.6783 
G01 X-0.1171 Y0.6774 
G01 X-0.1173 Y0.6764 
G01 X-0.1176 Y0.6757 
G01 X-0.1178 Y0.6749 
G01 X-0.1183 Y0.6741 
G01 X-0.1186 Y0.6733 
G01 X-0.1191 Y0.6726 
G01 X-0.1195 Y0.6720 
G01 X-0.1202 Y0.6713 
G01 X-0.1208 Y0.6706 
G01 X-0.1214 Y0.6701 
G01 X-0.1220 Y0.6695 
G01 X-0.1228 Y0.6690 
G01 X-0.1614 Y0.6401 
G01 X-0.1620 Y0.6395 
G01 X-0.1628 Y0.6390 
G01 X-0.1635 Y0.6385 
G01 X-0.1643 Y0.6382 
G01 X-0.1649 Y0.6378 
G01 X-0.1659 Y0.6375 
G01 X-0.1667 Y0.6372 
G01 X-0.1675 Y0.6371 
G01 X-0.1683 Y0.6369 
G01 X-0.1692 Y0.6369 
G01 X-0.1701 Y0.6368 
G01 X-0.1499 Y0.6166 
G01 X-0.1499 Y0.5834 
G01 X-0.1686 Y0.5647 
G01 X-0.1524 Y0.5712 
G01 X-0.1131 Y0.6104 
G01 X-0.1131 Y0.9094 
G01 X-0.1701 Y0.9632 
G01 X-0.1734 Y0.9599 
G01 X-0.2066 Y0.9599 
G01 X-0.2301 Y0.9834 
G01 X-0.2301 Y1.0166 
G01 X-0.2251 Y1.0216 
G01 X-0.3504 Y1.1469 
G01 X-1.0896 Y1.1469 
G01 X-1.0909 Y1.1468 
G01 X-1.0913 Y1.1469 
G01 X-1.0917 Y1.1469 
G01 X-1.0930 Y1.1472 
G01 X-1.0943 Y1.1475 
G01 X-1.0944 Y1.1476 
G01 X-1.0987 Y1.1433 
G01 X-1.1048 Y1.1389 
G01 X-1.1115 Y1.1354 
G01 X-1.1187 Y1.1331 
G01 X-1.1262 Y1.1319 
G01 X-1.1338 Y1.1319 
G01 X-1.1413 Y1.1331 
G01 X-1.1485 Y1.1354 
G01 X-1.1552 Y1.1389 
G01 X-1.1613 Y1.1433 
G01 X-1.1667 Y1.1487 
G01 X-1.1711 Y1.1548 
G01 X-1.1746 Y1.1615 
G01 X-1.1769 Y1.1687 
G01 X-1.1781 Y1.1762 
G01 X-1.1781 Y1.1838 
G01 X-1.1769 Y1.1913 
G01 X-1.1746 Y1.1985 
G01 X-1.1720 Y1.2035 
G01 X-1.2054 Y1.2369 
G01 X-1.2446 Y1.2369 
G01 X-1.3120 Y1.1695 
G01 X-1.3149 Y1.1678 
G01 X-1.3183 Y1.1669 
G01 X-1.3539 Y1.1669 
G01 X-1.3539 Y1.1550 
G01 X-1.3750 Y1.1339 
G01 X-1.4050 Y1.1339 
G01 X-1.4261 Y1.1550 
G01 X-1.4261 Y1.1850 
G01 X-1.4050 Y1.2061 
G01 X-1.3750 Y1.2061 
G01 X-1.3620 Y1.1931 
G01 X-1.3254 Y1.1931 
G01 X-1.2605 Y1.2580 
G01 X-1.2580 Y1.2605 
G01 X-1.2551 Y1.2622 
G01 X-1.2517 Y1.2631 
G01 X-1.1983 Y1.2631 
G01 X-1.1949 Y1.2622 
G01 X-1.1920 Y1.2605 
G01 X-1.1535 Y1.2220 
G01 X-1.1485 Y1.2246 
G01 X-1.1413 Y1.2269 
G01 X-1.1338 Y1.2281 
G01 X-1.1262 Y1.2281 
G01 X-1.1187 Y1.2269 
G01 X-1.1115 Y1.2246 
G01 X-1.1048 Y1.2211 
G01 X-1.0987 Y1.2167 
G01 X-1.0933 Y1.2113 
G01 X-1.0889 Y1.2052 
G01 X-1.0854 Y1.1985 
G01 X-1.0831 Y1.1913 
G01 X-1.0819 Y1.1838 
G01 X-1.0819 Y1.1762 
G01 X-1.0824 Y1.1731 
G01 X-0.3433 Y1.1731 
G01 X-0.3399 Y1.1722 
G01 X-0.3370 Y1.1705 
G01 X-0.2066 Y1.0401 
G01 X-0.1734 Y1.0401 
G01 X-0.1499 Y1.0166 
G01 X-0.1499 Y0.9834 
G01 X-0.1516 Y0.9817 
G01 X-0.0921 Y0.9256 
G01 X-0.0920 Y0.9255 
G01 X-0.0909 Y0.9244 
G01 X-0.0898 Y0.9233 
G01 X-0.0897 Y0.9232 
G01 X-0.0895 Y0.9230 
G01 X-0.0887 Y0.9217 
G01 X-0.0879 Y0.9204 
G01 X-0.0879 Y0.9202 
G01 X-0.0878 Y0.9201 
G01 X-0.0874 Y0.9186 
G01 X-0.0870 Y0.9171 
G01 X-0.0869 Y0.9169 
G01 X-0.0869 Y0.9167 
G01 X-0.0869 Y0.9152 
G01 X-0.0869 Y0.9137 
G01 X-0.0869 Y0.9135 
G01 X-0.0869 Y0.6033 
G01 X-0.0878 Y0.5999 
G01 X-0.0895 Y0.5970 
G01 X-0.1275 Y0.5590 
G01 X-0.1269 Y0.5567 
G01 X-0.1269 Y0.3583 
G01 X-0.1278 Y0.3549 
G01 X-0.1295 Y0.3520 
G01 X-0.4720 Y0.0095 
G01 X-0.4749 Y0.0078 
G01 X-0.4783 Y0.0069 
G01 X-2.2317 Y0.0069 
G01 X-2.2351 Y0.0078 
G01 X-2.2380 Y0.0095 
G01 X-2.2405 Y0.0120 
G01 X-2.2405 Y0.0120 
G01 X-2.3380 Y0.1095 
G01 X-2.3380 Y0.1095 
G01 X-2.3405 Y0.1120 
G01 X-2.3422 Y0.1149 
G01 X-2.3431 Y0.1183 
G01 X-2.3431 Y0.7817 
G01 X-2.3422 Y0.7851 
G01 X-2.3405 Y0.7880 
G01 X-2.2830 Y0.8455 
G01 X-2.2801 Y0.8472 
G01 X-2.2767 Y0.8481 
G01 X-2.1904 Y0.8481 
G01 X-2.0432 Y0.9953 
G01 X-2.0551 Y1.0072 
G01 X-2.0551 Y1.0528 
G01 X-2.0228 Y1.0851 
G01 X-1.9772 Y1.0851 
G01 X-1.9449 Y1.0528 
G01 X-1.9449 Y1.0072 
G01 X-1.9772 Y0.9749 
G01 X-2.0228 Y0.9749 
G01 X-2.0247 Y0.9768 
G01 X-2.1745 Y0.8270 
G01 X-2.1770 Y0.8245 
G01 X-2.1799 Y0.8228 
G01 X-2.1833 Y0.8219 
G01 X-2.2696 Y0.8219 
G01 X-2.3169 Y0.7746 
G01 X-2.3169 Y0.3631 
G01 X-2.2146 Y0.3631 
G01 X-2.2130 Y0.3671 
G01 X-2.2090 Y0.3730 
G01 X-2.2040 Y0.3780 
G01 X-2.1981 Y0.3820 
G01 X-2.1915 Y0.3847 
G01 X-2.1846 Y0.3861 
G01 X-2.1154 Y0.3861 
G01 X-2.1085 Y0.3847 
G01 X-2.1019 Y0.3820 
G01 X-2.0960 Y0.3780 
G01 X-2.0910 Y0.3730 
G01 X-2.0870 Y0.3671 
G01 X-2.0843 Y0.3605 
G01 X-2.0829 Y0.3536 
G01 X-2.0829 Y0.3464 
G01 X-2.0843 Y0.3395 
G01 X-2.0870 Y0.3329 
G01 X-2.0910 Y0.3270 
G01 X-2.0960 Y0.3220 
G01 X-2.1005 Y0.3190 
G01 X-2.0995 Y0.3180 
G01 X-2.0978 Y0.3151 
G01 X-2.0969 Y0.3117 
G01 X-2.0969 Y0.2787 
G01 X-2.0960 Y0.2780 
G01 X-2.0910 Y0.2730 
G01 X-2.0870 Y0.2671 
G01 X-2.0843 Y0.2605 
G01 X-2.0829 Y0.2536 
G01 X-2.0829 Y0.2464 
G01 X-2.0843 Y0.2395 
G01 X-2.0870 Y0.2329 
G01 X-2.0910 Y0.2270 
G01 X-2.0960 Y0.2220 
G01 X-2.1005 Y0.2190 
G01 X-2.0995 Y0.2180 
G01 X-2.0978 Y0.2151 
G01 X-2.0969 Y0.2117 
G01 X-2.0969 Y0.1787 
G01 X-2.0960 Y0.1780 
G01 X-2.0910 Y0.1730 
G01 X-2.0870 Y0.1671 
G01 X-2.0843 Y0.1605 
G01 X-2.0829 Y0.1536 
G01 X-2.0829 Y0.1464 
G01 X-2.0843 Y0.1395 
G01 X-2.0870 Y0.1329 
G01 X-2.0910 Y0.1270 
G01 X-2.0960 Y0.1220 
G01 X-2.1019 Y0.1180 
G01 X-2.1085 Y0.1153 
G01 X-2.1154 Y0.1139 
G01 X-2.1846 Y0.1139 
G01 X-2.1915 Y0.1153 
G01 X-2.1981 Y0.1180 
G01 X-2.2040 Y0.1220 
G01 X-2.2090 Y0.1270 
G01 X-2.2130 Y0.1329 
G01 X-2.2157 Y0.1395 
G01 X-2.2171 Y0.1464 
G01 X-2.2171 Y0.1536 
G01 X-2.2157 Y0.1605 
G01 X-2.2130 Y0.1671 
G01 X-2.2090 Y0.1730 
G01 X-2.2040 Y0.1780 
G01 X-2.1981 Y0.1820 
G01 X-2.1915 Y0.1847 
G01 X-2.1846 Y0.1861 
G01 X-2.1231 Y0.1861 
G01 X-2.1231 Y0.2046 
G01 X-2.1324 Y0.2139 
G01 X-2.1846 Y0.2139 
G01 X-2.1915 Y0.2153 
G01 X-2.1981 Y0.2180 
G01 X-2.2040 Y0.2220 
G01 X-2.2090 Y0.2270 
G01 X-2.2130 Y0.2329 
G01 X-2.2157 Y0.2395 
G01 X-2.2171 Y0.2464 
G01 X-2.2171 Y0.2536 
G01 X-2.2157 Y0.2605 
G01 X-2.2130 Y0.2671 
G01 X-2.2090 Y0.2730 
G01 X-2.2040 Y0.2780 
G01 X-2.1981 Y0.2820 
G01 X-2.1915 Y0.2847 
G01 X-2.1846 Y0.2861 
G01 X-2.1231 Y0.2861 
G01 X-2.1231 Y0.3046 
G01 X-2.1324 Y0.3139 
G01 X-2.1846 Y0.3139 
G01 X-2.1915 Y0.3153 
G01 X-2.1981 Y0.3180 
G01 X-2.2040 Y0.3220 
G01 X-2.2090 Y0.3270 
G01 X-2.2130 Y0.3329 
G01 X-2.2146 Y0.3369 
G01 X-2.3169 Y0.3369 
G01 X-2.3169 Y0.1254 
G01 X-2.2246 Y0.0331 
G01 X-0.4854 Y0.0331 
G01 X-0.1531 Y0.3654 
G01 X-0.1531 Y0.3802 
G01 X-0.1734 Y0.3599 
G01 X-0.1816 Y0.3599 
G01 X-0.4995 Y0.0420 
G01 X-0.4995 Y0.0420 
G01 X-0.5020 Y0.0395 
G01 X-0.5049 Y0.0378 
G01 X-0.5083 Y0.0369 
G01 X-2.0467 Y0.0369 
G01 X-2.0501 Y0.0378 
G01 X-2.0530 Y0.0395 
G01 X-2.0730 Y0.0595 
G01 X-2.0755 Y0.0620 
G01 X-2.0772 Y0.0649 
G01 X-2.0781 Y0.0683 
G01 X-2.0781 Y0.3732 
G01 X-2.1571 Y0.4290 
G01 X-2.1580 Y0.4295 
G01 X-2.1585 Y0.4299 
G01 X-2.1590 Y0.4303 
G01 X-2.1597 Y0.4312 
G01 X-2.1605 Y0.4320 
G01 X-2.1608 Y0.4325 
G01 X-2.1612 Y0.4329 
G01 X-2.1616 Y0.4340 
G01 X-2.1622 Y0.4349 
G01 X-2.1624 Y0.4355 
G01 X-2.1626 Y0.4361 
G01 X-2.1628 Y0.4372 
G01 X-2.1631 Y0.4383 
G01 X-2.1631 Y0.4389 
G01 X-2.1632 Y0.4395 
G01 X-2.1631 Y0.4406 
G01 X-2.1631 Y0.5317 
G01 X-2.1622 Y0.5351 
G01 X-2.1605 Y0.5380 
G01 X-2.0980 Y0.6005 
G01 X-2.0951 Y0.6022 
G01 X-2.0917 Y0.6031 
G01 X-1.7554 Y0.6031 
G01 X-1.7231 Y0.6354 
G01 X-1.7231 Y0.9117 
G01 X-1.7222 Y0.9151 
G01 X-1.7205 Y0.9180 
G01 X-1.7180 Y0.9205 
G01 X-1.6905 Y0.9480 
G01 X-1.6880 Y0.9505 
G01 X-1.6851 Y0.9522 
G01 X-1.6817 Y0.9531 
G01 X-1.6346 Y0.9531 
G01 X-1.6330 Y0.9571 
G01 X-1.6290 Y0.9630 
G01 X-1.6240 Y0.9680 
G01 X-1.6181 Y0.9720 
G01 X-1.6115 Y0.9747 
G01 X-1.6046 Y0.9761 
G01 X-1.5354 Y0.9761 
G01 X-1.5285 Y0.9747 
G01 X-1.5219 Y0.9720 
G01 X-1.5160 Y0.9680 
G01 X-1.5110 Y0.9630 
G01 X-1.5070 Y0.9571 
G01 X-1.5043 Y0.9505 
G01 X-1.5029 Y0.9436 
G01 X-1.5029 Y0.9364 
G01 X-1.5043 Y0.9295 
G01 X-1.5070 Y0.9229 
G01 X-1.5110 Y0.9170 
G01 X-1.5160 Y0.9120 
G01 X-1.5219 Y0.9080 
G01 X-1.5285 Y0.9053 
G01 X-1.5354 Y0.9039 
G01 X-1.6046 Y0.9039 
G01 X-1.6115 Y0.9053 
G01 X-1.6181 Y0.9080 
G01 X-1.6240 Y0.9120 
G01 X-1.6290 Y0.9170 
G01 X-1.6330 Y0.9229 
G01 X-1.6346 Y0.9269 
G01 X-1.6746 Y0.9269 
G01 X-1.6969 Y0.9046 
G01 X-1.6969 Y0.6283 
G01 X-1.6978 Y0.6249 
G01 X-1.6995 Y0.6220 
G01 X-1.7395 Y0.5820 
G01 X-1.7420 Y0.5795 
G01 X-1.7449 Y0.5778 
G01 X-1.7483 Y0.5769 
G01 X-2.0846 Y0.5769 
G01 X-2.1369 Y0.5246 
G01 X-2.1369 Y0.4468 
G01 X-2.0579 Y0.3910 
G01 X-2.0570 Y0.3905 
G01 X-2.0565 Y0.3901 
G01 X-2.0560 Y0.3897 
G01 X-2.0553 Y0.3888 
G01 X-2.0545 Y0.3880 
G01 X-2.0542 Y0.3875 
G01 X-2.0538 Y0.3871 
G01 X-2.0534 Y0.3860 
G01 X-2.0528 Y0.3851 
G01 X-2.0526 Y0.3845 
G01 X-2.0524 Y0.3839 
G01 X-2.0522 Y0.3828 
G01 X-2.0519 Y0.3817 
G01 X-2.0519 Y0.3811 
G01 X-2.0518 Y0.3805 
G01 X-2.0519 Y0.3794 
G01 X-2.0519 Y0.0754 
G01 X-2.0396 Y0.0631 
G01 X-0.5154 Y0.0631 
G01 X-0.2126 Y0.3659 
G01 X-0.2269 Y0.3802 
G01 X-0.2269 Y0.3733 
G01 X-0.2278 Y0.3699 
G01 X-0.2295 Y0.3670 
G01 X-0.5270 Y0.0695 
G01 X-0.5299 Y0.0678 
G01 X-0.5333 Y0.0669 
G01 X-1.9117 Y0.0669 
G01 X-1.9151 Y0.0678 
G01 X-1.9180 Y0.0695 
G01 X-2.0205 Y0.1720 
G01 X-2.0222 Y0.1749 
G01 X-2.0231 Y0.1783 
G01 X-2.0231 Y0.3896 
G01 X-2.0354 Y0.4019 
G01 X-2.0617 Y0.4019 
G01 X-2.0651 Y0.4028 
G01 X-2.0680 Y0.4045 
G01 X-2.1205 Y0.4570 
G01 X-2.1222 Y0.4599 
G01 X-2.1231 Y0.4633 
G01 X-2.1231 Y0.5117 
G01 X-2.1222 Y0.5151 
G01 X-2.1205 Y0.5180 
G01 X-2.0780 Y0.5605 
G01 X-2.0751 Y0.5622 
G01 X-2.0717 Y0.5631 
G01 X-1.6954 Y0.5631 
G01 X-1.6731 Y0.5854 
G01 X-1.6731 Y0.7217 
G01 X-1.6722 Y0.7251 
G01 X-1.6705 Y0.7280 
G01 X-1.6555 Y0.7430 
G01 X-1.6530 Y0.7455 
G01 X-1.6501 Y0.7472 
G01 X-1.6467 Y0.7481 
G01 X-1.6362 Y0.7481 
G01 X-1.6357 Y0.7505 
G01 X-1.6330 Y0.7571 
G01 X-1.6290 Y0.7630 
G01 X-1.6240 Y0.7680 
G01 X-1.6181 Y0.7720 
G01 X-1.6115 Y0.7747 
G01 X-1.6046 Y0.7761 
G01 X-1.5354 Y0.7761 
G01 X-1.5285 Y0.7747 
G01 X-1.5219 Y0.7720 
G01 X-1.5160 Y0.7680 
G01 X-1.5110 Y0.7630 
G01 X-1.5081 Y0.7587 
G01 X-1.5081 Y0.7769 
G01 X-1.6317 Y0.7769 
G01 X-1.6351 Y0.7778 
G01 X-1.6380 Y0.7795 
G01 X-1.6580 Y0.7995 
G01 X-1.6605 Y0.8020 
G01 X-1.6622 Y0.8049 
G01 X-1.6631 Y0.8083 
G01 X-1.6631 Y0.8617 
G01 X-1.6622 Y0.8651 
G01 X-1.6605 Y0.8680 
G01 X-1.6305 Y0.8980 
G01 X-1.6280 Y0.9005 
G01 X-1.6251 Y0.9022 
G01 X-1.6217 Y0.9031 
G01 X-1.4914 Y0.9031 
G01 X-1.4912 Y0.9032 
G01 X-1.4897 Y0.9031 
G01 X-1.4883 Y0.9031 
G01 X-1.4880 Y0.9030 
G01 X-1.4877 Y0.9030 
G01 X-1.4863 Y0.9026 
G01 X-1.4849 Y0.9022 
G01 X-1.4847 Y0.9021 
G01 X-1.4844 Y0.9020 
G01 X-1.4832 Y0.9012 
G01 X-1.4820 Y0.9005 
G01 X-1.4818 Y0.9003 
G01 X-1.4815 Y0.9001 
G01 X-1.4805 Y0.8991 
G01 X-1.4795 Y0.8980 
G01 X-1.4794 Y0.8978 
G01 X-1.4255 Y0.8391 
G01 X-1.4245 Y0.8380 
G01 X-1.4244 Y0.8378 
G01 X-1.4242 Y0.8376 
G01 X-1.4235 Y0.8363 
G01 X-1.4228 Y0.8351 
G01 X-1.4227 Y0.8348 
G01 X-1.4226 Y0.8345 
G01 X-1.4223 Y0.8331 
G01 X-1.4219 Y0.8317 
G01 X-1.4219 Y0.8314 
G01 X-1.4218 Y0.8312 
G01 X-1.4219 Y0.8297 
G01 X-1.4219 Y0.6209 
G01 X-1.4218 Y0.6201 
G01 X-1.4219 Y0.6192 
G01 X-1.4219 Y0.6183 
G01 X-1.4221 Y0.6175 
G01 X-1.4222 Y0.6167 
G01 X-1.4225 Y0.6159 
G01 X-1.4228 Y0.6149 
G01 X-1.4232 Y0.6143 
G01 X-1.4235 Y0.6135 
G01 X-1.4240 Y0.6128 
G01 X-1.4245 Y0.6120 
G01 X-1.4251 Y0.6114 
G01 X-1.4369 Y0.5956 
G01 X-1.4369 Y0.1754 
G01 X-1.4146 Y0.1531 
G01 X-0.6154 Y0.1531 
G01 X-0.3931 Y0.3754 
G01 X-0.3931 Y0.4117 
G01 X-0.3922 Y0.4151 
G01 X-0.3905 Y0.4180 
G01 X-0.3276 Y0.4809 
G01 X-0.3301 Y0.4834 
G01 X-0.3301 Y0.5166 
G01 X-0.3098 Y0.5369 
G01 X-0.3296 Y0.5369 
G01 X-0.5145 Y0.3520 
G01 X-0.5170 Y0.3495 
G01 X-0.5199 Y0.3478 
G01 X-0.5233 Y0.3469 
G01 X-0.6496 Y0.3469 
G01 X-0.6945 Y0.3020 
G01 X-0.6970 Y0.2995 
G01 X-0.6999 Y0.2978 
G01 X-0.7033 Y0.2969 
G01 X-0.9746 Y0.2969 
G01 X-1.0020 Y0.2695 
G01 X-1.0049 Y0.2678 
G01 X-1.0083 Y0.2669 
G01 X-1.0329 Y0.2669 
G01 X-1.0329 Y0.2664 
G01 X-1.0343 Y0.2595 
G01 X-1.0370 Y0.2529 
G01 X-1.0410 Y0.2470 
G01 X-1.0460 Y0.2420 
G01 X-1.0519 Y0.2380 
G01 X-1.0585 Y0.2353 
G01 X-1.0654 Y0.2339 
G01 X-1.1346 Y0.2339 
G01 X-1.1415 Y0.2353 
G01 X-1.1481 Y0.2380 
G01 X-1.1540 Y0.2420 
G01 X-1.1590 Y0.2470 
G01 X-1.1630 Y0.2529 
G01 X-1.1657 Y0.2595 
G01 X-1.1671 Y0.2664 
G01 X-1.1671 Y0.2736 
G01 X-1.1663 Y0.2777 
G01 X-1.2088 Y0.3203 
G01 X-1.2110 Y0.3170 
G01 X-1.2160 Y0.3120 
G01 X-1.2219 Y0.3080 
G01 X-1.2285 Y0.3053 
G01 X-1.2354 Y0.3039 
G01 X-1.2469 Y0.3039 
G01 X-1.2469 Y0.2580 
G01 X-1.2339 Y0.2450 
G01 X-1.2339 Y0.2150 
G01 X-1.2550 Y0.1939 
G01 X-1.2850 Y0.1939 
G01 X-1.3061 Y0.2150 
G01 X-1.3061 Y0.2450 
G01 X-1.2850 Y0.2661 
G01 X-1.2731 Y0.2661 
G01 X-1.2731 Y0.3039 
G01 X-1.3046 Y0.3039 
G01 X-1.3115 Y0.3053 
G01 X-1.3181 Y0.3080 
G01 X-1.3240 Y0.3120 
G01 X-1.3290 Y0.3170 
G01 X-1.3330 Y0.3229 
G01 X-1.3357 Y0.3295 
G01 X-1.3371 Y0.3364 
G01 X-1.3371 Y0.3436 
G01 X-1.3357 Y0.3505 
G01 X-1.3330 Y0.3571 
G01 X-1.3290 Y0.3630 
G01 X-1.3240 Y0.3680 
G01 X-1.3181 Y0.3720 
G01 X-1.3115 Y0.3747 
G01 X-1.3046 Y0.3761 
G01 X-1.2354 Y0.3761 
G01 X-1.2285 Y0.3747 
G01 X-1.2219 Y0.3720 
G01 X-1.2160 Y0.3680 
G01 X-1.2110 Y0.3630 
G01 X-1.2070 Y0.3571 
G01 X-1.2059 Y0.3544 
G01 X-1.1513 Y0.2998 
G01 X-1.1481 Y0.3020 
G01 X-1.1415 Y0.3047 
G01 X-1.1346 Y0.3061 
G01 X-1.0654 Y0.3061 
G01 X-1.0585 Y0.3047 
G01 X-1.0519 Y0.3020 
G01 X-1.0460 Y0.2980 
G01 X-1.0410 Y0.2931 
G01 X-1.0154 Y0.2931 
G01 X-0.9880 Y0.3205 
G01 X-0.9851 Y0.3222 
G01 X-0.9817 Y0.3231 
G01 X-0.9381 Y0.3231 
G01 X-0.9381 Y0.4217 
G01 X-0.9372 Y0.4251 
G01 X-0.9355 Y0.4280 
G01 X-0.9330 Y0.4305 
G01 X-0.9301 Y0.4322 
G01 X-0.9267 Y0.4331 
G01 X-0.8204 Y0.4331 
G01 X-0.6831 Y0.5704 
G01 X-0.6831 Y0.6846 
G01 X-0.7528 Y0.7542 
G01 X-0.7592 Y0.7530 
G01 X-0.7663 Y0.7530 
G01 X-0.7733 Y0.7543 
G01 X-0.7799 Y0.7571 
G01 X-0.7858 Y0.7610 
G01 X-0.7908 Y0.7660 
G01 X-0.7947 Y0.7720 
G01 X-0.7975 Y0.7785 
G01 X-0.7989 Y0.7855 
G01 X-0.7989 Y0.8546 
G01 X-0.7975 Y0.8616 
G01 X-0.7947 Y0.8682 
G01 X-0.7908 Y0.8741 
G01 X-0.7858 Y0.8791 
G01 X-0.7799 Y0.8830 
G01 X-0.7733 Y0.8858 
G01 X-0.7676 Y0.8869 
G01 X-0.8367 Y0.8869 
G01 X-0.8310 Y0.8858 
G01 X-0.8244 Y0.8830 
G01 X-0.8185 Y0.8791 
G01 X-0.8135 Y0.8741 
G01 X-0.8095 Y0.8682 
G01 X-0.8068 Y0.8616 
G01 X-0.8054 Y0.8546 
G01 X-0.8054 Y0.7855 
G01 X-0.8068 Y0.7785 
G01 X-0.8095 Y0.7720 
G01 X-0.8135 Y0.7660 
G01 X-0.8185 Y0.7610 
G01 X-0.8244 Y0.7571 
G01 X-0.8310 Y0.7543 
G01 X-0.8319 Y0.7542 
G01 X-0.8319 Y0.7533 
G01 X-0.8328 Y0.7499 
G01 X-0.8345 Y0.7470 
G01 X-0.8370 Y0.7445 
G01 X-0.8370 Y0.7445 
G01 X-0.8670 Y0.7145 
G01 X-0.8699 Y0.7128 
G01 X-0.8733 Y0.7119 
G01 X-0.9096 Y0.7119 
G01 X-0.9420 Y0.6795 
G01 X-0.9449 Y0.6778 
G01 X-0.9483 Y0.6769 
G01 X-1.3246 Y0.6769 
G01 X-1.3469 Y0.6546 
G01 X-1.3469 Y0.6154 
G01 X-1.3071 Y0.5756 
G01 X-1.3046 Y0.5761 
G01 X-1.2354 Y0.5761 
G01 X-1.2285 Y0.5747 
G01 X-1.2219 Y0.5720 
G01 X-1.2160 Y0.5680 
G01 X-1.2110 Y0.5630 
G01 X-1.2070 Y0.5571 
G01 X-1.2043 Y0.5505 
G01 X-1.2029 Y0.5436 
G01 X-1.2029 Y0.5364 
G01 X-1.2043 Y0.5295 
G01 X-1.2070 Y0.5229 
G01 X-1.2110 Y0.5170 
G01 X-1.2160 Y0.5120 
G01 X-1.2219 Y0.5080 
G01 X-1.2285 Y0.5053 
G01 X-1.2354 Y0.5039 
G01 X-1.3046 Y0.5039 
G01 X-1.3115 Y0.5053 
G01 X-1.3181 Y0.5080 
G01 X-1.3240 Y0.5120 
G01 X-1.3290 Y0.5170 
G01 X-1.3330 Y0.5229 
G01 X-1.3357 Y0.5295 
G01 X-1.3371 Y0.5364 
G01 X-1.3371 Y0.5436 
G01 X-1.3357 Y0.5505 
G01 X-1.3330 Y0.5571 
G01 X-1.3300 Y0.5615 
G01 X-1.3705 Y0.6020 
G01 X-1.3722 Y0.6049 
G01 X-1.3731 Y0.6083 
G01 X-1.3731 Y0.6617 
G01 X-1.3722 Y0.6651 
G01 X-1.3705 Y0.6680 
G01 X-1.3680 Y0.6705 
G01 X-1.3680 Y0.6705 
G01 X-1.3380 Y0.7005 
G01 X-1.3351 Y0.7022 
G01 X-1.3317 Y0.7031 
G01 X-0.9554 Y0.7031 
G01 X-0.9255 Y0.7330 
G01 X-0.9230 Y0.7355 
G01 X-0.9201 Y0.7372 
G01 X-0.9167 Y0.7381 
G01 X-0.8804 Y0.7381 
G01 X-0.8603 Y0.7582 
G01 X-0.8645 Y0.7610 
G01 X-0.8695 Y0.7660 
G01 X-0.8735 Y0.7720 
G01 X-0.8762 Y0.7785 
G01 X-0.8776 Y0.7855 
G01 X-0.8776 Y0.8546 
G01 X-0.8762 Y0.8616 
G01 X-0.8735 Y0.8682 
G01 X-0.8695 Y0.8741 
G01 X-0.8645 Y0.8791 
G01 X-0.8586 Y0.8830 
G01 X-0.8520 Y0.8858 
G01 X-0.8463 Y0.8869 
G01 X-0.9154 Y0.8869 
G01 X-0.9097 Y0.8858 
G01 X-0.9031 Y0.8830 
G01 X-0.8972 Y0.8791 
G01 X-0.8922 Y0.8741 
G01 X-0.8882 Y0.8682 
G01 X-0.8855 Y0.8616 
G01 X-0.8841 Y0.8546 
G01 X-0.8841 Y0.7855 
G01 X-0.8855 Y0.7785 
G01 X-0.8882 Y0.7720 
G01 X-0.8922 Y0.7660 
G01 X-0.8972 Y0.7610 
G01 X-0.9031 Y0.7571 
G01 X-0.9097 Y0.7543 
G01 X-0.9167 Y0.7530 
G01 X-0.9238 Y0.7530 
G01 X-0.9308 Y0.7543 
G01 X-0.9373 Y0.7571 
G01 X-0.9432 Y0.7610 
G01 X-0.9483 Y0.7660 
G01 X-0.9522 Y0.7720 
G01 X-0.9549 Y0.7785 
G01 X-0.9563 Y0.7855 
G01 X-0.9563 Y0.8069 
G01 X-1.1596 Y0.8069 
G01 X-1.1870 Y0.7795 
G01 X-1.1899 Y0.7778 
G01 X-1.1933 Y0.7769 
G01 X-1.3317 Y0.7769 
G01 X-1.3351 Y0.7778 
G01 X-1.3380 Y0.7795 
G01 X-1.3405 Y0.7820 
G01 X-1.3555 Y0.7970 
G01 X-1.3572 Y0.7999 
G01 X-1.3581 Y0.8033 
G01 X-1.3581 Y0.9796 
G01 X-1.5005 Y1.1220 
G01 X-1.5022 Y1.1249 
G01 X-1.5031 Y1.1283 
G01 X-1.5031 Y1.1339 
G01 X-1.5050 Y1.1339 
G01 X-1.5261 Y1.1550 
G00 Z0.0200 
G00 X-1.2354 Y0.7039 
G01 Z-0.0100 F10.00 
G01 X-1.3046 Y0.7039 
G01 X-1.3115 Y0.7053 
G01 X-1.3181 Y0.7080 
G01 X-1.3240 Y0.7120 
G01 X-1.3290 Y0.7170 
G01 X-1.3330 Y0.7229 
G01 X-1.3346 Y0.7269 
G01 X-1.3395 Y0.7269 
G01 X-1.3407 Y0.7268 
G01 X-1.3412 Y0.7269 
G01 X-1.3417 Y0.7269 
G01 X-1.3429 Y0.7272 
G01 X-1.3441 Y0.7274 
G01 X-1.3446 Y0.7277 
G01 X-1.3451 Y0.7278 
G01 X-1.3461 Y0.7284 
G01 X-1.3472 Y0.7289 
G01 X-1.3476 Y0.7293 
G01 X-1.3480 Y0.7295 
G01 X-1.3489 Y0.7304 
G01 X-1.3826 Y0.7593 
G01 X-1.3830 Y0.7595 
G01 X-1.3839 Y0.7604 
G01 X-1.3848 Y0.7612 
G01 X-1.3851 Y0.7616 
G01 X-1.3855 Y0.7620 
G01 X-1.3861 Y0.7630 
G01 X-1.3868 Y0.7640 
G01 X-1.3870 Y0.7645 
G01 X-1.3872 Y0.7649 
G01 X-1.3875 Y0.7661 
G01 X-1.3879 Y0.7673 
G01 X-1.3880 Y0.7678 
G01 X-1.3881 Y0.7683 
G01 X-1.3881 Y0.7695 
G01 X-1.3882 Y0.7707 
G01 X-1.3881 Y0.7712 
G01 X-1.3881 Y0.9248 
G01 X-1.4894 Y1.0308 
G01 X-1.4905 Y1.0320 
G01 X-1.4906 Y1.0321 
G01 X-1.4907 Y1.0322 
G01 X-1.4914 Y1.0336 
G01 X-1.4922 Y1.0349 
G01 X-1.4922 Y1.0351 
G01 X-1.4923 Y1.0352 
G01 X-1.4927 Y1.0368 
G01 X-1.4931 Y1.0383 
G01 X-1.4931 Y1.0384 
G01 X-1.4931 Y1.0386 
G01 X-1.4931 Y1.0402 
G01 X-1.4931 Y1.0646 
G01 X-1.5154 Y1.0869 
G01 X-1.6346 Y1.0869 
G01 X-1.7095 Y1.0120 
G01 X-1.7120 Y1.0095 
G01 X-1.7149 Y1.0078 
G01 X-1.7183 Y1.0069 
G01 X-1.7817 Y1.0069 
G01 X-1.7851 Y1.0078 
G01 X-1.7880 Y1.0095 
G01 X-1.9254 Y1.1469 
G01 X-2.1046 Y1.1469 
G01 X-2.1495 Y1.1020 
G01 X-2.1520 Y1.0995 
G01 X-2.1549 Y1.0978 
G01 X-2.1583 Y1.0969 
G01 X-2.1646 Y1.0969 
G01 X-2.2395 Y1.0220 
G01 X-2.2420 Y1.0195 
G01 X-2.2449 Y1.0178 
G01 X-2.2449 Y1.0072 
G01 X-2.2772 Y0.9749 
G01 X-2.3228 Y0.9749 
G01 X-2.3551 Y1.0072 
G01 X-2.3551 Y1.0528 
G01 X-2.3228 Y1.0851 
G01 X-2.2772 Y1.0851 
G01 X-2.2453 Y1.0532 
G01 X-2.1780 Y1.1205 
G01 X-2.1751 Y1.1222 
G01 X-2.1717 Y1.1231 
G01 X-2.1654 Y1.1231 
G01 X-2.1205 Y1.1680 
G01 X-2.1180 Y1.1705 
G01 X-2.1151 Y1.1722 
G01 X-2.1117 Y1.1731 
G01 X-1.9183 Y1.1731 
G01 X-1.9149 Y1.1722 
G01 X-1.9120 Y1.1705 
G01 X-1.7746 Y1.0331 
G01 X-1.7254 Y1.0331 
G01 X-1.6480 Y1.1105 
G01 X-1.6451 Y1.1122 
G01 X-1.6417 Y1.1131 
G01 X-1.5083 Y1.1131 
G01 X-1.5049 Y1.1122 
G01 X-1.5020 Y1.1105 
G01 X-1.4995 Y1.1080 
G01 X-1.4695 Y1.0780 
G01 X-1.4678 Y1.0751 
G01 X-1.4669 Y1.0717 
G01 X-1.4669 Y1.0452 
G01 X-1.3656 Y0.9392 
G01 X-1.3645 Y0.9380 
G01 X-1.3644 Y0.9379 
G01 X-1.3643 Y0.9378 
G01 X-1.3636 Y0.9364 
G01 X-1.3628 Y0.9351 
G01 X-1.3628 Y0.9349 
G01 X-1.3627 Y0.9348 
G01 X-1.3623 Y0.9332 
G01 X-1.3619 Y0.9317 
G01 X-1.3619 Y0.9316 
G01 X-1.3619 Y0.9314 
G01 X-1.3619 Y0.9298 
G01 X-1.3619 Y0.7760 
G01 X-1.3352 Y0.7531 
G01 X-1.3346 Y0.7531 
G01 X-1.3330 Y0.7571 
G01 X-1.3290 Y0.7630 
G01 X-1.3240 Y0.7680 
G01 X-1.3181 Y0.7720 
G01 X-1.3115 Y0.7747 
G01 X-1.3046 Y0.7761 
G01 X-1.2354 Y0.7761 
G01 X-1.2285 Y0.7747 
G01 X-1.2219 Y0.7720 
G01 X-1.2160 Y0.7680 
G01 X-1.2110 Y0.7630 
G01 X-1.2070 Y0.7571 
G01 X-1.2043 Y0.7505 
G01 X-1.2029 Y0.7436 
G01 X-1.2029 Y0.7364 
G01 X-1.2043 Y0.7295 
G01 X-1.2070 Y0.7229 
G01 X-1.2110 Y0.7170 
G01 X-1.2160 Y0.7120 
G01 X-1.2219 Y0.7080 
G01 X-1.2285 Y0.7053 
G01 X-1.2354 Y0.7039 
G00 Z0.0200 
G00 X-0.9170 Y0.6054 
G01 Z-0.0100 F10.00 
G01 X-0.9170 Y0.6169 
G01 X-1.2110 Y0.6169 
G01 X-1.2160 Y0.6120 
G01 X-1.2219 Y0.6080 
G01 X-1.2285 Y0.6053 
G01 X-1.2354 Y0.6039 
G01 X-1.3046 Y0.6039 
G01 X-1.3115 Y0.6053 
G01 X-1.3181 Y0.6080 
G01 X-1.3240 Y0.6120 
G01 X-1.3290 Y0.6170 
G01 X-1.3330 Y0.6229 
G01 X-1.3357 Y0.6295 
G01 X-1.3371 Y0.6364 
G01 X-1.3371 Y0.6436 
G01 X-1.3357 Y0.6505 
G01 X-1.3330 Y0.6571 
G01 X-1.3290 Y0.6630 
G01 X-1.3240 Y0.6680 
G01 X-1.3181 Y0.6720 
G01 X-1.3115 Y0.6747 
G01 X-1.3046 Y0.6761 
G01 X-1.2354 Y0.6761 
G01 X-1.2285 Y0.6747 
G01 X-1.2219 Y0.6720 
G01 X-1.2160 Y0.6680 
G01 X-1.2110 Y0.6630 
G01 X-1.2070 Y0.6571 
G01 X-1.2043 Y0.6505 
G01 X-1.2029 Y0.6436 
G01 X-1.2029 Y0.6431 
G01 X-0.9170 Y0.6431 
G01 X-0.9170 Y0.6745 
G01 X-0.9156 Y0.6815 
G01 X-0.9129 Y0.6880 
G01 X-0.9089 Y0.6940 
G01 X-0.9039 Y0.6990 
G01 X-0.8980 Y0.7029 
G01 X-0.8914 Y0.7057 
G01 X-0.8844 Y0.7070 
G01 X-0.8773 Y0.7070 
G01 X-0.8703 Y0.7057 
G01 X-0.8638 Y0.7029 
G01 X-0.8579 Y0.6990 
G01 X-0.8528 Y0.6940 
G01 X-0.8489 Y0.6880 
G01 X-0.8462 Y0.6815 
G01 X-0.8448 Y0.6745 
G01 X-0.8448 Y0.6054 
G01 X-0.8462 Y0.5984 
G01 X-0.8489 Y0.5918 
G01 X-0.8528 Y0.5859 
G01 X-0.8579 Y0.5809 
G01 X-0.8638 Y0.5770 
G01 X-0.8703 Y0.5742 
G01 X-0.8773 Y0.5728 
G01 X-0.8844 Y0.5728 
G01 X-0.8914 Y0.5742 
G01 X-0.8980 Y0.5770 
G01 X-0.9039 Y0.5809 
G01 X-0.9089 Y0.5859 
G01 X-0.9129 Y0.5918 
G01 X-0.9156 Y0.5984 
G01 X-0.9170 Y0.6054 
G00 Z0.0200 
G00 X-0.7595 Y0.6054 
G01 Z-0.0100 F10.00 
G01 X-0.7595 Y0.6745 
G01 X-0.7581 Y0.6815 
G01 X-0.7554 Y0.6880 
G01 X-0.7514 Y0.6940 
G01 X-0.7464 Y0.6990 
G01 X-0.7405 Y0.7029 
G01 X-0.7339 Y0.7057 
G01 X-0.7269 Y0.7070 
G01 X-0.7198 Y0.7070 
G01 X-0.7129 Y0.7057 
G01 X-0.7063 Y0.7029 
G01 X-0.7004 Y0.6990 
G01 X-0.6953 Y0.6940 
G01 X-0.6914 Y0.6880 
G01 X-0.6887 Y0.6815 
G01 X-0.6873 Y0.6745 
G01 X-0.6873 Y0.6054 
G01 X-0.6887 Y0.5984 
G01 X-0.6914 Y0.5918 
G01 X-0.6953 Y0.5859 
G01 X-0.7004 Y0.5809 
G01 X-0.7063 Y0.5770 
G01 X-0.7069 Y0.5767 
G01 X-0.7069 Y0.5733 
G01 X-0.7078 Y0.5699 
G01 X-0.7095 Y0.5670 
G01 X-0.8370 Y0.4395 
G01 X-0.8399 Y0.4378 
G01 X-0.8433 Y0.4369 
G01 X-1.2029 Y0.4369 
G01 X-1.2029 Y0.4364 
G01 X-1.2043 Y0.4295 
G01 X-1.2070 Y0.4229 
G01 X-1.2110 Y0.4170 
G01 X-1.2160 Y0.4120 
G01 X-1.2219 Y0.4080 
G01 X-1.2285 Y0.4053 
G01 X-1.2354 Y0.4039 
G01 X-1.3046 Y0.4039 
G01 X-1.3115 Y0.4053 
G01 X-1.3181 Y0.4080 
G01 X-1.3240 Y0.4120 
G01 X-1.3290 Y0.4170 
G01 X-1.3330 Y0.4229 
G01 X-1.3357 Y0.4295 
G01 X-1.3371 Y0.4364 
G01 X-1.3371 Y0.4436 
G01 X-1.3357 Y0.4505 
G01 X-1.3330 Y0.4571 
G01 X-1.3290 Y0.4630 
G01 X-1.3240 Y0.4680 
G01 X-1.3181 Y0.4720 
G01 X-1.3115 Y0.4747 
G01 X-1.3046 Y0.4761 
G01 X-1.2354 Y0.4761 
G01 X-1.2285 Y0.4747 
G01 X-1.2219 Y0.4720 
G01 X-1.2160 Y0.4680 
G01 X-1.2110 Y0.4631 
G01 X-0.8504 Y0.4631 
G01 X-0.7377 Y0.5758 
G01 X-0.7405 Y0.5770 
G01 X-0.7464 Y0.5809 
G01 X-0.7514 Y0.5859 
G01 X-0.7554 Y0.5918 
G01 X-0.7581 Y0.5984 
G01 X-0.7595 Y0.6054 
G00 Z0.0200 
G00 X-2.5558 Y0.9820 
G01 Z-0.0100 F10.00 
G01 X-2.5526 Y0.9811 
G01 X-2.5498 Y0.9795 
G01 X-2.5474 Y0.9771 
G01 X-2.5458 Y0.9742 
G01 X-2.5449 Y0.9710 
G01 X-2.5449 Y0.9677 
G01 X-2.5458 Y0.9645 
G01 X-2.5474 Y0.9616 
G01 X-2.5498 Y0.9593 
G01 X-2.5526 Y0.9576 
G01 X-2.5558 Y0.9568 
G01 X-2.6492 Y0.9568 
G01 X-2.6494 Y0.9568 
G01 X-2.6524 Y0.9576 
G01 X-2.6553 Y0.9593 
G01 X-2.6553 Y0.9593 
G01 X-2.7027 Y1.0067 
G01 X-2.7043 Y1.0095 
G01 X-2.7044 Y1.0096 
G01 X-2.7052 Y1.0128 
G01 X-2.7052 Y1.0161 
G01 X-2.7044 Y1.0193 
G01 X-2.7027 Y1.0222 
G01 X-2.7027 Y1.0222 
G01 X-2.7004 Y1.0245 
G01 X-2.7004 Y1.0245 
G01 X-2.6577 Y1.0672 
G01 X-2.6553 Y1.0695 
G01 X-2.6524 Y1.0712 
G01 X-2.6492 Y1.0721 
G01 X-2.5558 Y1.0721 
G01 X-2.5526 Y1.0712 
G01 X-2.5498 Y1.0695 
G01 X-2.5474 Y1.0672 
G01 X-2.5458 Y1.0643 
G01 X-2.5449 Y1.0611 
G01 X-2.5449 Y1.0578 
G01 X-2.5458 Y1.0546 
G01 X-2.5474 Y1.0517 
G01 X-2.5498 Y1.0494 
G01 X-2.5526 Y1.0477 
G01 X-2.5558 Y1.0469 
G01 X-2.6125 Y1.0469 
G01 X-2.6125 Y0.9820 
G01 X-2.5558 Y0.9820 
G00 Z0.0200 
G00 X-2.6375 Y0.7009 
G01 Z-0.0100 F10.00 
G01 X-2.6358 Y0.6980 
G01 X-2.6350 Y0.6948 
G01 X-2.6350 Y0.6915 
G01 X-2.6358 Y0.6883 
G01 X-2.6375 Y0.6854 
G01 X-2.6398 Y0.6831 
G01 X-2.6427 Y0.6814 
G01 X-2.6459 Y0.6805 
G01 X-2.6492 Y0.6805 
G01 X-2.6524 Y0.6814 
G01 X-2.6553 Y0.6831 
G01 X-2.7027 Y0.7304 
G01 X-2.7043 Y0.7333 
G01 X-2.7044 Y0.7333 
G01 X-2.7052 Y0.7365 
G01 X-2.7052 Y0.7398 
G01 X-2.7044 Y0.7430 
G01 X-2.7027 Y0.7459 
G01 X-2.7027 Y0.7460 
G01 X-2.7004 Y0.7483 
G01 X-2.6975 Y0.7499 
G01 X-2.6975 Y0.7499 
G01 X-2.6943 Y0.7508 
G01 X-2.5701 Y0.7508 
G01 X-2.5701 Y0.7849 
G01 X-2.5692 Y0.7881 
G01 X-2.5676 Y0.7910 
G01 X-2.5652 Y0.7933 
G01 X-2.5624 Y0.7950 
G01 X-2.5592 Y0.7958 
G01 X-2.5558 Y0.7958 
G01 X-2.5526 Y0.7950 
G01 X-2.5498 Y0.7933 
G01 X-2.5474 Y0.7910 
G01 X-2.5458 Y0.7881 
G01 X-2.5449 Y0.7849 
G01 X-2.5449 Y0.6915 
G01 X-2.5458 Y0.6883 
G01 X-2.5474 Y0.6854 
G01 X-2.5498 Y0.6831 
G01 X-2.5526 Y0.6814 
G01 X-2.5558 Y0.6805 
G01 X-2.5592 Y0.6805 
G01 X-2.5624 Y0.6814 
G01 X-2.5652 Y0.6831 
G01 X-2.5676 Y0.6854 
G01 X-2.5692 Y0.6883 
G01 X-2.5701 Y0.6915 
G01 X-2.5701 Y0.7256 
G01 X-2.6622 Y0.7256 
G01 X-2.6375 Y0.7009 
G00 Z0.0200 
G00 X-2.7052 Y0.6468 
G01 Z-0.0100 F10.00 
G01 X-2.7044 Y0.6500 
G01 X-2.7027 Y0.6528 
G01 X-2.7004 Y0.6552 
G01 X-2.6975 Y0.6568 
G01 X-2.6943 Y0.6577 
G01 X-2.6910 Y0.6577 
G01 X-2.6878 Y0.6568 
G01 X-2.6849 Y0.6552 
G01 X-2.6825 Y0.6528 
G01 X-2.6809 Y0.6500 
G01 X-2.6800 Y0.6468 
G01 X-2.6800 Y0.5676 
G01 X-2.6454 Y0.5676 
G01 X-2.6587 Y0.5941 
G01 X-2.6593 Y0.5952 
G01 X-2.6594 Y0.5956 
G01 X-2.6596 Y0.5959 
G01 X-2.6598 Y0.5972 
G01 X-2.6602 Y0.5984 
G01 X-2.6602 Y0.5988 
G01 X-2.6603 Y0.5992 
G01 X-2.6602 Y0.6004 
G01 X-2.6602 Y0.6242 
G01 X-2.6593 Y0.6274 
G01 X-2.6577 Y0.6303 
G01 X-2.6351 Y0.6528 
G01 X-2.6328 Y0.6552 
G01 X-2.6299 Y0.6568 
G01 X-2.6267 Y0.6577 
G01 X-2.5784 Y0.6577 
G01 X-2.5752 Y0.6568 
G01 X-2.5723 Y0.6552 
G01 X-2.5498 Y0.6327 
G01 X-2.5474 Y0.6303 
G01 X-2.5458 Y0.6274 
G01 X-2.5449 Y0.6242 
G01 X-2.5449 Y0.5759 
G01 X-2.5458 Y0.5727 
G01 X-2.5474 Y0.5698 
G01 X-2.5723 Y0.5449 
G01 X-2.5752 Y0.5433 
G01 X-2.5784 Y0.5424 
G01 X-2.5817 Y0.5424 
G01 X-2.5849 Y0.5433 
G01 X-2.5878 Y0.5449 
G01 X-2.5901 Y0.5473 
G01 X-2.5918 Y0.5502 
G01 X-2.5926 Y0.5534 
G01 X-2.5926 Y0.5567 
G01 X-2.5918 Y0.5599 
G01 X-2.5901 Y0.5628 
G01 X-2.5701 Y0.5828 
G01 X-2.5701 Y0.6174 
G01 X-2.5852 Y0.6325 
G01 X-2.6198 Y0.6325 
G01 X-2.6350 Y0.6174 
G01 X-2.6350 Y0.6030 
G01 X-2.6140 Y0.5610 
G01 X-2.6133 Y0.5599 
G01 X-2.6132 Y0.5595 
G01 X-2.6130 Y0.5592 
G01 X-2.6128 Y0.5579 
G01 X-2.6125 Y0.5567 
G01 X-2.6125 Y0.5563 
G01 X-2.6124 Y0.5559 
G01 X-2.6125 Y0.5546 
G01 X-2.6125 Y0.5534 
G01 X-2.6126 Y0.5530 
G01 X-2.6126 Y0.5526 
G01 X-2.6130 Y0.5514 
G01 X-2.6133 Y0.5502 
G01 X-2.6135 Y0.5498 
G01 X-2.6136 Y0.5495 
G01 X-2.6143 Y0.5484 
G01 X-2.6150 Y0.5473 
G01 X-2.6152 Y0.5470 
G01 X-2.6155 Y0.5467 
G01 X-2.6164 Y0.5459 
G01 X-2.6173 Y0.5449 
G01 X-2.6177 Y0.5448 
G01 X-2.6179 Y0.5445 
G01 X-2.6191 Y0.5439 
G01 X-2.6202 Y0.5433 
G01 X-2.6206 Y0.5432 
G01 X-2.6209 Y0.5430 
G01 X-2.6222 Y0.5428 
G01 X-2.6234 Y0.5424 
G01 X-2.6238 Y0.5424 
G01 X-2.6242 Y0.5424 
G01 X-2.6254 Y0.5424 
G01 X-2.6943 Y0.5424 
G01 X-2.6975 Y0.5433 
G01 X-2.7004 Y0.5449 
G01 X-2.7027 Y0.5473 
G01 X-2.7044 Y0.5502 
G01 X-2.7052 Y0.5534 
G01 X-2.7052 Y0.5567 
G01 X-2.7052 Y0.6468 
G00 Z0.0200 
G00 X-2.6375 Y0.4246 
G01 Z-0.0100 F10.00 
G01 X-2.6358 Y0.4218 
G01 X-2.6350 Y0.4186 
G01 X-2.6350 Y0.4153 
G01 X-2.6358 Y0.4120 
G01 X-2.6375 Y0.4092 
G01 X-2.6398 Y0.4068 
G01 X-2.6427 Y0.4052 
G01 X-2.6459 Y0.4043 
G01 X-2.6492 Y0.4043 
G01 X-2.6524 Y0.4052 
G01 X-2.6553 Y0.4068 
G01 X-2.7027 Y0.4542 
G01 X-2.7043 Y0.4570 
G01 X-2.7044 Y0.4571 
G01 X-2.7052 Y0.4603 
G01 X-2.7052 Y0.4636 
G01 X-2.7044 Y0.4668 
G01 X-2.7027 Y0.4697 
G01 X-2.7027 Y0.4697 
G01 X-2.7004 Y0.4720 
G01 X-2.6975 Y0.4737 
G01 X-2.6975 Y0.4737 
G01 X-2.6943 Y0.4745 
G01 X-2.5701 Y0.4745 
G01 X-2.5701 Y0.5086 
G01 X-2.5692 Y0.5119 
G01 X-2.5676 Y0.5147 
G01 X-2.5652 Y0.5171 
G01 X-2.5624 Y0.5187 
G01 X-2.5592 Y0.5196 
G01 X-2.5558 Y0.5196 
G01 X-2.5526 Y0.5187 
G01 X-2.5498 Y0.5171 
G01 X-2.5474 Y0.5147 
G01 X-2.5458 Y0.5119 
G01 X-2.5449 Y0.5086 
G01 X-2.5449 Y0.4153 
G01 X-2.5458 Y0.4120 
G01 X-2.5474 Y0.4092 
G01 X-2.5498 Y0.4068 
G01 X-2.5526 Y0.4052 
G01 X-2.5558 Y0.4043 
G01 X-2.5592 Y0.4043 
G01 X-2.5624 Y0.4052 
G01 X-2.5652 Y0.4068 
G01 X-2.5676 Y0.4092 
G01 X-2.5692 Y0.4120 
G01 X-2.5701 Y0.4153 
G01 X-2.5701 Y0.4493 
G01 X-2.6622 Y0.4493 
G01 X-2.6375 Y0.4246 
G00 Z0.0200 
G00 X-2.5558 Y0.3589 
G01 Z-0.0100 F10.00 
G01 X-2.5526 Y0.3581 
G01 X-2.5498 Y0.3564 
G01 X-2.5474 Y0.3541 
G01 X-2.5458 Y0.3512 
G01 X-2.5449 Y0.3480 
G01 X-2.5449 Y0.3447 
G01 X-2.5458 Y0.3415 
G01 X-2.5474 Y0.3386 
G01 X-2.5498 Y0.3363 
G01 X-2.5526 Y0.3346 
G01 X-2.5558 Y0.3337 
G01 X-2.6125 Y0.3337 
G01 X-2.6125 Y0.2771 
G01 X-2.6133 Y0.2739 
G01 X-2.6150 Y0.2711 
G01 X-2.6173 Y0.2687 
G01 X-2.6202 Y0.2671 
G01 X-2.6234 Y0.2662 
G01 X-2.6267 Y0.2662 
G01 X-2.6299 Y0.2671 
G01 X-2.6328 Y0.2687 
G01 X-2.6351 Y0.2711 
G01 X-2.7027 Y0.3386 
G01 X-2.7044 Y0.3415 
G01 X-2.7052 Y0.3447 
G01 X-2.7052 Y0.3480 
G01 X-2.7044 Y0.3512 
G01 X-2.7027 Y0.3541 
G01 X-2.7004 Y0.3564 
G01 X-2.6975 Y0.3581 
G01 X-2.6943 Y0.3589 
G01 X-2.6377 Y0.3589 
G01 X-2.6377 Y0.3705 
G01 X-2.6368 Y0.3737 
G01 X-2.6351 Y0.3766 
G01 X-2.6328 Y0.3790 
G01 X-2.6299 Y0.3806 
G01 X-2.6267 Y0.3815 
G01 X-2.6234 Y0.3815 
G01 X-2.6202 Y0.3806 
G01 X-2.6173 Y0.3790 
G01 X-2.6150 Y0.3766 
G01 X-2.6133 Y0.3737 
G01 X-2.6125 Y0.3705 
G01 X-2.6125 Y0.3589 
G01 X-2.5558 Y0.3589 
G00 Z0.0200 
G00 X-2.6684 Y0.1281 
G01 Z-0.0100 F10.00 
G01 X-2.6718 Y0.1281 
G01 X-2.6750 Y0.1289 
G01 X-2.6778 Y0.1306 
G01 X-2.7004 Y0.1531 
G01 X-2.7004 Y0.1531 
G01 X-2.7027 Y0.1555 
G01 X-2.7044 Y0.1583 
G01 X-2.7052 Y0.1615 
G01 X-2.7052 Y0.2099 
G01 X-2.7044 Y0.2131 
G01 X-2.7027 Y0.2160 
G01 X-2.6802 Y0.2385 
G01 X-2.6802 Y0.2385 
G01 X-2.6778 Y0.2408 
G01 X-2.6750 Y0.2425 
G01 X-2.6718 Y0.2434 
G01 X-2.5784 Y0.2434 
G01 X-2.5752 Y0.2425 
G01 X-2.5723 Y0.2408 
G01 X-2.5498 Y0.2183 
G01 X-2.5474 Y0.2160 
G01 X-2.5458 Y0.2131 
G01 X-2.5449 Y0.2099 
G01 X-2.5449 Y0.1615 
G01 X-2.5458 Y0.1583 
G01 X-2.5474 Y0.1555 
G01 X-2.5699 Y0.1329 
G01 X-2.5723 Y0.1306 
G01 X-2.5752 Y0.1289 
G01 X-2.5784 Y0.1281 
G01 X-2.5817 Y0.1281 
G01 X-2.6684 Y0.1281 
G00 Z0.0200 
G00 X-0.2197 Y0.3659 
G01 Z-0.0100 F10.00 
G01 X-0.2229 Y0.3691 
G01 X-0.2231 Y0.3680 
G01 X-0.2255 Y0.3639 
G01 X-0.5213 Y0.0681 
G01 X-0.5175 Y0.0681 
G01 X-0.2197 Y0.3659 
G00 Z0.0200 
G00 X-1.7624 Y1.2718 
G01 Z-0.0100 F10.00 
G01 X-1.7618 Y1.2719 
G01 X-1.7625 Y1.2719 
G01 X-1.7627 Y1.2717 
G01 X-1.7624 Y1.2718 
G00 Z0.0200 
G00 X-1.7730 Y1.1721 
G01 Z-0.0100 F10.00 
G01 X-1.7778 Y1.1746 
G01 X-1.7821 Y1.1777 
G01 X-1.7747 Y1.1703 
G01 X-1.7730 Y1.1721 
G00 Z0.0200 
G00 X-1.7954 Y1.1922 
G01 Z-0.0100 F10.00 
G01 X-1.7992 Y1.1996 
G01 X-1.8018 Y1.2076 
G01 X-1.8019 Y1.2082 
G01 X-1.8019 Y1.1975 
G01 X-1.7923 Y1.1879 
G01 X-1.7954 Y1.1922 
G00 Z0.0200 
G00 X-1.8018 Y1.2324 
G01 Z-0.0100 F10.00 
G01 X-1.8017 Y1.2327 
G01 X-1.8019 Y1.2325 
G01 X-1.8019 Y1.2318 
G01 X-1.8018 Y1.2324 
G00 Z0.0200 
G00 X-2.5751 Y0.2009 
G01 Z-0.0100 F10.00 
G01 X-2.5873 Y0.2132 
G01 X-2.6276 Y0.2132 
G01 X-2.5800 Y0.1656 
G01 X-2.5751 Y0.1705 
G01 X-2.5751 Y0.2009 
G00 Z0.0200 
G00 X-2.6750 Y0.2009 
G01 Z-0.0100 F10.00 
G01 X-2.6750 Y0.1705 
G01 X-2.6628 Y0.1583 
G01 X-2.6225 Y0.1583 
G01 X-2.6701 Y0.2059 
G01 X-2.6750 Y0.2009 
G00 Z0.0200 
G00 X-2.6501 Y0.3287 
G01 Z-0.0100 F10.00 
G01 X-2.6427 Y0.3213 
G01 X-2.6427 Y0.3287 
G01 X-2.6501 Y0.3287 
G00 Z0.0200 
G00 X-2.6677 Y1.0144 
G01 Z-0.0100 F10.00 
G01 X-2.6427 Y0.9894 
G01 X-2.6427 Y1.0395 
G01 X-2.6677 Y1.0144 
G00 Z0.0200 
G00 X-0.3981 Y0.3775 
G01 Z-0.0100 F10.00 
G01 X-0.3981 Y0.4124 
G01 X-0.3969 Y0.4170 
G01 X-0.3945 Y0.4211 
G01 X-0.3347 Y0.4809 
G01 X-0.3351 Y0.4813 
G01 X-0.3351 Y0.5187 
G01 X-0.3219 Y0.5319 
G01 X-0.3275 Y0.5319 
G01 X-0.5105 Y0.3489 
G01 X-0.5139 Y0.3455 
G01 X-0.5180 Y0.3431 
G01 X-0.5226 Y0.3419 
G01 X-0.6475 Y0.3419 
G01 X-0.6905 Y0.2989 
G01 X-0.6939 Y0.2955 
G01 X-0.6980 Y0.2931 
G01 X-0.7026 Y0.2919 
G01 X-0.9725 Y0.2919 
G01 X-0.9989 Y0.2655 
G01 X-1.0030 Y0.2631 
G01 X-1.0076 Y0.2619 
G01 X-1.0287 Y0.2619 
G01 X-1.0289 Y0.2604 
G01 X-1.0309 Y0.2542 
G01 X-1.0338 Y0.2485 
G01 X-1.0377 Y0.2432 
G01 X-1.0422 Y0.2387 
G01 X-1.0475 Y0.2348 
G01 X-1.0532 Y0.2319 
G01 X-1.0594 Y0.2299 
G01 X-1.0658 Y0.2289 
G01 X-1.1342 Y0.2289 
G01 X-1.1406 Y0.2299 
G01 X-1.1468 Y0.2319 
G01 X-1.1525 Y0.2348 
G01 X-1.1578 Y0.2387 
G01 X-1.1623 Y0.2432 
G01 X-1.1662 Y0.2485 
G01 X-1.1691 Y0.2542 
G01 X-1.1711 Y0.2604 
G01 X-1.1721 Y0.2668 
G01 X-1.1721 Y0.2732 
G01 X-1.1717 Y0.2761 
G01 X-1.2082 Y0.3126 
G01 X-1.2122 Y0.3087 
G01 X-1.2175 Y0.3048 
G01 X-1.2232 Y0.3019 
G01 X-1.2294 Y0.2999 
G01 X-1.2358 Y0.2989 
G01 X-1.2419 Y0.2989 
G01 X-1.2419 Y0.2600 
G01 X-1.2289 Y0.2470 
G01 X-1.2289 Y0.2130 
G01 X-1.2438 Y0.1981 
G01 X-1.0375 Y0.1981 
G01 X-0.9611 Y0.2745 
G01 X-0.9570 Y0.2769 
G01 X-0.9524 Y0.2781 
G01 X-0.6713 Y0.2781 
G01 X-0.6711 Y0.2796 
G01 X-0.6691 Y0.2858 
G01 X-0.6662 Y0.2915 
G01 X-0.6623 Y0.2968 
G01 X-0.6578 Y0.3013 
G01 X-0.6525 Y0.3052 
G01 X-0.6468 Y0.3081 
G01 X-0.6406 Y0.3101 
G01 X-0.6342 Y0.3111 
G01 X-0.5658 Y0.3111 
G01 X-0.5594 Y0.3101 
G01 X-0.5532 Y0.3081 
G01 X-0.5475 Y0.3052 
G01 X-0.5422 Y0.3013 
G01 X-0.5377 Y0.2968 
G01 X-0.5338 Y0.2915 
G01 X-0.5309 Y0.2858 
G01 X-0.5289 Y0.2796 
G01 X-0.5279 Y0.2732 
G01 X-0.5279 Y0.2668 
G01 X-0.5289 Y0.2604 
G01 X-0.5309 Y0.2542 
G01 X-0.5338 Y0.2485 
G01 X-0.5377 Y0.2432 
G01 X-0.5422 Y0.2387 
G01 X-0.5475 Y0.2348 
G01 X-0.5532 Y0.2319 
G01 X-0.5594 Y0.2299 
G01 X-0.5658 Y0.2289 
G01 X-0.6342 Y0.2289 
G01 X-0.6406 Y0.2299 
G01 X-0.6468 Y0.2319 
G01 X-0.6525 Y0.2348 
G01 X-0.6578 Y0.2387 
G01 X-0.6610 Y0.2419 
G01 X-0.9425 Y0.2419 
G01 X-1.0155 Y0.1689 
G01 X-1.0189 Y0.1655 
G01 X-1.0230 Y0.1631 
G01 X-1.0276 Y0.1619 
G01 X-1.3124 Y0.1619 
G01 X-1.3170 Y0.1631 
G01 X-1.3211 Y0.1655 
G01 X-1.3487 Y0.1931 
G01 X-1.3530 Y0.1889 
G01 X-1.3870 Y0.1889 
G01 X-1.4111 Y0.2130 
G01 X-1.4111 Y0.2470 
G01 X-1.3881 Y0.2700 
G01 X-1.3881 Y0.3075 
G01 X-1.4195 Y0.3389 
G01 X-1.4219 Y0.3430 
G01 X-1.4231 Y0.3476 
G01 X-1.4231 Y0.5374 
G01 X-1.4231 Y0.5375 
G01 X-1.4231 Y0.5376 
G01 X-1.4231 Y0.6057 
G01 X-1.4319 Y0.5940 
G01 X-1.4319 Y0.1775 
G01 X-1.4125 Y0.1581 
G01 X-0.6175 Y0.1581 
G01 X-0.3981 Y0.3775 
G00 Z0.0200 
G00 X-1.6411 Y0.6496 
G01 Z-0.0100 F10.00 
G01 X-1.6391 Y0.6558 
G01 X-1.6362 Y0.6615 
G01 X-1.6323 Y0.6668 
G01 X-1.6278 Y0.6713 
G01 X-1.6225 Y0.6752 
G01 X-1.6168 Y0.6781 
G01 X-1.6106 Y0.6801 
G01 X-1.6042 Y0.6811 
G01 X-1.5358 Y0.6811 
G01 X-1.5294 Y0.6801 
G01 X-1.5232 Y0.6781 
G01 X-1.5175 Y0.6752 
G01 X-1.5155 Y0.6737 
G01 X-1.5131 Y0.6766 
G01 X-1.5131 Y0.7080 
G01 X-1.5175 Y0.7048 
G01 X-1.5232 Y0.7019 
G01 X-1.5294 Y0.6999 
G01 X-1.5358 Y0.6989 
G01 X-1.6042 Y0.6989 
G01 X-1.6106 Y0.6999 
G01 X-1.6168 Y0.7019 
G01 X-1.6225 Y0.7048 
G01 X-1.6278 Y0.7087 
G01 X-1.6323 Y0.7132 
G01 X-1.6350 Y0.7169 
G01 X-1.6375 Y0.7169 
G01 X-1.6419 Y0.7125 
G01 X-1.6419 Y0.6445 
G01 X-1.6411 Y0.6496 
G00 Z0.0200 
G00 X-0.4875 Y0.0381 
G01 Z-0.0100 F10.00 
G01 X-0.1581 Y0.3675 
G01 X-0.1581 Y0.3681 
G01 X-0.1713 Y0.3549 
G01 X-0.1795 Y0.3549 
G01 X-0.4955 Y0.0389 
G01 X-0.4955 Y0.0389 
G01 X-0.4963 Y0.0381 
G01 X-0.4875 Y0.0381 
G00 Z0.0200 
G00 X-0.5425 Y0.0981 
G01 Z-0.0100 F10.00 
G01 X-0.2857 Y0.3549 
G01 X-0.3087 Y0.3549 
G01 X-0.3091 Y0.3553 
G01 X-0.5655 Y0.0989 
G01 X-0.5663 Y0.0981 
G01 X-0.5425 Y0.0981 
G00 Z0.0200 
G00 X-1.4337 Y0.1281 
G01 Z-0.0100 F10.00 
G01 X-1.4345 Y0.1289 
G01 X-1.4645 Y0.1589 
G01 X-1.4669 Y0.1630 
G01 X-1.4681 Y0.1676 
G01 X-1.4681 Y0.5987 
G01 X-1.4683 Y0.5998 
G01 X-1.4681 Y0.6011 
G01 X-1.4681 Y0.6024 
G01 X-1.4678 Y0.6034 
G01 X-1.4677 Y0.6045 
G01 X-1.4672 Y0.6057 
G01 X-1.4669 Y0.6070 
G01 X-1.4663 Y0.6079 
G01 X-1.4659 Y0.6090 
G01 X-1.4651 Y0.6100 
G01 X-1.4645 Y0.6111 
G01 X-1.4637 Y0.6119 
G01 X-1.4531 Y0.6260 
G01 X-1.4531 Y0.6360 
G01 X-1.4719 Y0.6134 
G01 X-1.4719 Y0.1475 
G01 X-1.4525 Y0.1281 
G01 X-1.4337 Y0.1281 
G00 Z0.0200 
G00 X-1.5077 Y0.8132 
G01 Z-0.0100 F10.00 
G01 X-1.5122 Y0.8087 
G01 X-1.5130 Y0.8081 
G01 X-1.5018 Y0.8081 
G01 X-1.5013 Y0.8082 
G01 X-1.4995 Y0.8081 
G01 X-1.4976 Y0.8081 
G01 X-1.4971 Y0.8080 
G01 X-1.4965 Y0.8079 
G01 X-1.4958 Y0.8077 
G01 X-1.5045 Y0.8176 
G01 X-1.5077 Y0.8132 
G00 Z0.0200 
G00 X-1.5122 Y0.8713 
G01 Z-0.0100 F10.00 
G01 X-1.5077 Y0.8668 
G01 X-1.5038 Y0.8615 
G01 X-1.5021 Y0.8581 
G01 X-1.5018 Y0.8581 
G01 X-1.5012 Y0.8582 
G01 X-1.4994 Y0.8581 
G01 X-1.4976 Y0.8581 
G01 X-1.4970 Y0.8579 
G01 X-1.4964 Y0.8579 
G01 X-1.4947 Y0.8573 
G01 X-1.4930 Y0.8569 
G01 X-1.4925 Y0.8566 
G01 X-1.4919 Y0.8564 
G01 X-1.4904 Y0.8554 
G01 X-1.4889 Y0.8545 
G01 X-1.4885 Y0.8541 
G01 X-1.4879 Y0.8537 
G01 X-1.4868 Y0.8524 
G01 X-1.4855 Y0.8511 
G01 X-1.4852 Y0.8506 
G01 X-1.4531 Y0.8139 
G01 X-1.4531 Y0.8230 
G01 X-1.4980 Y0.8719 
G01 X-1.5130 Y0.8719 
G01 X-1.5122 Y0.8713 
G00 Z0.0200 
G00 X-0.3347 Y0.3809 
G01 Z-0.0100 F10.00 
G01 X-0.3351 Y0.3813 
G01 X-0.3351 Y0.4187 
G01 X-0.3087 Y0.4451 
G01 X-0.2713 Y0.4451 
G01 X-0.2581 Y0.4319 
G01 X-0.2581 Y0.4524 
G01 X-0.2569 Y0.4570 
G01 X-0.2545 Y0.4611 
G01 X-0.2347 Y0.4809 
G01 X-0.2351 Y0.4813 
G01 X-0.2351 Y0.5187 
G01 X-0.2219 Y0.5319 
G01 X-0.2581 Y0.5319 
G01 X-0.2449 Y0.5187 
G01 X-0.2449 Y0.4813 
G01 X-0.2713 Y0.4549 
G01 X-0.3087 Y0.4549 
G01 X-0.3091 Y0.4553 
G01 X-0.3619 Y0.4025 
G01 X-0.3619 Y0.3676 
G01 X-0.3631 Y0.3630 
G01 X-0.3655 Y0.3589 
G01 X-0.3689 Y0.3555 
G01 X-0.5955 Y0.1289 
G01 X-0.5955 Y0.1289 
G01 X-0.5963 Y0.1281 
G01 X-0.5875 Y0.1281 
G01 X-0.3347 Y0.3809 
G00 Z0.0200 
G00 X-0.2087 Y0.4451 
G01 Z-0.0100 F10.00 
G01 X-0.1713 Y0.4451 
G01 X-0.1581 Y0.4319 
G01 X-0.1581 Y0.4681 
G01 X-0.1713 Y0.4549 
G01 X-0.2087 Y0.4549 
G01 X-0.2091 Y0.4553 
G01 X-0.2219 Y0.4425 
G01 X-0.2219 Y0.4319 
G01 X-0.2087 Y0.4451 
G00 Z0.0200 
G00 X-1.5311 Y1.1530 
G01 Z-0.0100 F10.00 
G01 X-1.5311 Y1.1819 
G01 X-1.7095 Y1.1819 
G01 X-1.7113 Y1.1818 
G01 X-1.7118 Y1.1819 
G01 X-1.7124 Y1.1819 
G01 X-1.7129 Y1.1820 
G01 X-1.7154 Y1.1795 
G01 X-1.7222 Y1.1746 
G01 X-1.7270 Y1.1721 
G01 X-1.6969 Y1.1420 
G01 X-1.6969 Y1.0980 
G01 X-1.7280 Y1.0669 
G01 X-1.7720 Y1.0669 
G01 X-1.8031 Y1.0980 
G01 X-1.8031 Y1.1420 
G01 X-1.8003 Y1.1447 
G01 X-1.8275 Y1.1719 
G01 X-1.9063 Y1.1719 
G01 X-1.7725 Y1.0381 
G01 X-1.7275 Y1.0381 
G01 X-1.6511 Y1.1145 
G01 X-1.6470 Y1.1169 
G01 X-1.6424 Y1.1181 
G01 X-1.5076 Y1.1181 
G01 X-1.5030 Y1.1169 
G01 X-1.5017 Y1.1161 
G01 X-1.5045 Y1.1189 
G01 X-1.5069 Y1.1230 
G01 X-1.5081 Y1.1276 
G01 X-1.5081 Y1.1300 
G01 X-1.5311 Y1.1530 
G00 Z0.0200 
G00 X-1.3270 Y1.0081 
G01 Z-0.0100 F10.00 
G01 X-1.3278 Y1.0087 
G01 X-1.3323 Y1.0132 
G01 X-1.3362 Y1.0185 
G01 X-1.3391 Y1.0242 
G01 X-1.3411 Y1.0304 
G01 X-1.3421 Y1.0368 
G01 X-1.3421 Y1.0432 
G01 X-1.3411 Y1.0496 
G01 X-1.3391 Y1.0558 
G01 X-1.3362 Y1.0615 
G01 X-1.3323 Y1.0668 
G01 X-1.3278 Y1.0713 
G01 X-1.3225 Y1.0752 
G01 X-1.3168 Y1.0781 
G01 X-1.3106 Y1.0801 
G01 X-1.3042 Y1.0811 
G01 X-1.2358 Y1.0811 
G01 X-1.2294 Y1.0801 
G01 X-1.2232 Y1.0781 
G01 X-1.2175 Y1.0752 
G01 X-1.2122 Y1.0713 
G01 X-1.2090 Y1.0681 
G01 X-0.4876 Y1.0681 
G01 X-0.4830 Y1.0669 
G01 X-0.4817 Y1.0661 
G01 X-0.5075 Y1.0919 
G01 X-1.1624 Y1.0919 
G01 X-1.1670 Y1.0931 
G01 X-1.1711 Y1.0955 
G01 X-1.2053 Y1.1297 
G01 X-1.2080 Y1.1269 
G01 X-1.2520 Y1.1269 
G01 X-1.2647 Y1.1397 
G01 X-1.2955 Y1.1089 
G01 X-1.2955 Y1.1089 
G01 X-1.2989 Y1.1055 
G01 X-1.3030 Y1.1031 
G01 X-1.3076 Y1.1019 
G01 X-1.4224 Y1.1019 
G01 X-1.4270 Y1.1031 
G01 X-1.4311 Y1.1055 
G01 X-1.4511 Y1.1255 
G01 X-1.4545 Y1.1289 
G01 X-1.4569 Y1.1330 
G01 X-1.4581 Y1.1376 
G01 X-1.4581 Y1.1438 
G01 X-1.4681 Y1.1337 
G01 X-1.3425 Y1.0081 
G01 X-1.3424 Y1.0081 
G01 X-1.3376 Y1.0081 
G01 X-1.3270 Y1.0081 
G00 Z0.0200 
G00 X-1.4639 Y1.0783 
G01 Z-0.0100 F10.00 
G01 X-1.4631 Y1.0770 
G01 X-1.4619 Y1.0724 
G01 X-1.4619 Y1.0473 
G01 X-1.3631 Y0.9437 
G01 X-1.3631 Y0.9775 
G01 X-1.4639 Y1.0783 
G00 Z0.0200 
G00 X-1.3225 Y0.8752 
G01 Z-0.0100 F10.00 
G01 X-1.3168 Y0.8781 
G01 X-1.3106 Y0.8801 
G01 X-1.3042 Y0.8811 
G01 X-1.2358 Y0.8811 
G01 X-1.2294 Y0.8801 
G01 X-1.2232 Y0.8781 
G01 X-1.2175 Y0.8752 
G01 X-1.2122 Y0.8713 
G01 X-1.2082 Y0.8674 
G01 X-1.1611 Y0.9145 
G01 X-1.1570 Y0.9169 
G01 X-1.1524 Y0.9181 
G01 X-0.4976 Y0.9181 
G01 X-0.4930 Y0.9169 
G01 X-0.4889 Y0.9145 
G01 X-0.4855 Y0.9111 
G01 X-0.3425 Y0.7681 
G01 X-0.3219 Y0.7681 
G01 X-0.3351 Y0.7813 
G01 X-0.3351 Y0.7819 
G01 X-0.3353 Y0.7819 
G01 X-0.3374 Y0.7819 
G01 X-0.3377 Y0.7820 
G01 X-0.3381 Y0.7820 
G01 X-0.3400 Y0.7826 
G01 X-0.3420 Y0.7831 
G01 X-0.3423 Y0.7833 
G01 X-0.3426 Y0.7834 
G01 X-0.3443 Y0.7845 
G01 X-0.3461 Y0.7855 
G01 X-0.3464 Y0.7858 
G01 X-0.3466 Y0.7859 
G01 X-0.3480 Y0.7874 
G01 X-0.3495 Y0.7889 
G01 X-0.3497 Y0.7892 
G01 X-0.4729 Y0.9219 
G01 X-1.2021 Y0.9219 
G01 X-1.2038 Y0.9185 
G01 X-1.2077 Y0.9132 
G01 X-1.2122 Y0.9087 
G01 X-1.2175 Y0.9048 
G01 X-1.2232 Y0.9019 
G01 X-1.2294 Y0.8999 
G01 X-1.2358 Y0.8989 
G01 X-1.3042 Y0.8989 
G01 X-1.3106 Y0.8999 
G01 X-1.3168 Y0.9019 
G01 X-1.3225 Y0.9048 
G01 X-1.3269 Y0.9080 
G01 X-1.3269 Y0.8720 
G01 X-1.3225 Y0.8752 
G00 Z0.0200 
G00 X-0.9613 Y0.8543 
G01 Z-0.0100 F10.00 
G01 X-0.9603 Y0.8607 
G01 X-0.9583 Y0.8668 
G01 X-0.9554 Y0.8726 
G01 X-0.9516 Y0.8778 
G01 X-0.9475 Y0.8819 
G01 X-1.1425 Y0.8819 
G01 X-1.1955 Y0.8289 
G01 X-1.1989 Y0.8255 
G01 X-1.2009 Y0.8244 
G01 X-1.2009 Y0.8242 
G01 X-1.2038 Y0.8185 
G01 X-1.2077 Y0.8132 
G01 X-1.2122 Y0.8087 
G01 X-1.2130 Y0.8081 
G01 X-1.2025 Y0.8081 
G01 X-1.1795 Y0.8311 
G01 X-1.1761 Y0.8345 
G01 X-1.1720 Y0.8369 
G01 X-1.1674 Y0.8381 
G01 X-0.9613 Y0.8381 
G01 X-0.9613 Y0.8543 
G00 Z0.0200 
G00 X-1.2122 Y0.7713 
G01 Z-0.0100 F10.00 
G01 X-1.2077 Y0.7668 
G01 X-1.2038 Y0.7615 
G01 X-1.2009 Y0.7558 
G01 X-1.1989 Y0.7496 
G01 X-1.1979 Y0.7432 
G01 X-1.1979 Y0.7368 
G01 X-1.1989 Y0.7304 
G01 X-1.2009 Y0.7242 
G01 X-1.2038 Y0.7185 
G01 X-1.2077 Y0.7132 
G01 X-1.2122 Y0.7087 
G01 X-1.2130 Y0.7081 
G01 X-0.9575 Y0.7081 
G01 X-0.9295 Y0.7361 
G01 X-0.9261 Y0.7395 
G01 X-0.9220 Y0.7419 
G01 X-0.9174 Y0.7431 
G01 X-0.8825 Y0.7431 
G01 X-0.8681 Y0.7575 
G01 X-0.8683 Y0.7577 
G01 X-0.8728 Y0.7623 
G01 X-0.8766 Y0.7675 
G01 X-0.8796 Y0.7733 
G01 X-0.8809 Y0.7772 
G01 X-0.8821 Y0.7733 
G01 X-0.8851 Y0.7675 
G01 X-0.8889 Y0.7623 
G01 X-0.8935 Y0.7577 
G01 X-0.8987 Y0.7539 
G01 X-0.9045 Y0.7510 
G01 X-0.9106 Y0.7490 
G01 X-0.9170 Y0.7480 
G01 X-0.9235 Y0.7480 
G01 X-0.9299 Y0.7490 
G01 X-0.9360 Y0.7510 
G01 X-0.9418 Y0.7539 
G01 X-0.9470 Y0.7577 
G01 X-0.9516 Y0.7623 
G01 X-0.9554 Y0.7675 
G01 X-0.9583 Y0.7733 
G01 X-0.9603 Y0.7794 
G01 X-0.9613 Y0.7858 
G01 X-0.9613 Y0.8019 
G01 X-1.1575 Y0.8019 
G01 X-1.1839 Y0.7755 
G01 X-1.1880 Y0.7731 
G01 X-1.1926 Y0.7719 
G01 X-1.2130 Y0.7719 
G01 X-1.2122 Y0.7713 
G00 Z0.0200 
G00 X-1.3569 Y0.7783 
G01 Z-0.0100 F10.00 
G01 X-1.3365 Y0.7608 
G01 X-1.3362 Y0.7615 
G01 X-1.3323 Y0.7668 
G01 X-1.3278 Y0.7713 
G01 X-1.3270 Y0.7719 
G01 X-1.3324 Y0.7719 
G01 X-1.3370 Y0.7731 
G01 X-1.3411 Y0.7755 
G01 X-1.3445 Y0.7789 
G01 X-1.3569 Y0.7913 
G01 X-1.3569 Y0.7783 
G00 Z0.0200 
G00 X-1.2122 Y0.9713 
G01 Z-0.0100 F10.00 
G01 X-1.2077 Y0.9668 
G01 X-1.2038 Y0.9615 
G01 X-1.2021 Y0.9581 
G01 X-0.4670 Y0.9581 
G01 X-0.4667 Y0.9582 
G01 X-0.4647 Y0.9581 
G01 X-0.4637 Y0.9581 
G01 X-0.4745 Y0.9689 
G01 X-0.4769 Y0.9730 
G01 X-0.4773 Y0.9746 
G01 X-0.4930 Y0.9589 
G01 X-0.5270 Y0.9589 
G01 X-0.5400 Y0.9719 
G01 X-1.2130 Y0.9719 
G01 X-1.2122 Y0.9713 
G00 Z0.0200 
G00 X-0.5511 Y1.0170 
G01 Z-0.0100 F10.00 
G01 X-0.5362 Y1.0319 
G01 X-1.1987 Y1.0319 
G01 X-1.1989 Y1.0304 
G01 X-1.2009 Y1.0242 
G01 X-1.2038 Y1.0185 
G01 X-1.2077 Y1.0132 
G01 X-1.2122 Y1.0087 
G01 X-1.2130 Y1.0081 
G01 X-0.5511 Y1.0081 
G01 X-0.5511 Y1.0170 
G00 Z0.0200 
G00 X-1.5055 Y1.2111 
G01 Z-0.0100 F10.00 
G01 X-1.4730 Y1.2111 
G01 X-1.4581 Y1.1962 
G01 X-1.4581 Y1.2050 
G01 X-1.4811 Y1.2280 
G01 X-1.4811 Y1.2605 
G01 X-1.4925 Y1.2719 
G01 X-1.7382 Y1.2719 
G01 X-1.7376 Y1.2718 
G01 X-1.7296 Y1.2692 
G01 X-1.7222 Y1.2654 
G01 X-1.7154 Y1.2605 
G01 X-1.7095 Y1.2546 
G01 X-1.7046 Y1.2478 
G01 X-1.7008 Y1.2404 
G01 X-1.6982 Y1.2324 
G01 X-1.6969 Y1.2242 
G01 X-1.6969 Y1.2181 
G01 X-1.5176 Y1.2181 
G01 X-1.5130 Y1.2169 
G01 X-1.5089 Y1.2145 
G01 X-1.5055 Y1.2111 
G01 X-1.5055 Y1.2111 
G01 X-1.5055 Y1.2111 
G00 Z0.0200 
G00 X-2.1025 Y1.1419 
G01 Z-0.0100 F10.00 
G01 X-2.1455 Y1.0989 
G01 X-2.1489 Y1.0955 
G01 X-2.1530 Y1.0931 
G01 X-2.1576 Y1.0919 
G01 X-2.1625 Y1.0919 
G01 X-2.2355 Y1.0189 
G01 X-2.2389 Y1.0155 
G01 X-2.2399 Y1.0149 
G01 X-2.2399 Y1.0051 
G01 X-2.2751 Y0.9699 
G01 X-2.3249 Y0.9699 
G01 X-2.3601 Y1.0051 
G01 X-2.3601 Y1.0549 
G01 X-2.3249 Y1.0901 
G01 X-2.2751 Y1.0901 
G01 X-2.2453 Y1.0603 
G01 X-2.1811 Y1.1245 
G01 X-2.1770 Y1.1269 
G01 X-2.1724 Y1.1281 
G01 X-2.1675 Y1.1281 
G01 X-2.1245 Y1.1711 
G01 X-2.1237 Y1.1719 
G01 X-2.2925 Y1.1719 
G01 X-2.3919 Y1.0725 
G01 X-2.3919 Y0.9975 
G01 X-2.3525 Y0.9581 
G01 X-2.1975 Y0.9581 
G01 X-2.1181 Y1.0375 
G01 X-2.1181 Y1.0624 
G01 X-2.1169 Y1.0670 
G01 X-2.1145 Y1.0711 
G01 X-2.1111 Y1.0745 
G01 X-2.0511 Y1.1345 
G01 X-2.0470 Y1.1369 
G01 X-2.0424 Y1.1381 
G01 X-1.9676 Y1.1381 
G01 X-1.9630 Y1.1369 
G01 X-1.9589 Y1.1345 
G01 X-1.9555 Y1.1311 
G01 X-1.9055 Y1.0811 
G01 X-1.9031 Y1.0770 
G01 X-1.9019 Y1.0724 
G01 X-1.9019 Y0.9925 
G01 X-1.8825 Y0.9731 
G01 X-1.7375 Y0.9731 
G01 X-1.6761 Y1.0345 
G01 X-1.6720 Y1.0369 
G01 X-1.6674 Y1.0381 
G01 X-1.6421 Y1.0381 
G01 X-1.6421 Y1.0432 
G01 X-1.6411 Y1.0496 
G01 X-1.6391 Y1.0558 
G01 X-1.6362 Y1.0615 
G01 X-1.6323 Y1.0668 
G01 X-1.6278 Y1.0713 
G01 X-1.6225 Y1.0752 
G01 X-1.6168 Y1.0781 
G01 X-1.6106 Y1.0801 
G01 X-1.6042 Y1.0811 
G01 X-1.5358 Y1.0811 
G01 X-1.5294 Y1.0801 
G01 X-1.5232 Y1.0781 
G01 X-1.5175 Y1.0752 
G01 X-1.5122 Y1.0713 
G01 X-1.5077 Y1.0668 
G01 X-1.5038 Y1.0615 
G01 X-1.5009 Y1.0558 
G01 X-1.4989 Y1.0496 
G01 X-1.4981 Y1.0445 
G01 X-1.4981 Y1.0625 
G01 X-1.5175 Y1.0819 
G01 X-1.6325 Y1.0819 
G01 X-1.7055 Y1.0089 
G01 X-1.7089 Y1.0055 
G01 X-1.7130 Y1.0031 
G01 X-1.7176 Y1.0019 
G01 X-1.7824 Y1.0019 
G01 X-1.7870 Y1.0031 
G01 X-1.7911 Y1.0055 
G01 X-1.9275 Y1.1419 
G01 X-2.1025 Y1.1419 
G00 Z0.0200 
G00 X-1.4979 Y1.0368 
G01 Z-0.0100 F10.00 
G01 X-1.4983 Y1.0340 
G01 X-1.4971 Y1.0326 
G01 X-1.4961 Y1.0317 
G01 X-1.4969 Y1.0330 
G01 X-1.4969 Y1.0332 
G01 X-1.4970 Y1.0334 
G01 X-1.4975 Y1.0355 
G01 X-1.4979 Y1.0369 
G01 X-1.4979 Y1.0368 
G00 Z0.0200 
G00 X-1.3869 Y0.5525 
G01 Z-0.0100 F10.00 
G01 X-1.3855 Y0.5511 
G01 X-1.3831 Y0.5470 
G01 X-1.3819 Y0.5424 
G01 X-1.3819 Y0.5376 
G01 X-1.3831 Y0.5330 
G01 X-1.3855 Y0.5289 
G01 X-1.3869 Y0.5275 
G01 X-1.3869 Y0.5081 
G01 X-1.3270 Y0.5081 
G01 X-1.3278 Y0.5087 
G01 X-1.3323 Y0.5132 
G01 X-1.3362 Y0.5185 
G01 X-1.3391 Y0.5242 
G01 X-1.3411 Y0.5304 
G01 X-1.3421 Y0.5368 
G01 X-1.3421 Y0.5432 
G01 X-1.3411 Y0.5496 
G01 X-1.3391 Y0.5558 
G01 X-1.3365 Y0.5609 
G01 X-1.3745 Y0.5989 
G01 X-1.3769 Y0.6030 
G01 X-1.3781 Y0.6076 
G01 X-1.3781 Y0.6624 
G01 X-1.3769 Y0.6670 
G01 X-1.3745 Y0.6711 
G01 X-1.3711 Y0.6745 
G01 X-1.3711 Y0.6745 
G01 X-1.3411 Y0.7045 
G01 X-1.3370 Y0.7069 
G01 X-1.3324 Y0.7081 
G01 X-1.3270 Y0.7081 
G01 X-1.3278 Y0.7087 
G01 X-1.3323 Y0.7132 
G01 X-1.3362 Y0.7185 
G01 X-1.3379 Y0.7219 
G01 X-1.3393 Y0.7219 
G01 X-1.3410 Y0.7218 
G01 X-1.3417 Y0.7219 
G01 X-1.3424 Y0.7219 
G01 X-1.3440 Y0.7223 
G01 X-1.3457 Y0.7226 
G01 X-1.3463 Y0.7230 
G01 X-1.3470 Y0.7231 
G01 X-1.3484 Y0.7240 
G01 X-1.3500 Y0.7247 
G01 X-1.3505 Y0.7252 
G01 X-1.3511 Y0.7255 
G01 X-1.3523 Y0.7267 
G01 X-1.3855 Y0.7552 
G01 X-1.3861 Y0.7555 
G01 X-1.3869 Y0.7563 
G01 X-1.3869 Y0.5525 
G00 Z0.0200 
G00 X-1.3411 Y0.6496 
G01 Z-0.0100 F10.00 
G01 X-1.3393 Y0.6551 
G01 X-1.3419 Y0.6525 
G01 X-1.3419 Y0.6445 
G01 X-1.3411 Y0.6496 
G00 Z0.0200 
G00 X-1.3489 Y1.1530 
G01 Z-0.0100 F10.00 
G01 X-1.3638 Y1.1381 
G01 X-1.3175 Y1.1381 
G01 X-1.2841 Y1.1715 
G01 X-1.2838 Y1.1720 
G01 X-1.2831 Y1.1726 
G01 X-1.2831 Y1.1913 
G01 X-1.3089 Y1.1655 
G01 X-1.3130 Y1.1631 
G01 X-1.3176 Y1.1619 
G01 X-1.3489 Y1.1619 
G01 X-1.3489 Y1.1530 
G00 Z0.0200 
G00 X-0.1605 Y0.5343 
G01 Z-0.0100 F10.00 
G01 X-0.1581 Y0.5319 
G01 X-0.1581 Y0.5353 
G01 X-0.1605 Y0.5343 
G00 Z0.0200 
G00 X-0.1449 Y0.6187 
G01 Z-0.0100 F10.00 
G01 X-0.1449 Y0.5857 
G01 X-0.1181 Y0.6125 
G01 X-0.1181 Y0.6663 
G01 X-0.1181 Y0.6663 
G01 X-0.1189 Y0.6655 
G01 X-0.1200 Y0.6649 
G01 X-0.1581 Y0.6363 
G01 X-0.1589 Y0.6355 
G01 X-0.1600 Y0.6349 
G01 X-0.1606 Y0.6344 
G01 X-0.1449 Y0.6187 
G00 Z0.0200 
G00 X-0.2449 Y0.6187 
G01 Z-0.0100 F10.00 
G01 X-0.2449 Y0.5813 
G01 X-0.2581 Y0.5681 
G01 X-0.2219 Y0.5681 
G01 X-0.2351 Y0.5813 
G01 X-0.2351 Y0.6187 
G01 X-0.2219 Y0.6319 
G01 X-0.2581 Y0.6319 
G01 X-0.2449 Y0.6187 
G00 Z0.0200 
G00 X-0.7279 Y0.3668 
G01 Z-0.0100 F10.00 
G01 X-0.7289 Y0.3604 
G01 X-0.7309 Y0.3542 
G01 X-0.7338 Y0.3485 
G01 X-0.7377 Y0.3432 
G01 X-0.7422 Y0.3387 
G01 X-0.7475 Y0.3348 
G01 X-0.7532 Y0.3319 
G01 X-0.7594 Y0.3299 
G01 X-0.7658 Y0.3289 
G01 X-0.8342 Y0.3289 
G01 X-0.8406 Y0.3299 
G01 X-0.8468 Y0.3319 
G01 X-0.8525 Y0.3348 
G01 X-0.8578 Y0.3387 
G01 X-0.8623 Y0.3432 
G01 X-0.8662 Y0.3485 
G01 X-0.8691 Y0.3542 
G01 X-0.8711 Y0.3604 
G01 X-0.8721 Y0.3668 
G01 X-0.8721 Y0.3732 
G01 X-0.8711 Y0.3796 
G01 X-0.8691 Y0.3858 
G01 X-0.8662 Y0.3915 
G01 X-0.8623 Y0.3968 
G01 X-0.8578 Y0.4013 
G01 X-0.8570 Y0.4019 
G01 X-0.9069 Y0.4019 
G01 X-0.9069 Y0.3281 
G01 X-0.7125 Y0.3281 
G01 X-0.6661 Y0.3745 
G01 X-0.6620 Y0.3769 
G01 X-0.6574 Y0.3781 
G01 X-0.5325 Y0.3781 
G01 X-0.3461 Y0.5645 
G01 X-0.3420 Y0.5669 
G01 X-0.3374 Y0.5681 
G01 X-0.3219 Y0.5681 
G01 X-0.3351 Y0.5813 
G01 X-0.3351 Y0.6187 
G01 X-0.3219 Y0.6319 
G01 X-0.3325 Y0.6319 
G01 X-0.4619 Y0.5025 
G01 X-0.4631 Y0.4980 
G01 X-0.4655 Y0.4939 
G01 X-0.5405 Y0.4189 
G01 X-0.5439 Y0.4155 
G01 X-0.5480 Y0.4131 
G01 X-0.5526 Y0.4119 
G01 X-0.6875 Y0.4119 
G01 X-0.7279 Y0.3715 
G01 X-0.7279 Y0.3668 
G00 Z0.0200 
G00 X-0.3351 Y0.6813 
G01 Z-0.0100 F10.00 
G01 X-0.3351 Y0.7187 
G01 X-0.3219 Y0.7319 
G01 X-0.3524 Y0.7319 
G01 X-0.3570 Y0.7331 
G01 X-0.3611 Y0.7355 
G01 X-0.5075 Y0.8819 
G01 X-0.7355 Y0.8819 
G01 X-0.7314 Y0.8778 
G01 X-0.7276 Y0.8726 
G01 X-0.7247 Y0.8668 
G01 X-0.7227 Y0.8607 
G01 X-0.7217 Y0.8543 
G01 X-0.7217 Y0.7858 
G01 X-0.7227 Y0.7794 
G01 X-0.7247 Y0.7733 
G01 X-0.7257 Y0.7713 
G01 X-0.6555 Y0.7011 
G01 X-0.6531 Y0.6970 
G01 X-0.6519 Y0.6924 
G01 X-0.6519 Y0.5626 
G01 X-0.6531 Y0.5580 
G01 X-0.6555 Y0.5539 
G01 X-0.7983 Y0.4111 
G01 X-0.7658 Y0.4111 
G01 X-0.7594 Y0.4101 
G01 X-0.7532 Y0.4081 
G01 X-0.7475 Y0.4052 
G01 X-0.7463 Y0.4043 
G01 X-0.7061 Y0.4445 
G01 X-0.7020 Y0.4469 
G01 X-0.6974 Y0.4481 
G01 X-0.5625 Y0.4481 
G01 X-0.4981 Y0.5125 
G01 X-0.4969 Y0.5170 
G01 X-0.4945 Y0.5211 
G01 X-0.4911 Y0.5245 
G01 X-0.3511 Y0.6645 
G01 X-0.3470 Y0.6669 
G01 X-0.3424 Y0.6681 
G01 X-0.3219 Y0.6681 
G01 X-0.3351 Y0.6813 
G00 Z0.0200 
G00 X-0.2351 Y0.6813 
G01 Z-0.0100 F10.00 
G01 X-0.2351 Y0.7187 
G01 X-0.2087 Y0.7451 
G01 X-0.1713 Y0.7451 
G01 X-0.1481 Y0.7219 
G01 X-0.1481 Y0.7781 
G01 X-0.1713 Y0.7549 
G01 X-0.2087 Y0.7549 
G01 X-0.2091 Y0.7553 
G01 X-0.2255 Y0.7389 
G01 X-0.2289 Y0.7355 
G01 X-0.2330 Y0.7331 
G01 X-0.2376 Y0.7319 
G01 X-0.2581 Y0.7319 
G01 X-0.2449 Y0.7187 
G01 X-0.2449 Y0.6813 
G01 X-0.2581 Y0.6681 
G01 X-0.2219 Y0.6681 
G01 X-0.2351 Y0.6813 
G00 Z0.0200 
G00 X-0.2351 Y0.8813 
G01 Z-0.0100 F10.00 
G01 X-0.2351 Y0.9187 
G01 X-0.2347 Y0.9191 
G01 X-0.2475 Y0.9319 
G01 X-0.2581 Y0.9319 
G01 X-0.2449 Y0.9187 
G01 X-0.2449 Y0.8813 
G01 X-0.2453 Y0.8809 
G01 X-0.2325 Y0.8681 
G01 X-0.2219 Y0.8681 
G01 X-0.2351 Y0.8813 
G00 Z0.0200 
G00 X-0.2713 Y0.8549 
G01 Z-0.0100 F10.00 
G01 X-0.3087 Y0.8549 
G01 X-0.3351 Y0.8813 
G01 X-0.3351 Y0.9187 
G01 X-0.3219 Y0.9319 
G01 X-0.4324 Y0.9319 
G01 X-0.4329 Y0.9320 
G01 X-0.3312 Y0.8225 
G01 X-0.3087 Y0.8451 
G01 X-0.2713 Y0.8451 
G01 X-0.2449 Y0.8187 
G01 X-0.2449 Y0.7813 
G01 X-0.2581 Y0.7681 
G01 X-0.2475 Y0.7681 
G01 X-0.2347 Y0.7809 
G01 X-0.2351 Y0.7813 
G01 X-0.2351 Y0.8187 
G01 X-0.2219 Y0.8319 
G01 X-0.2424 Y0.8319 
G01 X-0.2470 Y0.8331 
G01 X-0.2511 Y0.8355 
G01 X-0.2709 Y0.8553 
G01 X-0.2713 Y0.8549 
G00 Z0.0200 
G00 X-0.1181 Y0.9072 
G01 Z-0.0100 F10.00 
G01 X-0.1700 Y0.9562 
G01 X-0.1713 Y0.9549 
G01 X-0.2087 Y0.9549 
G01 X-0.2351 Y0.9813 
G01 X-0.2351 Y1.0187 
G01 X-0.2322 Y1.0216 
G01 X-0.3525 Y1.1419 
G01 X-1.0895 Y1.1419 
G01 X-1.0913 Y1.1418 
G01 X-1.0918 Y1.1419 
G01 X-1.0924 Y1.1419 
G01 X-1.0929 Y1.1420 
G01 X-1.0954 Y1.1395 
G01 X-1.1022 Y1.1346 
G01 X-1.1096 Y1.1308 
G01 X-1.1176 Y1.1282 
G01 X-1.1182 Y1.1281 
G01 X-0.4976 Y1.1281 
G01 X-0.4930 Y1.1269 
G01 X-0.4889 Y1.1245 
G01 X-0.4855 Y1.1211 
G01 X-0.4055 Y1.0411 
G01 X-0.3930 Y1.0411 
G01 X-0.3689 Y1.0170 
G01 X-0.3689 Y1.0081 
G01 X-0.3351 Y1.0081 
G01 X-0.3351 Y1.0187 
G01 X-0.3087 Y1.0451 
G01 X-0.2713 Y1.0451 
G01 X-0.2449 Y1.0187 
G01 X-0.2449 Y0.9813 
G01 X-0.2581 Y0.9681 
G01 X-0.2376 Y0.9681 
G01 X-0.2330 Y0.9669 
G01 X-0.2289 Y0.9645 
G01 X-0.2091 Y0.9447 
G01 X-0.2087 Y0.9451 
G01 X-0.1713 Y0.9451 
G01 X-0.1449 Y0.9187 
G01 X-0.1449 Y0.8813 
G01 X-0.1606 Y0.8656 
G01 X-0.1600 Y0.8651 
G01 X-0.1589 Y0.8645 
G01 X-0.1581 Y0.8637 
G01 X-0.1200 Y0.8351 
G01 X-0.1189 Y0.8345 
G01 X-0.1181 Y0.8337 
G01 X-0.1181 Y0.8337 
G01 X-0.1181 Y0.9072 
G00 Z0.0200 
G00 X-0.9389 Y0.6755 
G01 Z-0.0100 F10.00 
G01 X-0.9430 Y0.6731 
G01 X-0.9476 Y0.6719 
G01 X-1.2130 Y0.6719 
G01 X-1.2122 Y0.6713 
G01 X-1.2077 Y0.6668 
G01 X-1.2038 Y0.6615 
G01 X-1.2009 Y0.6558 
G01 X-1.1989 Y0.6496 
G01 X-1.1987 Y0.6481 
G01 X-0.9220 Y0.6481 
G01 X-0.9220 Y0.6742 
G01 X-0.9210 Y0.6806 
G01 X-0.9190 Y0.6867 
G01 X-0.9160 Y0.6925 
G01 X-0.9122 Y0.6977 
G01 X-0.9076 Y0.7023 
G01 X-0.9024 Y0.7061 
G01 X-0.9008 Y0.7069 
G01 X-0.9075 Y0.7069 
G01 X-0.9389 Y0.6755 
G00 Z0.0200 
G00 X-1.2122 Y0.6087 
G01 Z-0.0100 F10.00 
G01 X-1.2175 Y0.6048 
G01 X-1.2232 Y0.6019 
G01 X-1.2294 Y0.5999 
G01 X-1.2358 Y0.5989 
G01 X-1.3042 Y0.5989 
G01 X-1.3106 Y0.5999 
G01 X-1.3168 Y0.6019 
G01 X-1.3225 Y0.6048 
G01 X-1.3278 Y0.6087 
G01 X-1.3323 Y0.6132 
G01 X-1.3362 Y0.6185 
G01 X-1.3391 Y0.6242 
G01 X-1.3411 Y0.6304 
G01 X-1.3419 Y0.6355 
G01 X-1.3419 Y0.6175 
G01 X-1.3053 Y0.5809 
G01 X-1.3042 Y0.5811 
G01 X-1.2358 Y0.5811 
G01 X-1.2294 Y0.5801 
G01 X-1.2232 Y0.5781 
G01 X-1.2175 Y0.5752 
G01 X-1.2122 Y0.5713 
G01 X-1.2077 Y0.5668 
G01 X-1.2038 Y0.5615 
G01 X-1.2009 Y0.5558 
G01 X-1.1989 Y0.5496 
G01 X-1.1979 Y0.5432 
G01 X-1.1979 Y0.5368 
G01 X-1.1989 Y0.5304 
G01 X-1.2009 Y0.5242 
G01 X-1.2038 Y0.5185 
G01 X-1.2077 Y0.5132 
G01 X-1.2122 Y0.5087 
G01 X-1.2130 Y0.5081 
G01 X-0.8925 Y0.5081 
G01 X-0.8255 Y0.5751 
G01 X-0.8289 Y0.5776 
G01 X-0.8335 Y0.5822 
G01 X-0.8373 Y0.5874 
G01 X-0.8402 Y0.5932 
G01 X-0.8415 Y0.5971 
G01 X-0.8428 Y0.5932 
G01 X-0.8457 Y0.5874 
G01 X-0.8495 Y0.5822 
G01 X-0.8541 Y0.5776 
G01 X-0.8593 Y0.5738 
G01 X-0.8651 Y0.5709 
G01 X-0.8712 Y0.5689 
G01 X-0.8776 Y0.5678 
G01 X-0.8841 Y0.5678 
G01 X-0.8905 Y0.5689 
G01 X-0.8966 Y0.5709 
G01 X-0.9024 Y0.5738 
G01 X-0.9076 Y0.5776 
G01 X-0.9122 Y0.5822 
G01 X-0.9160 Y0.5874 
G01 X-0.9190 Y0.5932 
G01 X-0.9210 Y0.5993 
G01 X-0.9220 Y0.6057 
G01 X-0.9220 Y0.6119 
G01 X-1.2090 Y0.6119 
G01 X-1.2122 Y0.6087 
G00 Z0.0200 
G00 X-0.8651 Y0.7090 
G01 Z-0.0100 F10.00 
G01 X-0.8593 Y0.7061 
G01 X-0.8541 Y0.7023 
G01 X-0.8495 Y0.6977 
G01 X-0.8457 Y0.6925 
G01 X-0.8428 Y0.6867 
G01 X-0.8415 Y0.6828 
G01 X-0.8402 Y0.6867 
G01 X-0.8373 Y0.6925 
G01 X-0.8335 Y0.6977 
G01 X-0.8289 Y0.7023 
G01 X-0.8237 Y0.7061 
G01 X-0.8179 Y0.7090 
G01 X-0.8118 Y0.7110 
G01 X-0.8054 Y0.7120 
G01 X-0.7989 Y0.7120 
G01 X-0.7925 Y0.7110 
G01 X-0.7863 Y0.7090 
G01 X-0.7806 Y0.7061 
G01 X-0.7754 Y0.7023 
G01 X-0.7708 Y0.6977 
G01 X-0.7670 Y0.6925 
G01 X-0.7640 Y0.6867 
G01 X-0.7628 Y0.6828 
G01 X-0.7615 Y0.6867 
G01 X-0.7585 Y0.6925 
G01 X-0.7547 Y0.6977 
G01 X-0.7502 Y0.7023 
G01 X-0.7449 Y0.7061 
G01 X-0.7392 Y0.7090 
G01 X-0.7330 Y0.7110 
G01 X-0.7266 Y0.7120 
G01 X-0.7202 Y0.7120 
G01 X-0.7172 Y0.7116 
G01 X-0.7544 Y0.7488 
G01 X-0.7595 Y0.7480 
G01 X-0.7660 Y0.7480 
G01 X-0.7724 Y0.7490 
G01 X-0.7785 Y0.7510 
G01 X-0.7843 Y0.7539 
G01 X-0.7895 Y0.7577 
G01 X-0.7941 Y0.7623 
G01 X-0.7979 Y0.7675 
G01 X-0.8008 Y0.7733 
G01 X-0.8021 Y0.7772 
G01 X-0.8034 Y0.7733 
G01 X-0.8063 Y0.7675 
G01 X-0.8101 Y0.7623 
G01 X-0.8147 Y0.7577 
G01 X-0.8200 Y0.7539 
G01 X-0.8257 Y0.7510 
G01 X-0.8275 Y0.7504 
G01 X-0.8281 Y0.7480 
G01 X-0.8305 Y0.7439 
G01 X-0.8339 Y0.7405 
G01 X-0.8339 Y0.7405 
G01 X-0.8639 Y0.7105 
G01 X-0.8660 Y0.7093 
G01 X-0.8651 Y0.7090 
G00 Z0.0200 
G00 X-1.1989 Y0.4304 
G01 Z-0.0100 F10.00 
G01 X-1.2009 Y0.4242 
G01 X-1.2038 Y0.4185 
G01 X-1.2077 Y0.4132 
G01 X-1.2122 Y0.4087 
G01 X-1.2175 Y0.4048 
G01 X-1.2232 Y0.4019 
G01 X-1.2294 Y0.3999 
G01 X-1.2358 Y0.3989 
G01 X-1.3042 Y0.3989 
G01 X-1.3106 Y0.3999 
G01 X-1.3168 Y0.4019 
G01 X-1.3225 Y0.4048 
G01 X-1.3278 Y0.4087 
G01 X-1.3323 Y0.4132 
G01 X-1.3362 Y0.4185 
G01 X-1.3391 Y0.4242 
G01 X-1.3411 Y0.4304 
G01 X-1.3421 Y0.4368 
G01 X-1.3421 Y0.4432 
G01 X-1.3411 Y0.4496 
G01 X-1.3391 Y0.4558 
G01 X-1.3362 Y0.4615 
G01 X-1.3323 Y0.4668 
G01 X-1.3278 Y0.4713 
G01 X-1.3270 Y0.4719 
G01 X-1.3869 Y0.4719 
G01 X-1.3869 Y0.3575 
G01 X-1.3589 Y0.3295 
G01 X-1.3555 Y0.3261 
G01 X-1.3531 Y0.3220 
G01 X-1.3519 Y0.3174 
G01 X-1.3519 Y0.2700 
G01 X-1.3289 Y0.2470 
G01 X-1.3289 Y0.2245 
G01 X-1.3025 Y0.1981 
G01 X-1.2962 Y0.1981 
G01 X-1.3111 Y0.2130 
G01 X-1.3111 Y0.2470 
G01 X-1.2870 Y0.2711 
G01 X-1.2781 Y0.2711 
G01 X-1.2781 Y0.2989 
G01 X-1.3042 Y0.2989 
G01 X-1.3106 Y0.2999 
G01 X-1.3168 Y0.3019 
G01 X-1.3225 Y0.3048 
G01 X-1.3278 Y0.3087 
G01 X-1.3323 Y0.3132 
G01 X-1.3362 Y0.3185 
G01 X-1.3391 Y0.3242 
G01 X-1.3411 Y0.3304 
G01 X-1.3421 Y0.3368 
G01 X-1.3421 Y0.3432 
G01 X-1.3411 Y0.3496 
G01 X-1.3391 Y0.3558 
G01 X-1.3362 Y0.3615 
G01 X-1.3323 Y0.3668 
G01 X-1.3278 Y0.3713 
G01 X-1.3225 Y0.3752 
G01 X-1.3168 Y0.3781 
G01 X-1.3106 Y0.3801 
G01 X-1.3042 Y0.3811 
G01 X-1.2358 Y0.3811 
G01 X-1.2294 Y0.3801 
G01 X-1.2232 Y0.3781 
G01 X-1.2175 Y0.3752 
G01 X-1.2122 Y0.3713 
G01 X-1.2077 Y0.3668 
G01 X-1.2038 Y0.3615 
G01 X-1.2017 Y0.3573 
G01 X-1.1506 Y0.3062 
G01 X-1.1468 Y0.3081 
G01 X-1.1406 Y0.3101 
G01 X-1.1342 Y0.3111 
G01 X-1.0658 Y0.3111 
G01 X-1.0594 Y0.3101 
G01 X-1.0532 Y0.3081 
G01 X-1.0475 Y0.3052 
G01 X-1.0422 Y0.3013 
G01 X-1.0390 Y0.2981 
G01 X-1.0175 Y0.2981 
G01 X-0.9911 Y0.3245 
G01 X-0.9870 Y0.3269 
G01 X-0.9824 Y0.3281 
G01 X-0.9431 Y0.3281 
G01 X-0.9431 Y0.4224 
G01 X-0.9419 Y0.4270 
G01 X-0.9395 Y0.4311 
G01 X-0.9387 Y0.4319 
G01 X-1.1987 Y0.4319 
G01 X-1.1989 Y0.4304 
G00 Z0.0200 
G00 X-0.6881 Y0.5725 
G01 Z-0.0100 F10.00 
G01 X-0.6881 Y0.5877 
G01 X-0.6882 Y0.5874 
G01 X-0.6920 Y0.5822 
G01 X-0.6966 Y0.5776 
G01 X-0.7018 Y0.5738 
G01 X-0.7019 Y0.5738 
G01 X-0.7019 Y0.5726 
G01 X-0.7031 Y0.5680 
G01 X-0.7055 Y0.5639 
G01 X-0.8313 Y0.4381 
G01 X-0.8225 Y0.4381 
G01 X-0.6881 Y0.5725 
G00 Z0.0200 
G00 X-0.7502 Y0.5776 
G01 Z-0.0100 F10.00 
G01 X-0.7547 Y0.5822 
G01 X-0.7585 Y0.5874 
G01 X-0.7615 Y0.5932 
G01 X-0.7628 Y0.5971 
G01 X-0.7640 Y0.5932 
G01 X-0.7670 Y0.5874 
G01 X-0.7708 Y0.5822 
G01 X-0.7754 Y0.5776 
G01 X-0.7806 Y0.5738 
G01 X-0.7819 Y0.5731 
G01 X-0.7819 Y0.5726 
G01 X-0.7831 Y0.5680 
G01 X-0.7855 Y0.5639 
G01 X-0.7889 Y0.5605 
G01 X-0.8705 Y0.4789 
G01 X-0.8739 Y0.4755 
G01 X-0.8780 Y0.4731 
G01 X-0.8826 Y0.4719 
G01 X-1.2130 Y0.4719 
G01 X-1.2122 Y0.4713 
G01 X-1.2090 Y0.4681 
G01 X-0.8525 Y0.4681 
G01 X-0.7460 Y0.5746 
G01 X-0.7502 Y0.5776 
G00 Z0.0200 
G00 X-1.9026 Y0.2851 
G01 Z-0.0100 F10.00 
G01 X-1.9025 Y0.2852 
G01 X-1.8968 Y0.2881 
G01 X-1.8906 Y0.2901 
G01 X-1.8842 Y0.2911 
G01 X-1.8158 Y0.2911 
G01 X-1.8147 Y0.2909 
G01 X-1.6511 Y0.4545 
G01 X-1.6470 Y0.4569 
G01 X-1.6424 Y0.4581 
G01 X-1.6379 Y0.4581 
G01 X-1.6362 Y0.4615 
G01 X-1.6323 Y0.4668 
G01 X-1.6278 Y0.4713 
G01 X-1.6225 Y0.4752 
G01 X-1.6168 Y0.4781 
G01 X-1.6106 Y0.4801 
G01 X-1.6042 Y0.4811 
G01 X-1.5358 Y0.4811 
G01 X-1.5294 Y0.4801 
G01 X-1.5232 Y0.4781 
G01 X-1.5175 Y0.4752 
G01 X-1.5122 Y0.4713 
G01 X-1.5081 Y0.4672 
G01 X-1.5081 Y0.5128 
G01 X-1.5122 Y0.5087 
G01 X-1.5175 Y0.5048 
G01 X-1.5232 Y0.5019 
G01 X-1.5294 Y0.4999 
G01 X-1.5358 Y0.4989 
G01 X-1.6042 Y0.4989 
G01 X-1.6106 Y0.4999 
G01 X-1.6168 Y0.5019 
G01 X-1.6225 Y0.5048 
G01 X-1.6266 Y0.5078 
G01 X-1.6655 Y0.4689 
G01 X-1.6689 Y0.4655 
G01 X-1.6730 Y0.4631 
G01 X-1.6776 Y0.4619 
G01 X-1.7600 Y0.4619 
G01 X-1.7830 Y0.4389 
G01 X-1.8055 Y0.4389 
G01 X-1.8319 Y0.4125 
G01 X-1.8319 Y0.3911 
G01 X-1.8158 Y0.3911 
G01 X-1.8094 Y0.3901 
G01 X-1.8032 Y0.3881 
G01 X-1.7975 Y0.3852 
G01 X-1.7922 Y0.3813 
G01 X-1.7877 Y0.3768 
G01 X-1.7838 Y0.3715 
G01 X-1.7809 Y0.3658 
G01 X-1.7789 Y0.3596 
G01 X-1.7779 Y0.3532 
G01 X-1.7779 Y0.3468 
G01 X-1.7789 Y0.3404 
G01 X-1.7809 Y0.3342 
G01 X-1.7838 Y0.3285 
G01 X-1.7877 Y0.3232 
G01 X-1.7922 Y0.3187 
G01 X-1.7975 Y0.3148 
G01 X-1.8032 Y0.3119 
G01 X-1.8094 Y0.3099 
G01 X-1.8158 Y0.3089 
G01 X-1.8842 Y0.3089 
G01 X-1.8906 Y0.3099 
G01 X-1.8968 Y0.3119 
G01 X-1.9025 Y0.3148 
G01 X-1.9078 Y0.3187 
G01 X-1.9119 Y0.3228 
G01 X-1.9119 Y0.2932 
G01 X-1.9026 Y0.2851 
G00 Z0.0200 
G00 X-1.9919 Y0.3974 
G01 Z-0.0100 F10.00 
G01 X-1.9919 Y0.1875 
G01 X-1.9025 Y0.0981 
G01 X-1.4737 Y0.0981 
G01 X-1.5045 Y0.1289 
G01 X-1.5069 Y0.1330 
G01 X-1.5081 Y0.1376 
G01 X-1.5081 Y0.3128 
G01 X-1.5122 Y0.3087 
G01 X-1.5175 Y0.3048 
G01 X-1.5232 Y0.3019 
G01 X-1.5294 Y0.2999 
G01 X-1.5358 Y0.2989 
G01 X-1.5855 Y0.2989 
G01 X-1.7366 Y0.1478 
G01 X-1.7375 Y0.1467 
G01 X-1.7382 Y0.1462 
G01 X-1.7389 Y0.1455 
G01 X-1.7402 Y0.1448 
G01 X-1.7414 Y0.1439 
G01 X-1.7422 Y0.1436 
G01 X-1.7430 Y0.1431 
G01 X-1.7444 Y0.1428 
G01 X-1.7458 Y0.1422 
G01 X-1.7467 Y0.1421 
G01 X-1.7476 Y0.1419 
G01 X-1.7491 Y0.1419 
G01 X-1.7794 Y0.1389 
G01 X-1.7809 Y0.1342 
G01 X-1.7838 Y0.1285 
G01 X-1.7877 Y0.1232 
G01 X-1.7922 Y0.1187 
G01 X-1.7975 Y0.1148 
G01 X-1.8032 Y0.1119 
G01 X-1.8094 Y0.1099 
G01 X-1.8158 Y0.1089 
G01 X-1.8842 Y0.1089 
G01 X-1.8906 Y0.1099 
G01 X-1.8968 Y0.1119 
G01 X-1.9025 Y0.1148 
G01 X-1.9078 Y0.1187 
G01 X-1.9123 Y0.1232 
G01 X-1.9162 Y0.1285 
G01 X-1.9191 Y0.1342 
G01 X-1.9211 Y0.1404 
G01 X-1.9221 Y0.1468 
G01 X-1.9221 Y0.1532 
G01 X-1.9218 Y0.1549 
G01 X-1.9805 Y0.2052 
G01 X-1.9811 Y0.2055 
G01 X-1.9823 Y0.2067 
G01 X-1.9836 Y0.2078 
G01 X-1.9840 Y0.2084 
G01 X-1.9845 Y0.2089 
G01 X-1.9853 Y0.2103 
G01 X-1.9863 Y0.2117 
G01 X-1.9865 Y0.2124 
G01 X-1.9869 Y0.2130 
G01 X-1.9873 Y0.2146 
G01 X-1.9879 Y0.2162 
G01 X-1.9879 Y0.2169 
G01 X-1.9881 Y0.2176 
G01 X-1.9881 Y0.2193 
G01 X-1.9882 Y0.2210 
G01 X-1.9881 Y0.2217 
G01 X-1.9881 Y0.3932 
G01 X-1.9920 Y0.3976 
G01 X-1.9919 Y0.3974 
G00 Z0.0200 
G00 X-2.0811 Y0.4630 
G01 Z-0.0100 F10.00 
G01 X-2.0811 Y0.4970 
G01 X-2.0570 Y0.5211 
G01 X-2.0230 Y0.5211 
G01 X-1.9989 Y0.4970 
G01 X-1.9989 Y0.4630 
G01 X-2.0000 Y0.4618 
G01 X-1.9568 Y0.4124 
G01 X-1.9555 Y0.4111 
G01 X-1.9552 Y0.4106 
G01 X-1.9548 Y0.4101 
G01 X-1.9540 Y0.4085 
G01 X-1.9531 Y0.4070 
G01 X-1.9530 Y0.4064 
G01 X-1.9527 Y0.4058 
G01 X-1.9524 Y0.4041 
G01 X-1.9519 Y0.4024 
G01 X-1.9519 Y0.4018 
G01 X-1.9518 Y0.4012 
G01 X-1.9519 Y0.3994 
G01 X-1.9519 Y0.2283 
G01 X-1.9019 Y0.1855 
G01 X-1.8968 Y0.1881 
G01 X-1.8906 Y0.1901 
G01 X-1.8842 Y0.1911 
G01 X-1.8158 Y0.1911 
G01 X-1.8094 Y0.1901 
G01 X-1.8032 Y0.1881 
G01 X-1.7975 Y0.1852 
G01 X-1.7922 Y0.1813 
G01 X-1.7877 Y0.1768 
G01 X-1.7861 Y0.1746 
G01 X-1.7582 Y0.1774 
G01 X-1.6273 Y0.3083 
G01 X-1.6278 Y0.3087 
G01 X-1.6323 Y0.3132 
G01 X-1.6362 Y0.3185 
G01 X-1.6391 Y0.3242 
G01 X-1.6411 Y0.3304 
G01 X-1.6421 Y0.3368 
G01 X-1.6421 Y0.3432 
G01 X-1.6411 Y0.3496 
G01 X-1.6391 Y0.3558 
G01 X-1.6362 Y0.3615 
G01 X-1.6323 Y0.3668 
G01 X-1.6278 Y0.3713 
G01 X-1.6225 Y0.3752 
G01 X-1.6168 Y0.3781 
G01 X-1.6106 Y0.3801 
G01 X-1.6042 Y0.3811 
G01 X-1.5358 Y0.3811 
G01 X-1.5294 Y0.3801 
G01 X-1.5232 Y0.3781 
G01 X-1.5175 Y0.3752 
G01 X-1.5122 Y0.3713 
G01 X-1.5081 Y0.3672 
G01 X-1.5081 Y0.4128 
G01 X-1.5122 Y0.4087 
G01 X-1.5175 Y0.4048 
G01 X-1.5232 Y0.4019 
G01 X-1.5294 Y0.3999 
G01 X-1.5358 Y0.3989 
G01 X-1.6042 Y0.3989 
G01 X-1.6106 Y0.3999 
G01 X-1.6168 Y0.4019 
G01 X-1.6225 Y0.4048 
G01 X-1.6278 Y0.4087 
G01 X-1.6323 Y0.4132 
G01 X-1.6361 Y0.4183 
G01 X-1.7835 Y0.2709 
G01 X-1.7809 Y0.2658 
G01 X-1.7789 Y0.2596 
G01 X-1.7779 Y0.2532 
G01 X-1.7779 Y0.2468 
G01 X-1.7789 Y0.2404 
G01 X-1.7809 Y0.2342 
G01 X-1.7838 Y0.2285 
G01 X-1.7877 Y0.2232 
G01 X-1.7922 Y0.2187 
G01 X-1.7975 Y0.2148 
G01 X-1.8032 Y0.2119 
G01 X-1.8094 Y0.2099 
G01 X-1.8158 Y0.2089 
G01 X-1.8842 Y0.2089 
G01 X-1.8906 Y0.2099 
G01 X-1.8968 Y0.2119 
G01 X-1.9025 Y0.2148 
G01 X-1.9078 Y0.2187 
G01 X-1.9123 Y0.2232 
G01 X-1.9162 Y0.2285 
G01 X-1.9191 Y0.2342 
G01 X-1.9211 Y0.2404 
G01 X-1.9221 Y0.2468 
G01 X-1.9221 Y0.2532 
G01 X-1.9220 Y0.2539 
G01 X-1.9406 Y0.2702 
G01 X-1.9411 Y0.2705 
G01 X-1.9424 Y0.2718 
G01 X-1.9437 Y0.2729 
G01 X-1.9441 Y0.2735 
G01 X-1.9445 Y0.2739 
G01 X-1.9454 Y0.2754 
G01 X-1.9464 Y0.2769 
G01 X-1.9466 Y0.2775 
G01 X-1.9469 Y0.2780 
G01 X-1.9473 Y0.2797 
G01 X-1.9479 Y0.2814 
G01 X-1.9479 Y0.2820 
G01 X-1.9481 Y0.2826 
G01 X-1.9481 Y0.2844 
G01 X-1.9482 Y0.2862 
G01 X-1.9481 Y0.2868 
G01 X-1.9481 Y0.4500 
G01 X-1.9611 Y0.4630 
G01 X-1.9611 Y0.4970 
G01 X-1.9370 Y0.5211 
G01 X-1.9030 Y0.5211 
G01 X-1.8789 Y0.4970 
G01 X-1.8789 Y0.4630 
G01 X-1.9030 Y0.4389 
G01 X-1.9119 Y0.4389 
G01 X-1.9119 Y0.3772 
G01 X-1.9078 Y0.3813 
G01 X-1.9025 Y0.3852 
G01 X-1.8968 Y0.3881 
G01 X-1.8906 Y0.3901 
G01 X-1.8842 Y0.3911 
G01 X-1.8681 Y0.3911 
G01 X-1.8681 Y0.4224 
G01 X-1.8669 Y0.4270 
G01 X-1.8645 Y0.4311 
G01 X-1.8611 Y0.4345 
G01 X-1.8611 Y0.4345 
G01 X-1.8369 Y0.4587 
G01 X-1.8411 Y0.4630 
G01 X-1.8411 Y0.4970 
G01 X-1.8170 Y0.5211 
G01 X-1.7830 Y0.5211 
G01 X-1.7600 Y0.4981 
G01 X-1.6875 Y0.4981 
G01 X-1.6421 Y0.5435 
G01 X-1.6411 Y0.5496 
G01 X-1.6391 Y0.5558 
G01 X-1.6362 Y0.5615 
G01 X-1.6323 Y0.5668 
G01 X-1.6278 Y0.5713 
G01 X-1.6225 Y0.5752 
G01 X-1.6168 Y0.5781 
G01 X-1.6106 Y0.5801 
G01 X-1.6042 Y0.5811 
G01 X-1.5358 Y0.5811 
G01 X-1.5294 Y0.5801 
G01 X-1.5232 Y0.5781 
G01 X-1.5175 Y0.5752 
G01 X-1.5122 Y0.5713 
G01 X-1.5081 Y0.5672 
G01 X-1.5081 Y0.6128 
G01 X-1.5122 Y0.6087 
G01 X-1.5175 Y0.6048 
G01 X-1.5232 Y0.6019 
G01 X-1.5294 Y0.5999 
G01 X-1.5358 Y0.5989 
G01 X-1.6042 Y0.5989 
G01 X-1.6106 Y0.5999 
G01 X-1.6168 Y0.6019 
G01 X-1.6225 Y0.6048 
G01 X-1.6278 Y0.6087 
G01 X-1.6323 Y0.6132 
G01 X-1.6362 Y0.6185 
G01 X-1.6391 Y0.6242 
G01 X-1.6411 Y0.6304 
G01 X-1.6419 Y0.6355 
G01 X-1.6419 Y0.5776 
G01 X-1.6431 Y0.5730 
G01 X-1.6455 Y0.5689 
G01 X-1.6489 Y0.5655 
G01 X-1.6489 Y0.5655 
G01 X-1.6789 Y0.5355 
G01 X-1.6830 Y0.5331 
G01 X-1.6876 Y0.5319 
G01 X-2.0625 Y0.5319 
G01 X-2.0919 Y0.5025 
G01 X-2.0919 Y0.4725 
G01 X-2.0525 Y0.4331 
G01 X-2.0276 Y0.4331 
G01 X-2.0230 Y0.4319 
G01 X-2.0208 Y0.4306 
G01 X-2.0281 Y0.4389 
G01 X-2.0570 Y0.4389 
G01 X-2.0811 Y0.4630 
G00 Z0.0200 
G00 X-0.3257 Y0.9719 
G01 Z-0.0100 F10.00 
G01 X-0.3800 Y0.9719 
G01 X-0.3838 Y0.9681 
G01 X-0.3219 Y0.9681 
G01 X-0.3257 Y0.9719 
G00 Z0.0200 
G00 X-0.8101 Y0.8778 
G01 Z-0.0100 F10.00 
G01 X-0.8063 Y0.8726 
G01 X-0.8034 Y0.8668 
G01 X-0.8021 Y0.8629 
G01 X-0.8008 Y0.8668 
G01 X-0.7979 Y0.8726 
G01 X-0.7941 Y0.8778 
G01 X-0.7900 Y0.8819 
G01 X-0.8142 Y0.8819 
G01 X-0.8101 Y0.8778 
G00 Z0.0200 
G00 X-0.8889 Y0.8778 
G01 Z-0.0100 F10.00 
G01 X-0.8851 Y0.8726 
G01 X-0.8821 Y0.8668 
G01 X-0.8809 Y0.8629 
G01 X-0.8796 Y0.8668 
G01 X-0.8766 Y0.8726 
G01 X-0.8728 Y0.8778 
G01 X-0.8688 Y0.8819 
G01 X-0.8930 Y0.8819 
G01 X-0.8889 Y0.8778 
G00 Z0.0200 
G00 X-0.4419 Y1.0263 
G01 Z-0.0100 F10.00 
G01 X-0.4439 Y1.0283 
G01 X-0.4431 Y1.0270 
G01 X-0.4427 Y1.0254 
G01 X-0.4419 Y1.0263 
G00 Z0.0200 
G00 X-1.1754 Y1.1522 
G01 Z-0.0100 F10.00 
G01 X-1.1779 Y1.1570 
G01 X-1.1797 Y1.1553 
G01 X-1.1723 Y1.1479 
G01 X-1.1754 Y1.1522 
G00 Z0.0200 
G00 X-1.1418 Y1.1281 
G01 Z-0.0100 F10.00 
G01 X-1.1424 Y1.1282 
G01 X-1.1504 Y1.1308 
G01 X-1.1578 Y1.1346 
G01 X-1.1621 Y1.1377 
G01 X-1.1525 Y1.1281 
G01 X-1.1418 Y1.1281 
G00 Z0.0200 
G00 X-2.0375 Y0.0681 
G01 Z-0.0100 F10.00 
G01 X-1.9237 Y0.0681 
G01 X-2.0245 Y0.1689 
G01 X-2.0269 Y0.1730 
G01 X-2.0281 Y0.1776 
G01 X-2.0281 Y0.3875 
