( This gcode generated by /root/.eagle/ulp/pcb-gcode.ulp )
( Copyright 2005 by John Johnson. See readme.txt for licensing terms. )

( This file generated from the board /root/Downloads/pcb-gcode-3.3.3/04151_lcdi2c.brd )
( This file generated 23 Sep 2015 21:00:43 )

( T01 0.125000 )
( T02 0.032000 )
( T03 0.040000 )
( T04 0.086000 )
G20

G90
M05
G00 X5.5000 Y3.4000 Z7.6000 
M06 T01  ; 0.1250 
G00 Z0.0200 
M03
G04 P3.000000
G00 Z0.020000
G00 X-0.1500 Y0.1300 
G01 Z-0.1200 F5.00  
G01 Z0.020000
(R0.0200  P10.000000)
(G00 Z0.020000)
G00 X-0.1500 Y1.1900 
G01 Z-0.120000
G01 Z0.020000
M05
G00 X5.5000 Y3.4000 Z7.6000 
M06 T02  ; 0.0320 
G00 Z0.0200 
M03
G04 P3.000000
G00 Z0.020000
G00 X-1.2700 Y0.2300 
G01 Z-0.1200 F5.00  
G01 Z0.020000
(R0.0200  P10.000000)
(G00 Z0.020000)
G00 X-1.2700 Y0.3400 
G01 Z-0.120000
G01 Z0.020000
(G00 Z0.020000)
G00 X-1.2700 Y0.4400 
G01 Z-0.120000
G01 Z0.020000
(G00 Z0.020000)
G00 X-1.2700 Y0.5400 
G01 Z-0.120000
G01 Z0.020000
(G00 Z0.020000)
G00 X-1.2700 Y0.6400 
G01 Z-0.120000
G01 Z0.020000
(G00 Z0.020000)
G00 X-1.2700 Y0.7400 
G01 Z-0.120000
G01 Z0.020000
(G00 Z0.020000)
G00 X-1.2700 Y0.8400 
G01 Z-0.120000
G01 Z0.020000
(G00 Z0.020000)
G00 X-1.2700 Y0.9400 
G01 Z-0.120000
G01 Z0.020000
(G00 Z0.020000)
G00 X-1.2700 Y1.0400 
G01 Z-0.120000
G01 Z0.020000
(G00 Z0.020000)
G00 X-1.3700 Y0.2300 
G01 Z-0.120000
G01 Z0.020000
(G00 Z0.020000)
G00 X-1.3900 Y1.1700 
G01 Z-0.120000
G01 Z0.020000
(G00 Z0.020000)
G00 X-1.4400 Y1.2450 
G01 Z-0.120000
G01 Z0.020000
(G00 Z0.020000)
G00 X-1.4900 Y1.1700 
G01 Z-0.120000
G01 Z0.020000
(G00 Z0.020000)
G00 X-1.5700 Y0.3400 
G01 Z-0.120000
G01 Z0.020000
(G00 Z0.020000)
G00 X-1.5700 Y0.4400 
G01 Z-0.120000
G01 Z0.020000
(G00 Z0.020000)
G00 X-1.5700 Y0.5400 
G01 Z-0.120000
G01 Z0.020000
(G00 Z0.020000)
G00 X-1.5700 Y0.6400 
G01 Z-0.120000
G01 Z0.020000
(G00 Z0.020000)
G00 X-1.5700 Y0.7400 
G01 Z-0.120000
G01 Z0.020000
(G00 Z0.020000)
G00 X-1.5700 Y0.8400 
G01 Z-0.120000
G01 Z0.020000
(G00 Z0.020000)
G00 X-1.5700 Y0.9400 
G01 Z-0.120000
G01 Z0.020000
(G00 Z0.020000)
G00 X-1.5700 Y1.0400 
G01 Z-0.120000
G01 Z0.020000
(G00 Z0.020000)
G00 X-1.7500 Y1.1200 
G01 Z-0.120000
G01 Z0.020000
(G00 Z0.020000)
G00 X-1.7500 Y1.2200 
G01 Z-0.120000
G01 Z0.020000
(G00 Z0.020000)
G00 X-1.8000 Y0.4800 
G01 Z-0.120000
G01 Z0.020000
(G00 Z0.020000)
G00 X-1.8000 Y0.6800 
G01 Z-0.120000
G01 Z0.020000
(G00 Z0.020000)
G00 X-1.8500 Y0.1500 
G01 Z-0.120000
G01 Z0.020000
(G00 Z0.020000)
G00 X-1.8500 Y0.2500 
G01 Z-0.120000
G01 Z0.020000
(G00 Z0.020000)
G00 X-1.8500 Y0.3500 
G01 Z-0.120000
G01 Z0.020000
(G00 Z0.020000)
G00 X-1.9200 Y0.4800 
G01 Z-0.120000
G01 Z0.020000
(G00 Z0.020000)
G00 X-1.9200 Y0.6800 
G01 Z-0.120000
G01 Z0.020000
(G00 Z0.020000)
G00 X-2.0400 Y0.4800 
G01 Z-0.120000
G01 Z0.020000
(G00 Z0.020000)
G00 X-2.0400 Y0.6800 
G01 Z-0.120000
G01 Z0.020000
(G00 Z0.020000)
G00 X-2.1500 Y0.1500 
G01 Z-0.120000
G01 Z0.020000
(G00 Z0.020000)
G00 X-2.1500 Y0.2500 
G01 Z-0.120000
G01 Z0.020000
(G00 Z0.020000)
G00 X-2.1500 Y0.3500 
G01 Z-0.120000
G01 Z0.020000
(G00 Z0.020000)
G00 X-0.4100 Y1.0000 
G01 Z-0.120000
G01 Z0.020000
(G00 Z0.020000)
G00 X-0.5100 Y1.0000 
G01 Z-0.120000
G01 Z0.020000
(G00 Z0.020000)
G00 X-0.6000 Y0.2700 
G01 Z-0.120000
G01 Z0.020000
(G00 Z0.020000)
G00 X-0.7234 Y0.6709 
G01 Z-0.120000
G01 Z0.020000
(G00 Z0.020000)
G00 X-0.7628 Y0.7891 
G01 Z-0.120000
G01 Z0.020000
(G00 Z0.020000)
G00 X-0.8000 Y0.3700 
G01 Z-0.120000
G01 Z0.020000
(G00 Z0.020000)
G00 X-0.8021 Y0.6709 
G01 Z-0.120000
G01 Z0.020000
(G00 Z0.020000)
G00 X-0.8415 Y0.7891 
G01 Z-0.120000
G01 Z0.020000
(G00 Z0.020000)
G00 X-0.8809 Y0.6709 
G01 Z-0.120000
G01 Z0.020000
(G00 Z0.020000)
G00 X-0.9202 Y0.7891 
G01 Z-0.120000
G01 Z0.020000
(G00 Z0.020000)
G00 X-1.1000 Y0.2700 
G01 Z-0.120000
G01 Z0.020000
(G00 Z0.020000)
G00 X-1.1300 Y1.1800 
G01 Z-0.120000
G01 Z0.020000
(G00 Z0.020000)
G00 X-1.2300 Y1.1800 
G01 Z-0.120000
G01 Z0.020000
M05
G00 X5.5000 Y3.4000 Z7.6000 
M06 T03  ; 0.0400 
G00 Z0.0200 
M03
G04 P3.000000
G00 Z0.020000
G00 X-0.1900 Y0.4000 
G01 Z-0.1200 F5.00  
G01 Z0.020000
(R0.0200  P10.000000)
(G00 Z0.020000)
G00 X-0.1900 Y0.5000 
G01 Z-0.120000
G01 Z0.020000
(G00 Z0.020000)
G00 X-0.1900 Y0.6000 
G01 Z-0.120000
G01 Z0.020000
(G00 Z0.020000)
G00 X-0.1900 Y0.7000 
G01 Z-0.120000
G01 Z0.020000
(G00 Z0.020000)
G00 X-0.1900 Y0.8000 
G01 Z-0.120000
G01 Z0.020000
(G00 Z0.020000)
G00 X-0.1900 Y0.9000 
G01 Z-0.120000
G01 Z0.020000
(G00 Z0.020000)
G00 X-0.1900 Y1.0000 
G01 Z-0.120000
G01 Z0.020000
(G00 Z0.020000)
G00 X-2.0000 Y1.0300 
G01 Z-0.120000
G01 Z0.020000
(G00 Z0.020000)
G00 X-2.3000 Y1.0300 
G01 Z-0.120000
G01 Z0.020000
(G00 Z0.020000)
G00 X-0.2900 Y0.4000 
G01 Z-0.120000
G01 Z0.020000
(G00 Z0.020000)
G00 X-0.2900 Y0.5000 
G01 Z-0.120000
G01 Z0.020000
(G00 Z0.020000)
G00 X-0.2900 Y0.6000 
G01 Z-0.120000
G01 Z0.020000
(G00 Z0.020000)
G00 X-0.2900 Y0.7000 
G01 Z-0.120000
G01 Z0.020000
(G00 Z0.020000)
G00 X-0.2900 Y0.8000 
G01 Z-0.120000
G01 Z0.020000
(G00 Z0.020000)
G00 X-0.2900 Y0.9000 
G01 Z-0.120000
G01 Z0.020000
(G00 Z0.020000)
G00 X-0.2900 Y1.0000 
G01 Z-0.120000
G01 Z0.020000
M05
G00 X5.5000 Y3.4000 Z7.6000 
M06 T04  ; 0.0860 
G00 Z0.0200 
M03
G04 P3.000000
G00 Z0.020000
G00 X-0.5029 Y0.7576 
G01 Z-0.1200 F5.00  
G01 Z0.020000
(R0.0200  P10.000000)
(G00 Z0.020000)
G00 X-1.1171 Y0.7576 
G01 Z-0.120000
G01 Z0.020000
(File Footer)
T01 
G00 Z0.5000 
M05
M02
