( This gcode generated by /root/.eagle/ulp/pcb-gcode.ulp )
( Copyright 2005 by John Johnson. See readme.txt for licensing terms. )

( This file generated from the board /root/Downloads/pcb-gcode-3.3.3/04151_lcdi2c.brd )
( This file generated 23 Sep 2015 21:00:37 )

G20

G90
G00 Z0.5000 
G00 X0 Y0
M03
G04 P3.000000
G00 Z0.0200 
G00 X0.8382 Y0.6054 
G01 Z-0.0100 F10.00 
G01 X0.8382 Y0.6745 
G01 X0.8368 Y0.6815 
G01 X0.8341 Y0.6880 
G01 X0.8302 Y0.6940 
G01 X0.8251 Y0.6990 
G01 X0.8192 Y0.7029 
G01 X0.8127 Y0.7057 
G01 X0.8057 Y0.7070 
G01 X0.7986 Y0.7070 
G01 X0.7916 Y0.7057 
G01 X0.7850 Y0.7029 
G01 X0.7791 Y0.6990 
G01 X0.7741 Y0.6940 
G01 X0.7701 Y0.6880 
G01 X0.7674 Y0.6815 
G01 X0.7660 Y0.6745 
G01 X0.7660 Y0.6054 
G01 X0.7674 Y0.5984 
G01 X0.7701 Y0.5918 
G01 X0.7741 Y0.5859 
G01 X0.7791 Y0.5809 
G01 X0.7850 Y0.5770 
G01 X0.7916 Y0.5742 
G01 X0.7986 Y0.5728 
G01 X0.8057 Y0.5728 
G01 X0.8127 Y0.5742 
G01 X0.8192 Y0.5770 
G01 X0.8251 Y0.5809 
G01 X0.8302 Y0.5859 
G01 X0.8341 Y0.5918 
G01 X0.8368 Y0.5984 
G01 X0.8382 Y0.6054 
G00 Z0.0200 
G00 X0.8054 Y0.8546 
G01 Z-0.0100 F10.00 
G01 X0.8054 Y0.7855 
G01 X0.8068 Y0.7785 
G01 X0.8095 Y0.7720 
G01 X0.8135 Y0.7660 
G01 X0.8185 Y0.7610 
G01 X0.8244 Y0.7571 
G01 X0.8310 Y0.7543 
G01 X0.8379 Y0.7530 
G01 X0.8451 Y0.7530 
G01 X0.8520 Y0.7543 
G01 X0.8586 Y0.7571 
G01 X0.8645 Y0.7610 
G01 X0.8695 Y0.7660 
G01 X0.8735 Y0.7720 
G01 X0.8762 Y0.7785 
G01 X0.8776 Y0.7855 
G01 X0.8776 Y0.8546 
G01 X0.8762 Y0.8616 
G01 X0.8735 Y0.8682 
G01 X0.8695 Y0.8741 
G01 X0.8645 Y0.8791 
G01 X0.8586 Y0.8830 
G01 X0.8520 Y0.8858 
G01 X0.8451 Y0.8872 
G01 X0.8379 Y0.8872 
G01 X0.8310 Y0.8858 
G01 X0.8244 Y0.8830 
G01 X0.8185 Y0.8791 
G01 X0.8135 Y0.8741 
G01 X0.8095 Y0.8682 
G01 X0.8068 Y0.8616 
G01 X0.8054 Y0.8546 
G00 Z0.0200 
G00 X0.7595 Y0.6054 
G01 Z-0.0100 F10.00 
G01 X0.7595 Y0.6745 
G01 X0.7581 Y0.6815 
G01 X0.7554 Y0.6880 
G01 X0.7514 Y0.6940 
G01 X0.7464 Y0.6990 
G01 X0.7405 Y0.7029 
G01 X0.7339 Y0.7057 
G01 X0.7269 Y0.7070 
G01 X0.7198 Y0.7070 
G01 X0.7129 Y0.7057 
G01 X0.7063 Y0.7029 
G01 X0.7004 Y0.6990 
G01 X0.6953 Y0.6940 
G01 X0.6914 Y0.6880 
G01 X0.6887 Y0.6815 
G01 X0.6873 Y0.6745 
G01 X0.6873 Y0.6054 
G01 X0.6887 Y0.5984 
G01 X0.6914 Y0.5918 
G01 X0.6953 Y0.5859 
G01 X0.7004 Y0.5809 
G01 X0.7063 Y0.5770 
G01 X0.7129 Y0.5742 
G01 X0.7198 Y0.5728 
G01 X0.7269 Y0.5728 
G01 X0.7339 Y0.5742 
G01 X0.7405 Y0.5770 
G01 X0.7464 Y0.5809 
G01 X0.7514 Y0.5859 
G01 X0.7554 Y0.5918 
G01 X0.7581 Y0.5984 
G01 X0.7595 Y0.6054 
G00 Z0.0200 
G00 X0.9170 Y0.6054 
G01 Z-0.0100 F10.00 
G01 X0.9170 Y0.6745 
G01 X0.9156 Y0.6815 
G01 X0.9129 Y0.6880 
G01 X0.9089 Y0.6940 
G01 X0.9039 Y0.6990 
G01 X0.8980 Y0.7029 
G01 X0.8914 Y0.7057 
G01 X0.8844 Y0.7070 
G01 X0.8773 Y0.7070 
G01 X0.8703 Y0.7057 
G01 X0.8638 Y0.7029 
G01 X0.8579 Y0.6990 
G01 X0.8528 Y0.6940 
G01 X0.8489 Y0.6880 
G01 X0.8462 Y0.6815 
G01 X0.8448 Y0.6745 
G01 X0.8448 Y0.6054 
G01 X0.8462 Y0.5984 
G01 X0.8489 Y0.5918 
G01 X0.8528 Y0.5859 
G01 X0.8579 Y0.5809 
G01 X0.8638 Y0.5770 
G01 X0.8703 Y0.5742 
G01 X0.8773 Y0.5728 
G01 X0.8844 Y0.5728 
G01 X0.8914 Y0.5742 
G01 X0.8980 Y0.5770 
G01 X0.9039 Y0.5809 
G01 X0.9089 Y0.5859 
G01 X0.9129 Y0.5918 
G01 X0.9156 Y0.5984 
G01 X0.9170 Y0.6054 
G00 Z0.0200 
G00 X0.8841 Y0.8546 
G01 Z-0.0100 F10.00 
G01 X0.8841 Y0.7855 
G01 X0.8855 Y0.7785 
G01 X0.8882 Y0.7720 
G01 X0.8922 Y0.7660 
G01 X0.8972 Y0.7610 
G01 X0.9031 Y0.7571 
G01 X0.9097 Y0.7543 
G01 X0.9167 Y0.7530 
G01 X0.9238 Y0.7530 
G01 X0.9308 Y0.7543 
G01 X0.9373 Y0.7571 
G01 X0.9432 Y0.7610 
G01 X0.9483 Y0.7660 
G01 X0.9522 Y0.7720 
G01 X0.9549 Y0.7785 
G01 X0.9563 Y0.7855 
G01 X0.9563 Y0.8546 
G01 X0.9549 Y0.8616 
G01 X0.9522 Y0.8682 
G01 X0.9483 Y0.8741 
G01 X0.9432 Y0.8791 
G01 X0.9373 Y0.8830 
G01 X0.9308 Y0.8858 
G01 X0.9238 Y0.8872 
G01 X0.9167 Y0.8872 
G01 X0.9097 Y0.8858 
G01 X0.9031 Y0.8830 
G01 X0.8972 Y0.8791 
G01 X0.8922 Y0.8741 
G01 X0.8882 Y0.8682 
G01 X0.8855 Y0.8616 
G01 X0.8841 Y0.8546 
G00 Z0.0200 
G00 X0.7267 Y0.8546 
G01 Z-0.0100 F10.00 
G01 X0.7267 Y0.7855 
G01 X0.7280 Y0.7785 
G01 X0.7308 Y0.7720 
G01 X0.7347 Y0.7660 
G01 X0.7397 Y0.7610 
G01 X0.7457 Y0.7571 
G01 X0.7522 Y0.7543 
G01 X0.7592 Y0.7530 
G01 X0.7663 Y0.7530 
G01 X0.7733 Y0.7543 
G01 X0.7799 Y0.7571 
G01 X0.7858 Y0.7610 
G01 X0.7908 Y0.7660 
G01 X0.7947 Y0.7720 
G01 X0.7975 Y0.7785 
G01 X0.7989 Y0.7855 
G01 X0.7989 Y0.8546 
G01 X0.7975 Y0.8616 
G01 X0.7947 Y0.8682 
G01 X0.7908 Y0.8741 
G01 X0.7858 Y0.8791 
G01 X0.7799 Y0.8830 
G01 X0.7733 Y0.8858 
G01 X0.7663 Y0.8872 
G01 X0.7592 Y0.8872 
G01 X0.7522 Y0.8858 
G01 X0.7457 Y0.8830 
G01 X0.7397 Y0.8791 
G01 X0.7347 Y0.8741 
G01 X0.7308 Y0.8682 
G01 X0.7280 Y0.8616 
G01 X0.7267 Y0.8546 
G00 Z0.0200 
G00 X1.5354 Y0.3039 
G01 Z-0.0100 F10.00 
G01 X1.6046 Y0.3039 
G01 X1.6115 Y0.3053 
G01 X1.6181 Y0.3080 
G01 X1.6240 Y0.3120 
G01 X1.6290 Y0.3170 
G01 X1.6330 Y0.3229 
G01 X1.6357 Y0.3295 
G01 X1.6371 Y0.3364 
G01 X1.6371 Y0.3436 
G01 X1.6357 Y0.3505 
G01 X1.6330 Y0.3571 
G01 X1.6290 Y0.3630 
G01 X1.6240 Y0.3680 
G01 X1.6181 Y0.3720 
G01 X1.6115 Y0.3747 
G01 X1.6046 Y0.3761 
G01 X1.5354 Y0.3761 
G01 X1.5285 Y0.3747 
G01 X1.5219 Y0.3720 
G01 X1.5160 Y0.3680 
G01 X1.5110 Y0.3630 
G01 X1.5070 Y0.3571 
G01 X1.5043 Y0.3505 
G01 X1.5029 Y0.3436 
G01 X1.5029 Y0.3364 
G01 X1.5043 Y0.3295 
G01 X1.5070 Y0.3229 
G01 X1.5110 Y0.3170 
G01 X1.5160 Y0.3120 
G01 X1.5219 Y0.3080 
G01 X1.5285 Y0.3053 
G01 X1.5354 Y0.3039 
G00 Z0.0200 
G00 X1.5354 Y0.4039 
G01 Z-0.0100 F10.00 
G01 X1.6046 Y0.4039 
G01 X1.6115 Y0.4053 
G01 X1.6181 Y0.4080 
G01 X1.6240 Y0.4120 
G01 X1.6290 Y0.4170 
G01 X1.6330 Y0.4229 
G01 X1.6357 Y0.4295 
G01 X1.6371 Y0.4364 
G01 X1.6371 Y0.4436 
G01 X1.6357 Y0.4505 
G01 X1.6330 Y0.4571 
G01 X1.6290 Y0.4630 
G01 X1.6240 Y0.4680 
G01 X1.6181 Y0.4720 
G01 X1.6115 Y0.4747 
G01 X1.6046 Y0.4761 
G01 X1.5354 Y0.4761 
G01 X1.5285 Y0.4747 
G01 X1.5219 Y0.4720 
G01 X1.5160 Y0.4680 
G01 X1.5110 Y0.4630 
G01 X1.5070 Y0.4571 
G01 X1.5043 Y0.4505 
G01 X1.5029 Y0.4436 
G01 X1.5029 Y0.4364 
G01 X1.5043 Y0.4295 
G01 X1.5070 Y0.4229 
G01 X1.5110 Y0.4170 
G01 X1.5160 Y0.4120 
G01 X1.5219 Y0.4080 
G01 X1.5285 Y0.4053 
G01 X1.5354 Y0.4039 
G00 Z0.0200 
G00 X1.5354 Y0.5039 
G01 Z-0.0100 F10.00 
G01 X1.6046 Y0.5039 
G01 X1.6115 Y0.5053 
G01 X1.6181 Y0.5080 
G01 X1.6240 Y0.5120 
G01 X1.6290 Y0.5170 
G01 X1.6330 Y0.5229 
G01 X1.6357 Y0.5295 
G01 X1.6371 Y0.5364 
G01 X1.6371 Y0.5436 
G01 X1.6357 Y0.5505 
G01 X1.6330 Y0.5571 
G01 X1.6290 Y0.5630 
G01 X1.6240 Y0.5680 
G01 X1.6181 Y0.5720 
G01 X1.6115 Y0.5747 
G01 X1.6046 Y0.5761 
G01 X1.5354 Y0.5761 
G01 X1.5285 Y0.5747 
G01 X1.5219 Y0.5720 
G01 X1.5160 Y0.5680 
G01 X1.5110 Y0.5630 
G01 X1.5070 Y0.5571 
G01 X1.5043 Y0.5505 
G01 X1.5029 Y0.5436 
G01 X1.5029 Y0.5364 
G01 X1.5043 Y0.5295 
G01 X1.5070 Y0.5229 
G01 X1.5110 Y0.5170 
G01 X1.5160 Y0.5120 
G01 X1.5219 Y0.5080 
G01 X1.5285 Y0.5053 
G01 X1.5354 Y0.5039 
G00 Z0.0200 
G00 X1.5354 Y0.6039 
G01 Z-0.0100 F10.00 
G01 X1.6046 Y0.6039 
G01 X1.6115 Y0.6053 
G01 X1.6181 Y0.6080 
G01 X1.6240 Y0.6120 
G01 X1.6290 Y0.6170 
G01 X1.6330 Y0.6229 
G01 X1.6357 Y0.6295 
G01 X1.6371 Y0.6364 
G01 X1.6371 Y0.6436 
G01 X1.6357 Y0.6505 
G01 X1.6330 Y0.6571 
G01 X1.6290 Y0.6630 
G01 X1.6240 Y0.6680 
G01 X1.6181 Y0.6720 
G01 X1.6115 Y0.6747 
G01 X1.6046 Y0.6761 
G01 X1.5354 Y0.6761 
G01 X1.5285 Y0.6747 
G01 X1.5219 Y0.6720 
G01 X1.5160 Y0.6680 
G01 X1.5110 Y0.6630 
G01 X1.5070 Y0.6571 
G01 X1.5043 Y0.6505 
G01 X1.5029 Y0.6436 
G01 X1.5029 Y0.6364 
G01 X1.5043 Y0.6295 
G01 X1.5070 Y0.6229 
G01 X1.5110 Y0.6170 
G01 X1.5160 Y0.6120 
G01 X1.5219 Y0.6080 
G01 X1.5285 Y0.6053 
G01 X1.5354 Y0.6039 
G00 Z0.0200 
G00 X1.5354 Y0.7039 
G01 Z-0.0100 F10.00 
G01 X1.6046 Y0.7039 
G01 X1.6115 Y0.7053 
G01 X1.6181 Y0.7080 
G01 X1.6240 Y0.7120 
G01 X1.6290 Y0.7170 
G01 X1.6330 Y0.7229 
G01 X1.6357 Y0.7295 
G01 X1.6371 Y0.7364 
G01 X1.6371 Y0.7436 
G01 X1.6357 Y0.7505 
G01 X1.6330 Y0.7571 
G01 X1.6290 Y0.7630 
G01 X1.6240 Y0.7680 
G01 X1.6181 Y0.7720 
G01 X1.6115 Y0.7747 
G01 X1.6046 Y0.7761 
G01 X1.5354 Y0.7761 
G01 X1.5285 Y0.7747 
G01 X1.5219 Y0.7720 
G01 X1.5160 Y0.7680 
G01 X1.5110 Y0.7630 
G01 X1.5070 Y0.7571 
G01 X1.5043 Y0.7505 
G01 X1.5029 Y0.7436 
G01 X1.5029 Y0.7364 
G01 X1.5043 Y0.7295 
G01 X1.5070 Y0.7229 
G01 X1.5110 Y0.7170 
G01 X1.5160 Y0.7120 
G01 X1.5219 Y0.7080 
G01 X1.5285 Y0.7053 
G01 X1.5354 Y0.7039 
G00 Z0.0200 
G00 X1.5354 Y0.8039 
G01 Z-0.0100 F10.00 
G01 X1.6046 Y0.8039 
G01 X1.6115 Y0.8053 
G01 X1.6181 Y0.8080 
G01 X1.6240 Y0.8120 
G01 X1.6290 Y0.8170 
G01 X1.6330 Y0.8229 
G01 X1.6357 Y0.8295 
G01 X1.6371 Y0.8364 
G01 X1.6371 Y0.8436 
G01 X1.6357 Y0.8505 
G01 X1.6330 Y0.8571 
G01 X1.6290 Y0.8630 
G01 X1.6240 Y0.8680 
G01 X1.6181 Y0.8720 
G01 X1.6115 Y0.8747 
G01 X1.6046 Y0.8761 
G01 X1.5354 Y0.8761 
G01 X1.5285 Y0.8747 
G01 X1.5219 Y0.8720 
G01 X1.5160 Y0.8680 
G01 X1.5110 Y0.8630 
G01 X1.5070 Y0.8571 
G01 X1.5043 Y0.8505 
G01 X1.5029 Y0.8436 
G01 X1.5029 Y0.8364 
G01 X1.5043 Y0.8295 
G01 X1.5070 Y0.8229 
G01 X1.5110 Y0.8170 
G01 X1.5160 Y0.8120 
G01 X1.5219 Y0.8080 
G01 X1.5285 Y0.8053 
G01 X1.5354 Y0.8039 
G00 Z0.0200 
G00 X1.5354 Y0.9039 
G01 Z-0.0100 F10.00 
G01 X1.6046 Y0.9039 
G01 X1.6115 Y0.9053 
G01 X1.6181 Y0.9080 
G01 X1.6240 Y0.9120 
G01 X1.6290 Y0.9170 
G01 X1.6330 Y0.9229 
G01 X1.6357 Y0.9295 
G01 X1.6371 Y0.9364 
G01 X1.6371 Y0.9436 
G01 X1.6357 Y0.9505 
G01 X1.6330 Y0.9571 
G01 X1.6290 Y0.9630 
G01 X1.6240 Y0.9680 
G01 X1.6181 Y0.9720 
G01 X1.6115 Y0.9747 
G01 X1.6046 Y0.9761 
G01 X1.5354 Y0.9761 
G01 X1.5285 Y0.9747 
G01 X1.5219 Y0.9720 
G01 X1.5160 Y0.9680 
G01 X1.5110 Y0.9630 
G01 X1.5070 Y0.9571 
G01 X1.5043 Y0.9505 
G01 X1.5029 Y0.9436 
G01 X1.5029 Y0.9364 
G01 X1.5043 Y0.9295 
G01 X1.5070 Y0.9229 
G01 X1.5110 Y0.9170 
G01 X1.5160 Y0.9120 
G01 X1.5219 Y0.9080 
G01 X1.5285 Y0.9053 
G01 X1.5354 Y0.9039 
G00 Z0.0200 
G00 X1.5354 Y1.0039 
G01 Z-0.0100 F10.00 
G01 X1.6046 Y1.0039 
G01 X1.6115 Y1.0053 
G01 X1.6181 Y1.0080 
G01 X1.6240 Y1.0120 
G01 X1.6290 Y1.0170 
G01 X1.6330 Y1.0229 
G01 X1.6357 Y1.0295 
G01 X1.6371 Y1.0364 
G01 X1.6371 Y1.0436 
G01 X1.6357 Y1.0505 
G01 X1.6330 Y1.0571 
G01 X1.6290 Y1.0630 
G01 X1.6240 Y1.0680 
G01 X1.6181 Y1.0720 
G01 X1.6115 Y1.0747 
G01 X1.6046 Y1.0761 
G01 X1.5354 Y1.0761 
G01 X1.5285 Y1.0747 
G01 X1.5219 Y1.0720 
G01 X1.5160 Y1.0680 
G01 X1.5110 Y1.0630 
G01 X1.5070 Y1.0571 
G01 X1.5043 Y1.0505 
G01 X1.5029 Y1.0436 
G01 X1.5029 Y1.0364 
G01 X1.5043 Y1.0295 
G01 X1.5070 Y1.0229 
G01 X1.5110 Y1.0170 
G01 X1.5160 Y1.0120 
G01 X1.5219 Y1.0080 
G01 X1.5285 Y1.0053 
G01 X1.5354 Y1.0039 
G00 Z0.0200 
G00 X1.2354 Y1.0039 
G01 Z-0.0100 F10.00 
G01 X1.3046 Y1.0039 
G01 X1.3115 Y1.0053 
G01 X1.3181 Y1.0080 
G01 X1.3240 Y1.0120 
G01 X1.3290 Y1.0170 
G01 X1.3330 Y1.0229 
G01 X1.3357 Y1.0295 
G01 X1.3371 Y1.0364 
G01 X1.3371 Y1.0436 
G01 X1.3357 Y1.0505 
G01 X1.3330 Y1.0571 
G01 X1.3290 Y1.0630 
G01 X1.3240 Y1.0680 
G01 X1.3181 Y1.0720 
G01 X1.3115 Y1.0747 
G01 X1.3046 Y1.0761 
G01 X1.2354 Y1.0761 
G01 X1.2285 Y1.0747 
G01 X1.2219 Y1.0720 
G01 X1.2160 Y1.0680 
G01 X1.2110 Y1.0630 
G01 X1.2070 Y1.0571 
G01 X1.2043 Y1.0505 
G01 X1.2029 Y1.0436 
G01 X1.2029 Y1.0364 
G01 X1.2043 Y1.0295 
G01 X1.2070 Y1.0229 
G01 X1.2110 Y1.0170 
G01 X1.2160 Y1.0120 
G01 X1.2219 Y1.0080 
G01 X1.2285 Y1.0053 
G01 X1.2354 Y1.0039 
G00 Z0.0200 
G00 X1.2354 Y0.9039 
G01 Z-0.0100 F10.00 
G01 X1.3046 Y0.9039 
G01 X1.3115 Y0.9053 
G01 X1.3181 Y0.9080 
G01 X1.3240 Y0.9120 
G01 X1.3290 Y0.9170 
G01 X1.3330 Y0.9229 
G01 X1.3357 Y0.9295 
G01 X1.3371 Y0.9364 
G01 X1.3371 Y0.9436 
G01 X1.3357 Y0.9505 
G01 X1.3330 Y0.9571 
G01 X1.3290 Y0.9630 
G01 X1.3240 Y0.9680 
G01 X1.3181 Y0.9720 
G01 X1.3115 Y0.9747 
G01 X1.3046 Y0.9761 
G01 X1.2354 Y0.9761 
G01 X1.2285 Y0.9747 
G01 X1.2219 Y0.9720 
G01 X1.2160 Y0.9680 
G01 X1.2110 Y0.9630 
G01 X1.2070 Y0.9571 
G01 X1.2043 Y0.9505 
G01 X1.2029 Y0.9436 
G01 X1.2029 Y0.9364 
G01 X1.2043 Y0.9295 
G01 X1.2070 Y0.9229 
G01 X1.2110 Y0.9170 
G01 X1.2160 Y0.9120 
G01 X1.2219 Y0.9080 
G01 X1.2285 Y0.9053 
G01 X1.2354 Y0.9039 
G00 Z0.0200 
G00 X1.2354 Y0.8039 
G01 Z-0.0100 F10.00 
G01 X1.3046 Y0.8039 
G01 X1.3115 Y0.8053 
G01 X1.3181 Y0.8080 
G01 X1.3240 Y0.8120 
G01 X1.3290 Y0.8170 
G01 X1.3330 Y0.8229 
G01 X1.3357 Y0.8295 
G01 X1.3371 Y0.8364 
G01 X1.3371 Y0.8436 
G01 X1.3357 Y0.8505 
G01 X1.3330 Y0.8571 
G01 X1.3290 Y0.8630 
G01 X1.3240 Y0.8680 
G01 X1.3181 Y0.8720 
G01 X1.3115 Y0.8747 
G01 X1.3046 Y0.8761 
G01 X1.2354 Y0.8761 
G01 X1.2285 Y0.8747 
G01 X1.2219 Y0.8720 
G01 X1.2160 Y0.8680 
G01 X1.2110 Y0.8630 
G01 X1.2070 Y0.8571 
G01 X1.2043 Y0.8505 
G01 X1.2029 Y0.8436 
G01 X1.2029 Y0.8364 
G01 X1.2043 Y0.8295 
G01 X1.2070 Y0.8229 
G01 X1.2110 Y0.8170 
G01 X1.2160 Y0.8120 
G01 X1.2219 Y0.8080 
G01 X1.2285 Y0.8053 
G01 X1.2354 Y0.8039 
G00 Z0.0200 
G00 X1.2354 Y0.7039 
G01 Z-0.0100 F10.00 
G01 X1.3046 Y0.7039 
G01 X1.3115 Y0.7053 
G01 X1.3181 Y0.7080 
G01 X1.3240 Y0.7120 
G01 X1.3290 Y0.7170 
G01 X1.3330 Y0.7229 
G01 X1.3357 Y0.7295 
G01 X1.3371 Y0.7364 
G01 X1.3371 Y0.7436 
G01 X1.3357 Y0.7505 
G01 X1.3330 Y0.7571 
G01 X1.3290 Y0.7630 
G01 X1.3240 Y0.7680 
G01 X1.3181 Y0.7720 
G01 X1.3115 Y0.7747 
G01 X1.3046 Y0.7761 
G01 X1.2354 Y0.7761 
G01 X1.2285 Y0.7747 
G01 X1.2219 Y0.7720 
G01 X1.2160 Y0.7680 
G01 X1.2110 Y0.7630 
G01 X1.2070 Y0.7571 
G01 X1.2043 Y0.7505 
G01 X1.2029 Y0.7436 
G01 X1.2029 Y0.7364 
G01 X1.2043 Y0.7295 
G01 X1.2070 Y0.7229 
G01 X1.2110 Y0.7170 
G01 X1.2160 Y0.7120 
G01 X1.2219 Y0.7080 
G01 X1.2285 Y0.7053 
G01 X1.2354 Y0.7039 
G00 Z0.0200 
G00 X1.2354 Y0.6039 
G01 Z-0.0100 F10.00 
G01 X1.3046 Y0.6039 
G01 X1.3115 Y0.6053 
G01 X1.3181 Y0.6080 
G01 X1.3240 Y0.6120 
G01 X1.3290 Y0.6170 
G01 X1.3330 Y0.6229 
G01 X1.3357 Y0.6295 
G01 X1.3371 Y0.6364 
G01 X1.3371 Y0.6436 
G01 X1.3357 Y0.6505 
G01 X1.3330 Y0.6571 
G01 X1.3290 Y0.6630 
G01 X1.3240 Y0.6680 
G01 X1.3181 Y0.6720 
G01 X1.3115 Y0.6747 
G01 X1.3046 Y0.6761 
G01 X1.2354 Y0.6761 
G01 X1.2285 Y0.6747 
G01 X1.2219 Y0.6720 
G01 X1.2160 Y0.6680 
G01 X1.2110 Y0.6630 
G01 X1.2070 Y0.6571 
G01 X1.2043 Y0.6505 
G01 X1.2029 Y0.6436 
G01 X1.2029 Y0.6364 
G01 X1.2043 Y0.6295 
G01 X1.2070 Y0.6229 
G01 X1.2110 Y0.6170 
G01 X1.2160 Y0.6120 
G01 X1.2219 Y0.6080 
G01 X1.2285 Y0.6053 
G01 X1.2354 Y0.6039 
G00 Z0.0200 
G00 X1.2354 Y0.5039 
G01 Z-0.0100 F10.00 
G01 X1.3046 Y0.5039 
G01 X1.3115 Y0.5053 
G01 X1.3181 Y0.5080 
G01 X1.3240 Y0.5120 
G01 X1.3290 Y0.5170 
G01 X1.3330 Y0.5229 
G01 X1.3357 Y0.5295 
G01 X1.3371 Y0.5364 
G01 X1.3371 Y0.5436 
G01 X1.3357 Y0.5505 
G01 X1.3330 Y0.5571 
G01 X1.3290 Y0.5630 
G01 X1.3240 Y0.5680 
G01 X1.3181 Y0.5720 
G01 X1.3115 Y0.5747 
G01 X1.3046 Y0.5761 
G01 X1.2354 Y0.5761 
G01 X1.2285 Y0.5747 
G01 X1.2219 Y0.5720 
G01 X1.2160 Y0.5680 
G01 X1.2110 Y0.5630 
G01 X1.2070 Y0.5571 
G01 X1.2043 Y0.5505 
G01 X1.2029 Y0.5436 
G01 X1.2029 Y0.5364 
G01 X1.2043 Y0.5295 
G01 X1.2070 Y0.5229 
G01 X1.2110 Y0.5170 
G01 X1.2160 Y0.5120 
G01 X1.2219 Y0.5080 
G01 X1.2285 Y0.5053 
G01 X1.2354 Y0.5039 
G00 Z0.0200 
G00 X1.2354 Y0.4039 
G01 Z-0.0100 F10.00 
G01 X1.3046 Y0.4039 
G01 X1.3115 Y0.4053 
G01 X1.3181 Y0.4080 
G01 X1.3240 Y0.4120 
G01 X1.3290 Y0.4170 
G01 X1.3330 Y0.4229 
G01 X1.3357 Y0.4295 
G01 X1.3371 Y0.4364 
G01 X1.3371 Y0.4436 
G01 X1.3357 Y0.4505 
G01 X1.3330 Y0.4571 
G01 X1.3290 Y0.4630 
G01 X1.3240 Y0.4680 
G01 X1.3181 Y0.4720 
G01 X1.3115 Y0.4747 
G01 X1.3046 Y0.4761 
G01 X1.2354 Y0.4761 
G01 X1.2285 Y0.4747 
G01 X1.2219 Y0.4720 
G01 X1.2160 Y0.4680 
G01 X1.2110 Y0.4630 
G01 X1.2070 Y0.4571 
G01 X1.2043 Y0.4505 
G01 X1.2029 Y0.4436 
G01 X1.2029 Y0.4364 
G01 X1.2043 Y0.4295 
G01 X1.2070 Y0.4229 
G01 X1.2110 Y0.4170 
G01 X1.2160 Y0.4120 
G01 X1.2219 Y0.4080 
G01 X1.2285 Y0.4053 
G01 X1.2354 Y0.4039 
G00 Z0.0200 
G00 X1.2354 Y0.3039 
G01 Z-0.0100 F10.00 
G01 X1.3046 Y0.3039 
G01 X1.3115 Y0.3053 
G01 X1.3181 Y0.3080 
G01 X1.3240 Y0.3120 
G01 X1.3290 Y0.3170 
G01 X1.3330 Y0.3229 
G01 X1.3357 Y0.3295 
G01 X1.3371 Y0.3364 
G01 X1.3371 Y0.3436 
G01 X1.3357 Y0.3505 
G01 X1.3330 Y0.3571 
G01 X1.3290 Y0.3630 
G01 X1.3240 Y0.3680 
G01 X1.3181 Y0.3720 
G01 X1.3115 Y0.3747 
G01 X1.3046 Y0.3761 
G01 X1.2354 Y0.3761 
G01 X1.2285 Y0.3747 
G01 X1.2219 Y0.3720 
G01 X1.2160 Y0.3680 
G01 X1.2110 Y0.3630 
G01 X1.2070 Y0.3571 
G01 X1.2043 Y0.3505 
G01 X1.2029 Y0.3436 
G01 X1.2029 Y0.3364 
G01 X1.2043 Y0.3295 
G01 X1.2070 Y0.3229 
G01 X1.2110 Y0.3170 
G01 X1.2160 Y0.3120 
G01 X1.2219 Y0.3080 
G01 X1.2285 Y0.3053 
G01 X1.2354 Y0.3039 
G00 Z0.0200 
G00 X0.3301 Y0.9834 
G01 Z-0.0100 F10.00 
G01 X0.3301 Y1.0166 
G01 X0.3066 Y1.0401 
G01 X0.2734 Y1.0401 
G01 X0.2499 Y1.0166 
G01 X0.2499 Y0.9834 
G01 X0.2734 Y0.9599 
G01 X0.3066 Y0.9599 
G01 X0.3301 Y0.9834 
G00 Z0.0200 
G00 X0.3301 Y0.8834 
G01 Z-0.0100 F10.00 
G01 X0.3301 Y0.9166 
G01 X0.3066 Y0.9401 
G01 X0.2734 Y0.9401 
G01 X0.2499 Y0.9166 
G01 X0.2499 Y0.8834 
G01 X0.2734 Y0.8599 
G01 X0.3066 Y0.8599 
G01 X0.3301 Y0.8834 
G00 Z0.0200 
G00 X0.3301 Y0.7834 
G01 Z-0.0100 F10.00 
G01 X0.3301 Y0.8166 
G01 X0.3066 Y0.8401 
G01 X0.2734 Y0.8401 
G01 X0.2499 Y0.8166 
G01 X0.2499 Y0.7834 
G01 X0.2734 Y0.7599 
G01 X0.3066 Y0.7599 
G01 X0.3301 Y0.7834 
G00 Z0.0200 
G00 X0.3301 Y0.6834 
G01 Z-0.0100 F10.00 
G01 X0.3301 Y0.7166 
G01 X0.3066 Y0.7401 
G01 X0.2734 Y0.7401 
G01 X0.2499 Y0.7166 
G01 X0.2499 Y0.6834 
G01 X0.2734 Y0.6599 
G01 X0.3066 Y0.6599 
G01 X0.3301 Y0.6834 
G00 Z0.0200 
G00 X0.3301 Y0.5834 
G01 Z-0.0100 F10.00 
G01 X0.3301 Y0.6166 
G01 X0.3066 Y0.6401 
G01 X0.2734 Y0.6401 
G01 X0.2499 Y0.6166 
G01 X0.2499 Y0.5834 
G01 X0.2734 Y0.5599 
G01 X0.3066 Y0.5599 
G01 X0.3301 Y0.5834 
G00 Z0.0200 
G00 X0.3301 Y0.4834 
G01 Z-0.0100 F10.00 
G01 X0.3301 Y0.5166 
G01 X0.3066 Y0.5401 
G01 X0.2734 Y0.5401 
G01 X0.2499 Y0.5166 
G01 X0.2499 Y0.4834 
G01 X0.2734 Y0.4599 
G01 X0.3066 Y0.4599 
G01 X0.3301 Y0.4834 
G00 Z0.0200 
G00 X0.2301 Y0.9834 
G01 Z-0.0100 F10.00 
G01 X0.2301 Y1.0166 
G01 X0.2066 Y1.0401 
G01 X0.1734 Y1.0401 
G01 X0.1499 Y1.0166 
G01 X0.1499 Y0.9834 
G01 X0.1734 Y0.9599 
G01 X0.2066 Y0.9599 
G01 X0.2301 Y0.9834 
G00 Z0.0200 
G00 X0.2301 Y0.8834 
G01 Z-0.0100 F10.00 
G01 X0.2301 Y0.9166 
G01 X0.2066 Y0.9401 
G01 X0.1734 Y0.9401 
G01 X0.1499 Y0.9166 
G01 X0.1499 Y0.8834 
G01 X0.1734 Y0.8599 
G01 X0.2066 Y0.8599 
G01 X0.2301 Y0.8834 
G00 Z0.0200 
G00 X0.2301 Y0.7834 
G01 Z-0.0100 F10.00 
G01 X0.2301 Y0.8166 
G01 X0.2066 Y0.8401 
G01 X0.1734 Y0.8401 
G01 X0.1499 Y0.8166 
G01 X0.1499 Y0.7834 
G01 X0.1734 Y0.7599 
G01 X0.2066 Y0.7599 
G01 X0.2301 Y0.7834 
G00 Z0.0200 
G00 X0.2301 Y0.6834 
G01 Z-0.0100 F10.00 
G01 X0.2301 Y0.7166 
G01 X0.2066 Y0.7401 
G01 X0.1734 Y0.7401 
G01 X0.1499 Y0.7166 
G01 X0.1499 Y0.6834 
G01 X0.1734 Y0.6599 
G01 X0.2066 Y0.6599 
G01 X0.2301 Y0.6834 
G00 Z0.0200 
G00 X0.2301 Y0.5834 
G01 Z-0.0100 F10.00 
G01 X0.2301 Y0.6166 
G01 X0.2066 Y0.6401 
G01 X0.1734 Y0.6401 
G01 X0.1499 Y0.6166 
G01 X0.1499 Y0.5834 
G01 X0.1734 Y0.5599 
G01 X0.2066 Y0.5599 
G01 X0.2301 Y0.5834 
G00 Z0.0200 
G00 X0.2301 Y0.4834 
G01 Z-0.0100 F10.00 
G01 X0.2301 Y0.5166 
G01 X0.2066 Y0.5401 
G01 X0.1734 Y0.5401 
G01 X0.1499 Y0.5166 
G01 X0.1499 Y0.4834 
G01 X0.1734 Y0.4599 
G01 X0.2066 Y0.4599 
G01 X0.2301 Y0.4834 
G00 Z0.0200 
G00 X0.3301 Y0.3834 
G01 Z-0.0100 F10.00 
G01 X0.3301 Y0.4166 
G01 X0.3066 Y0.4401 
G01 X0.2734 Y0.4401 
G01 X0.2499 Y0.4166 
G01 X0.2499 Y0.3834 
G01 X0.2734 Y0.3599 
G01 X0.3066 Y0.3599 
G01 X0.3301 Y0.3834 
G00 Z0.0200 
G00 X0.2301 Y0.3834 
G01 Z-0.0100 F10.00 
G01 X0.2301 Y0.4166 
G01 X0.2066 Y0.4401 
G01 X0.1734 Y0.4401 
G01 X0.1499 Y0.4166 
G01 X0.1499 Y0.3834 
G01 X0.1734 Y0.3599 
G01 X0.2066 Y0.3599 
G01 X0.2301 Y0.3834 
G00 Z0.0200 
G00 X0.8346 Y0.4061 
G01 Z-0.0100 F10.00 
G01 X0.7654 Y0.4061 
G01 X0.7585 Y0.4047 
G01 X0.7519 Y0.4020 
G01 X0.7460 Y0.3980 
G01 X0.7410 Y0.3930 
G01 X0.7370 Y0.3871 
G01 X0.7343 Y0.3805 
G01 X0.7329 Y0.3736 
G01 X0.7329 Y0.3664 
G01 X0.7343 Y0.3595 
G01 X0.7370 Y0.3529 
G01 X0.7410 Y0.3470 
G01 X0.7460 Y0.3420 
G01 X0.7519 Y0.3380 
G01 X0.7585 Y0.3353 
G01 X0.7654 Y0.3339 
G01 X0.8346 Y0.3339 
G01 X0.8415 Y0.3353 
G01 X0.8481 Y0.3380 
G01 X0.8540 Y0.3420 
G01 X0.8590 Y0.3470 
G01 X0.8630 Y0.3529 
G01 X0.8657 Y0.3595 
G01 X0.8671 Y0.3664 
G01 X0.8671 Y0.3736 
G01 X0.8657 Y0.3805 
G01 X0.8630 Y0.3871 
G01 X0.8590 Y0.3930 
G01 X0.8540 Y0.3980 
G01 X0.8481 Y0.4020 
G01 X0.8415 Y0.4047 
G01 X0.8346 Y0.4061 
G00 Z0.0200 
G00 X1.1346 Y0.3061 
G01 Z-0.0100 F10.00 
G01 X1.0654 Y0.3061 
G01 X1.0585 Y0.3047 
G01 X1.0519 Y0.3020 
G01 X1.0460 Y0.2980 
G01 X1.0410 Y0.2930 
G01 X1.0370 Y0.2871 
G01 X1.0343 Y0.2805 
G01 X1.0329 Y0.2736 
G01 X1.0329 Y0.2664 
G01 X1.0343 Y0.2595 
G01 X1.0370 Y0.2529 
G01 X1.0410 Y0.2470 
G01 X1.0460 Y0.2420 
G01 X1.0519 Y0.2380 
G01 X1.0585 Y0.2353 
G01 X1.0654 Y0.2339 
G01 X1.1346 Y0.2339 
G01 X1.1415 Y0.2353 
G01 X1.1481 Y0.2380 
G01 X1.1540 Y0.2420 
G01 X1.1590 Y0.2470 
G01 X1.1630 Y0.2529 
G01 X1.1657 Y0.2595 
G01 X1.1671 Y0.2664 
G01 X1.1671 Y0.2736 
G01 X1.1657 Y0.2805 
G01 X1.1630 Y0.2871 
G01 X1.1590 Y0.2930 
G01 X1.1540 Y0.2980 
G01 X1.1481 Y0.3020 
G01 X1.1415 Y0.3047 
G01 X1.1346 Y0.3061 
G00 Z0.0200 
G00 X0.6346 Y0.3061 
G01 Z-0.0100 F10.00 
G01 X0.5654 Y0.3061 
G01 X0.5585 Y0.3047 
G01 X0.5519 Y0.3020 
G01 X0.5460 Y0.2980 
G01 X0.5410 Y0.2930 
G01 X0.5370 Y0.2871 
G01 X0.5343 Y0.2805 
G01 X0.5329 Y0.2736 
G01 X0.5329 Y0.2664 
G01 X0.5343 Y0.2595 
G01 X0.5370 Y0.2529 
G01 X0.5410 Y0.2470 
G01 X0.5460 Y0.2420 
G01 X0.5519 Y0.2380 
G01 X0.5585 Y0.2353 
G01 X0.5654 Y0.2339 
G01 X0.6346 Y0.2339 
G01 X0.6415 Y0.2353 
G01 X0.6481 Y0.2380 
G01 X0.6540 Y0.2420 
G01 X0.6590 Y0.2470 
G01 X0.6630 Y0.2529 
G01 X0.6657 Y0.2595 
G01 X0.6671 Y0.2664 
G01 X0.6671 Y0.2736 
G01 X0.6657 Y0.2805 
G01 X0.6630 Y0.2871 
G01 X0.6590 Y0.2930 
G01 X0.6540 Y0.2980 
G01 X0.6481 Y0.3020 
G01 X0.6415 Y0.3047 
G01 X0.6346 Y0.3061 
G00 Z0.0200 
G00 X2.1154 Y0.1139 
G01 Z-0.0100 F10.00 
G01 X2.1846 Y0.1139 
G01 X2.1915 Y0.1153 
G01 X2.1981 Y0.1180 
G01 X2.2040 Y0.1220 
G01 X2.2090 Y0.1270 
G01 X2.2130 Y0.1329 
G01 X2.2157 Y0.1395 
G01 X2.2171 Y0.1464 
G01 X2.2171 Y0.1536 
G01 X2.2157 Y0.1605 
G01 X2.2130 Y0.1671 
G01 X2.2090 Y0.1730 
G01 X2.2040 Y0.1780 
G01 X2.1981 Y0.1820 
G01 X2.1915 Y0.1847 
G01 X2.1846 Y0.1861 
G01 X2.1154 Y0.1861 
G01 X2.1085 Y0.1847 
G01 X2.1019 Y0.1820 
G01 X2.0960 Y0.1780 
G01 X2.0910 Y0.1730 
G01 X2.0870 Y0.1671 
G01 X2.0843 Y0.1605 
G01 X2.0829 Y0.1536 
G01 X2.0829 Y0.1464 
G01 X2.0843 Y0.1395 
G01 X2.0870 Y0.1329 
G01 X2.0910 Y0.1270 
G01 X2.0960 Y0.1220 
G01 X2.1019 Y0.1180 
G01 X2.1085 Y0.1153 
G01 X2.1154 Y0.1139 
G00 Z0.0200 
G00 X2.1154 Y0.2139 
G01 Z-0.0100 F10.00 
G01 X2.1846 Y0.2139 
G01 X2.1915 Y0.2153 
G01 X2.1981 Y0.2180 
G01 X2.2040 Y0.2220 
G01 X2.2090 Y0.2270 
G01 X2.2130 Y0.2329 
G01 X2.2157 Y0.2395 
G01 X2.2171 Y0.2464 
G01 X2.2171 Y0.2536 
G01 X2.2157 Y0.2605 
G01 X2.2130 Y0.2671 
G01 X2.2090 Y0.2730 
G01 X2.2040 Y0.2780 
G01 X2.1981 Y0.2820 
G01 X2.1915 Y0.2847 
G01 X2.1846 Y0.2861 
G01 X2.1154 Y0.2861 
G01 X2.1085 Y0.2847 
G01 X2.1019 Y0.2820 
G01 X2.0960 Y0.2780 
G01 X2.0910 Y0.2730 
G01 X2.0870 Y0.2671 
G01 X2.0843 Y0.2605 
G01 X2.0829 Y0.2536 
G01 X2.0829 Y0.2464 
G01 X2.0843 Y0.2395 
G01 X2.0870 Y0.2329 
G01 X2.0910 Y0.2270 
G01 X2.0960 Y0.2220 
G01 X2.1019 Y0.2180 
G01 X2.1085 Y0.2153 
G01 X2.1154 Y0.2139 
G00 Z0.0200 
G00 X2.1154 Y0.3139 
G01 Z-0.0100 F10.00 
G01 X2.1846 Y0.3139 
G01 X2.1915 Y0.3153 
G01 X2.1981 Y0.3180 
G01 X2.2040 Y0.3220 
G01 X2.2090 Y0.3270 
G01 X2.2130 Y0.3329 
G01 X2.2157 Y0.3395 
G01 X2.2171 Y0.3464 
G01 X2.2171 Y0.3536 
G01 X2.2157 Y0.3605 
G01 X2.2130 Y0.3671 
G01 X2.2090 Y0.3730 
G01 X2.2040 Y0.3780 
G01 X2.1981 Y0.3820 
G01 X2.1915 Y0.3847 
G01 X2.1846 Y0.3861 
G01 X2.1154 Y0.3861 
G01 X2.1085 Y0.3847 
G01 X2.1019 Y0.3820 
G01 X2.0960 Y0.3780 
G01 X2.0910 Y0.3730 
G01 X2.0870 Y0.3671 
G01 X2.0843 Y0.3605 
G01 X2.0829 Y0.3536 
G01 X2.0829 Y0.3464 
G01 X2.0843 Y0.3395 
G01 X2.0870 Y0.3329 
G01 X2.0910 Y0.3270 
G01 X2.0960 Y0.3220 
G01 X2.1019 Y0.3180 
G01 X2.1085 Y0.3153 
G01 X2.1154 Y0.3139 
G00 Z0.0200 
G00 X1.8154 Y0.3139 
G01 Z-0.0100 F10.00 
G01 X1.8846 Y0.3139 
G01 X1.8915 Y0.3153 
G01 X1.8981 Y0.3180 
G01 X1.9040 Y0.3220 
G01 X1.9090 Y0.3270 
G01 X1.9130 Y0.3329 
G01 X1.9157 Y0.3395 
G01 X1.9171 Y0.3464 
G01 X1.9171 Y0.3536 
G01 X1.9157 Y0.3605 
G01 X1.9130 Y0.3671 
G01 X1.9090 Y0.3730 
G01 X1.9040 Y0.3780 
G01 X1.8981 Y0.3820 
G01 X1.8915 Y0.3847 
G01 X1.8846 Y0.3861 
G01 X1.8154 Y0.3861 
G01 X1.8085 Y0.3847 
G01 X1.8019 Y0.3820 
G01 X1.7960 Y0.3780 
G01 X1.7910 Y0.3730 
G01 X1.7870 Y0.3671 
G01 X1.7843 Y0.3605 
G01 X1.7829 Y0.3536 
G01 X1.7829 Y0.3464 
G01 X1.7843 Y0.3395 
G01 X1.7870 Y0.3329 
G01 X1.7910 Y0.3270 
G01 X1.7960 Y0.3220 
G01 X1.8019 Y0.3180 
G01 X1.8085 Y0.3153 
G01 X1.8154 Y0.3139 
G00 Z0.0200 
G00 X1.8154 Y0.2139 
G01 Z-0.0100 F10.00 
G01 X1.8846 Y0.2139 
G01 X1.8915 Y0.2153 
G01 X1.8981 Y0.2180 
G01 X1.9040 Y0.2220 
G01 X1.9090 Y0.2270 
G01 X1.9130 Y0.2329 
G01 X1.9157 Y0.2395 
G01 X1.9171 Y0.2464 
G01 X1.9171 Y0.2536 
G01 X1.9157 Y0.2605 
G01 X1.9130 Y0.2671 
G01 X1.9090 Y0.2730 
G01 X1.9040 Y0.2780 
G01 X1.8981 Y0.2820 
G01 X1.8915 Y0.2847 
G01 X1.8846 Y0.2861 
G01 X1.8154 Y0.2861 
G01 X1.8085 Y0.2847 
G01 X1.8019 Y0.2820 
G01 X1.7960 Y0.2780 
G01 X1.7910 Y0.2730 
G01 X1.7870 Y0.2671 
G01 X1.7843 Y0.2605 
G01 X1.7829 Y0.2536 
G01 X1.7829 Y0.2464 
G01 X1.7843 Y0.2395 
G01 X1.7870 Y0.2329 
G01 X1.7910 Y0.2270 
G01 X1.7960 Y0.2220 
G01 X1.8019 Y0.2180 
G01 X1.8085 Y0.2153 
G01 X1.8154 Y0.2139 
G00 Z0.0200 
G00 X1.8154 Y0.1139 
G01 Z-0.0100 F10.00 
G01 X1.8846 Y0.1139 
G01 X1.8915 Y0.1153 
G01 X1.8981 Y0.1180 
G01 X1.9040 Y0.1220 
G01 X1.9090 Y0.1270 
G01 X1.9130 Y0.1329 
G01 X1.9157 Y0.1395 
G01 X1.9171 Y0.1464 
G01 X1.9171 Y0.1536 
G01 X1.9157 Y0.1605 
G01 X1.9130 Y0.1671 
G01 X1.9090 Y0.1730 
G01 X1.9040 Y0.1780 
G01 X1.8981 Y0.1820 
G01 X1.8915 Y0.1847 
G01 X1.8846 Y0.1861 
G01 X1.8154 Y0.1861 
G01 X1.8085 Y0.1847 
G01 X1.8019 Y0.1820 
G01 X1.7960 Y0.1780 
G01 X1.7910 Y0.1730 
G01 X1.7870 Y0.1671 
G01 X1.7843 Y0.1605 
G01 X1.7829 Y0.1536 
G01 X1.7829 Y0.1464 
G01 X1.7843 Y0.1395 
G01 X1.7870 Y0.1329 
G01 X1.7910 Y0.1270 
G01 X1.7960 Y0.1220 
G01 X1.8019 Y0.1180 
G01 X1.8085 Y0.1153 
G01 X1.8154 Y0.1139 
G00 Z0.0200 
G00 X1.8361 Y0.6650 
G01 Z-0.0100 F10.00 
G01 X1.8361 Y0.6950 
G01 X1.8150 Y0.7161 
G01 X1.7850 Y0.7161 
G01 X1.7639 Y0.6950 
G01 X1.7639 Y0.6650 
G01 X1.7850 Y0.6439 
G01 X1.8150 Y0.6439 
G01 X1.8361 Y0.6650 
G00 Z0.0200 
G00 X1.8361 Y0.4650 
G01 Z-0.0100 F10.00 
G01 X1.8361 Y0.4950 
G01 X1.8150 Y0.5161 
G01 X1.7850 Y0.5161 
G01 X1.7639 Y0.4950 
G01 X1.7639 Y0.4650 
G01 X1.7850 Y0.4439 
G01 X1.8150 Y0.4439 
G01 X1.8361 Y0.4650 
G00 Z0.0200 
G00 X1.9561 Y0.6650 
G01 Z-0.0100 F10.00 
G01 X1.9561 Y0.6950 
G01 X1.9350 Y0.7161 
G01 X1.9050 Y0.7161 
G01 X1.8839 Y0.6950 
G01 X1.8839 Y0.6650 
G01 X1.9050 Y0.6439 
G01 X1.9350 Y0.6439 
G01 X1.9561 Y0.6650 
G00 Z0.0200 
G00 X1.9561 Y0.4650 
G01 Z-0.0100 F10.00 
G01 X1.9561 Y0.4950 
G01 X1.9350 Y0.5161 
G01 X1.9050 Y0.5161 
G01 X1.8839 Y0.4950 
G01 X1.8839 Y0.4650 
G01 X1.9050 Y0.4439 
G01 X1.9350 Y0.4439 
G01 X1.9561 Y0.4650 
G00 Z0.0200 
G00 X2.0761 Y0.6650 
G01 Z-0.0100 F10.00 
G01 X2.0761 Y0.6950 
G01 X2.0550 Y0.7161 
G01 X2.0250 Y0.7161 
G01 X2.0039 Y0.6950 
G01 X2.0039 Y0.6650 
G01 X2.0250 Y0.6439 
G01 X2.0550 Y0.6439 
G01 X2.0761 Y0.6650 
G00 Z0.0200 
G00 X2.0761 Y0.4650 
G01 Z-0.0100 F10.00 
G01 X2.0761 Y0.4950 
G01 X2.0550 Y0.5161 
G01 X2.0250 Y0.5161 
G01 X2.0039 Y0.4950 
G01 X2.0039 Y0.4650 
G01 X2.0250 Y0.4439 
G01 X2.0550 Y0.4439 
G01 X2.0761 Y0.4650 
G00 Z0.0200 
G00 X1.3061 Y0.2150 
G01 Z-0.0100 F10.00 
G01 X1.3061 Y0.2450 
G01 X1.2850 Y0.2661 
G01 X1.2550 Y0.2661 
G01 X1.2339 Y0.2450 
G01 X1.2339 Y0.2150 
G01 X1.2550 Y0.1939 
G01 X1.2850 Y0.1939 
G01 X1.3061 Y0.2150 
G00 Z0.0200 
G00 X1.4061 Y0.2150 
G01 Z-0.0100 F10.00 
G01 X1.4061 Y0.2450 
G01 X1.3850 Y0.2661 
G01 X1.3550 Y0.2661 
G01 X1.3339 Y0.2450 
G01 X1.3339 Y0.2150 
G01 X1.3550 Y0.1939 
G01 X1.3850 Y0.1939 
G01 X1.4061 Y0.2150 
G00 Z0.0200 
G00 X2.3551 Y1.0072 
G01 Z-0.0100 F10.00 
G01 X2.3551 Y1.0528 
G01 X2.3228 Y1.0851 
G01 X2.2772 Y1.0851 
G01 X2.2449 Y1.0528 
G01 X2.2449 Y1.0072 
G01 X2.2772 Y0.9749 
G01 X2.3228 Y0.9749 
G01 X2.3551 Y1.0072 
G00 Z0.0200 
G00 X2.0551 Y1.0072 
G01 Z-0.0100 F10.00 
G01 X2.0551 Y1.0528 
G01 X2.0228 Y1.0851 
G01 X1.9772 Y1.0851 
G01 X1.9449 Y1.0528 
G01 X1.9449 Y1.0072 
G01 X1.9772 Y0.9749 
G01 X2.0228 Y0.9749 
G01 X2.0551 Y1.0072 
G00 Z0.0200 
G00 X0.5461 Y0.9850 
G01 Z-0.0100 F10.00 
G01 X0.5461 Y1.0150 
G01 X0.5250 Y1.0361 
G01 X0.4950 Y1.0361 
G01 X0.4739 Y1.0150 
G01 X0.4739 Y0.9850 
G01 X0.4950 Y0.9639 
G01 X0.5250 Y0.9639 
G01 X0.5461 Y0.9850 
G00 Z0.0200 
G00 X0.4461 Y0.9850 
G01 Z-0.0100 F10.00 
G01 X0.4461 Y1.0150 
G01 X0.4250 Y1.0361 
G01 X0.3950 Y1.0361 
G01 X0.3739 Y1.0150 
G01 X0.3739 Y0.9850 
G01 X0.3950 Y0.9639 
G01 X0.4250 Y0.9639 
G01 X0.4461 Y0.9850 
G00 Z0.0200 
G00 X1.4261 Y1.1550 
G01 Z-0.0100 F10.00 
G01 X1.4261 Y1.1850 
G01 X1.4050 Y1.2061 
G01 X1.3750 Y1.2061 
G01 X1.3539 Y1.1850 
G01 X1.3539 Y1.1550 
G01 X1.3750 Y1.1339 
G01 X1.4050 Y1.1339 
G01 X1.4261 Y1.1550 
G00 Z0.0200 
G00 X1.4761 Y1.2300 
G01 Z-0.0100 F10.00 
G01 X1.4761 Y1.2600 
G01 X1.4550 Y1.2811 
G01 X1.4250 Y1.2811 
G01 X1.4039 Y1.2600 
G01 X1.4039 Y1.2300 
G01 X1.4250 Y1.2089 
G01 X1.4550 Y1.2089 
G01 X1.4761 Y1.2300 
G00 Z0.0200 
G00 X1.5261 Y1.1550 
G01 Z-0.0100 F10.00 
G01 X1.5261 Y1.1850 
G01 X1.5050 Y1.2061 
G01 X1.4750 Y1.2061 
G01 X1.4539 Y1.1850 
G01 X1.4539 Y1.1550 
G01 X1.4750 Y1.1339 
G01 X1.5050 Y1.1339 
G01 X1.5261 Y1.1550 
G00 Z0.0200 
G00 X1.1781 Y1.1762 
G01 Z-0.0100 F10.00 
G01 X1.1781 Y1.1838 
G01 X1.1769 Y1.1913 
G01 X1.1746 Y1.1985 
G01 X1.1711 Y1.2052 
G01 X1.1667 Y1.2113 
G01 X1.1613 Y1.2167 
G01 X1.1552 Y1.2211 
G01 X1.1485 Y1.2246 
G01 X1.1413 Y1.2269 
G01 X1.1338 Y1.2281 
G01 X1.1262 Y1.2281 
G01 X1.1187 Y1.2269 
G01 X1.1115 Y1.2246 
G01 X1.1048 Y1.2211 
G01 X1.0987 Y1.2167 
G01 X1.0933 Y1.2113 
G01 X1.0889 Y1.2052 
G01 X1.0854 Y1.1985 
G01 X1.0831 Y1.1913 
G01 X1.0819 Y1.1838 
G01 X1.0819 Y1.1762 
G01 X1.0831 Y1.1687 
G01 X1.0854 Y1.1615 
G01 X1.0889 Y1.1548 
G01 X1.0933 Y1.1487 
G01 X1.0987 Y1.1433 
G01 X1.1048 Y1.1389 
G01 X1.1115 Y1.1354 
G01 X1.1187 Y1.1331 
G01 X1.1262 Y1.1319 
G01 X1.1338 Y1.1319 
G01 X1.1413 Y1.1331 
G01 X1.1485 Y1.1354 
G01 X1.1552 Y1.1389 
G01 X1.1613 Y1.1433 
G01 X1.1667 Y1.1487 
G01 X1.1711 Y1.1548 
G01 X1.1746 Y1.1615 
G01 X1.1769 Y1.1687 
G01 X1.1781 Y1.1762 
G00 Z0.0200 
G00 X1.2781 Y1.1601 
G01 Z-0.0100 F10.00 
G01 X1.2781 Y1.1999 
G01 X1.2499 Y1.2281 
G01 X1.2101 Y1.2281 
G01 X1.1819 Y1.1999 
G01 X1.1819 Y1.1601 
G01 X1.2101 Y1.1319 
G01 X1.2499 Y1.1319 
G01 X1.2781 Y1.1601 
G00 Z0.0200 
G00 X1.7981 Y1.2162 
G01 Z-0.0100 F10.00 
G01 X1.7981 Y1.2238 
G01 X1.7969 Y1.2313 
G01 X1.7946 Y1.2385 
G01 X1.7911 Y1.2452 
G01 X1.7867 Y1.2513 
G01 X1.7813 Y1.2567 
G01 X1.7752 Y1.2611 
G01 X1.7685 Y1.2646 
G01 X1.7613 Y1.2669 
G01 X1.7538 Y1.2681 
G01 X1.7462 Y1.2681 
G01 X1.7387 Y1.2669 
G01 X1.7315 Y1.2646 
G01 X1.7248 Y1.2611 
G01 X1.7187 Y1.2567 
G01 X1.7133 Y1.2513 
G01 X1.7089 Y1.2452 
G01 X1.7054 Y1.2385 
G01 X1.7031 Y1.2313 
G01 X1.7019 Y1.2238 
G01 X1.7019 Y1.2162 
G01 X1.7031 Y1.2087 
G01 X1.7054 Y1.2015 
G01 X1.7089 Y1.1948 
G01 X1.7133 Y1.1887 
G01 X1.7187 Y1.1833 
G01 X1.7248 Y1.1789 
G01 X1.7315 Y1.1754 
G01 X1.7387 Y1.1731 
G01 X1.7462 Y1.1719 
G01 X1.7538 Y1.1719 
G01 X1.7613 Y1.1731 
G01 X1.7685 Y1.1754 
G01 X1.7752 Y1.1789 
G01 X1.7813 Y1.1833 
G01 X1.7867 Y1.1887 
G01 X1.7911 Y1.1948 
G01 X1.7946 Y1.2015 
G01 X1.7969 Y1.2087 
G01 X1.7981 Y1.2162 
G00 Z0.0200 
G00 X1.7981 Y1.1001 
G01 Z-0.0100 F10.00 
G01 X1.7981 Y1.1399 
G01 X1.7699 Y1.1681 
G01 X1.7301 Y1.1681 
G01 X1.7019 Y1.1399 
G01 X1.7019 Y1.1001 
G01 X1.7301 Y1.0719 
G01 X1.7699 Y1.0719 
G01 X1.7981 Y1.1001 
G00 Z0.0200 
G00 X1.8031 Y1.2158 
G01 Z-0.0100 F10.00 
G01 X1.8031 Y1.2242 
G01 X1.8018 Y1.2324 
G01 X1.7992 Y1.2404 
G01 X1.7954 Y1.2478 
G01 X1.7905 Y1.2546 
G01 X1.7846 Y1.2605 
G01 X1.7778 Y1.2654 
G01 X1.7704 Y1.2692 
G01 X1.7624 Y1.2718 
G01 X1.7542 Y1.2731 
G01 X1.7458 Y1.2731 
G01 X1.7376 Y1.2718 
G01 X1.7296 Y1.2692 
G01 X1.7222 Y1.2654 
G01 X1.7154 Y1.2605 
G01 X1.7095 Y1.2546 
G01 X1.7046 Y1.2478 
G01 X1.7008 Y1.2404 
G01 X1.6982 Y1.2324 
G01 X1.6969 Y1.2242 
G01 X1.6969 Y1.2158 
G01 X1.6982 Y1.2076 
G01 X1.7008 Y1.1996 
G01 X1.7046 Y1.1922 
G01 X1.7095 Y1.1854 
G01 X1.7154 Y1.1795 
G01 X1.7222 Y1.1746 
G01 X1.7270 Y1.1721 
G01 X1.6969 Y1.1420 
G01 X1.6969 Y1.0980 
G01 X1.7280 Y1.0669 
G01 X1.7720 Y1.0669 
G01 X1.8031 Y1.0980 
G01 X1.8031 Y1.1420 
G01 X1.7730 Y1.1721 
G01 X1.7778 Y1.1746 
G01 X1.7846 Y1.1795 
G01 X1.7905 Y1.1854 
G01 X1.7954 Y1.1922 
G01 X1.7992 Y1.1996 
G01 X1.8018 Y1.2076 
G01 X1.8031 Y1.2158 
G00 Z0.0200 
G00 X1.4811 Y1.2280 
G01 Z-0.0100 F10.00 
G01 X1.4811 Y1.2620 
G01 X1.4570 Y1.2861 
G01 X1.4230 Y1.2861 
G01 X1.3989 Y1.2620 
G01 X1.3989 Y1.2280 
G01 X1.4230 Y1.2039 
G01 X1.4570 Y1.2039 
G01 X1.4811 Y1.2280 
G00 Z0.0200 
G00 X0.8402 Y0.6867 
G01 Z-0.0100 F10.00 
G01 X0.8373 Y0.6925 
G01 X0.8335 Y0.6977 
G01 X0.8289 Y0.7023 
G01 X0.8237 Y0.7061 
G01 X0.8179 Y0.7090 
G01 X0.8118 Y0.7110 
G01 X0.8054 Y0.7120 
G01 X0.7989 Y0.7120 
G01 X0.7925 Y0.7110 
G01 X0.7863 Y0.7090 
G01 X0.7806 Y0.7061 
G01 X0.7754 Y0.7023 
G01 X0.7708 Y0.6977 
G01 X0.7670 Y0.6925 
G01 X0.7640 Y0.6867 
G01 X0.7628 Y0.6828 
G01 X0.7615 Y0.6867 
G01 X0.7585 Y0.6925 
G01 X0.7547 Y0.6977 
G01 X0.7502 Y0.7023 
G01 X0.7449 Y0.7061 
G01 X0.7392 Y0.7090 
G01 X0.7330 Y0.7110 
G01 X0.7266 Y0.7120 
G01 X0.7202 Y0.7120 
G01 X0.7138 Y0.7110 
G01 X0.7076 Y0.7090 
G01 X0.7018 Y0.7061 
G01 X0.6966 Y0.7023 
G01 X0.6920 Y0.6977 
G01 X0.6882 Y0.6925 
G01 X0.6853 Y0.6867 
G01 X0.6833 Y0.6806 
G01 X0.6823 Y0.6742 
G01 X0.6823 Y0.6057 
G01 X0.6833 Y0.5993 
G01 X0.6853 Y0.5932 
G01 X0.6882 Y0.5874 
G01 X0.6920 Y0.5822 
G01 X0.6966 Y0.5776 
G01 X0.7018 Y0.5738 
G01 X0.7076 Y0.5709 
G01 X0.7138 Y0.5689 
G01 X0.7202 Y0.5678 
G01 X0.7266 Y0.5678 
G01 X0.7330 Y0.5689 
G01 X0.7392 Y0.5709 
G01 X0.7449 Y0.5738 
G01 X0.7502 Y0.5776 
G01 X0.7547 Y0.5822 
G01 X0.7585 Y0.5874 
G01 X0.7615 Y0.5932 
G01 X0.7628 Y0.5971 
G01 X0.7640 Y0.5932 
G01 X0.7670 Y0.5874 
G01 X0.7708 Y0.5822 
G01 X0.7754 Y0.5776 
G01 X0.7806 Y0.5738 
G01 X0.7863 Y0.5709 
G01 X0.7925 Y0.5689 
G01 X0.7989 Y0.5678 
G01 X0.8054 Y0.5678 
G01 X0.8118 Y0.5689 
G01 X0.8179 Y0.5709 
G01 X0.8237 Y0.5738 
G01 X0.8289 Y0.5776 
G01 X0.8335 Y0.5822 
G01 X0.8373 Y0.5874 
G01 X0.8402 Y0.5932 
G01 X0.8415 Y0.5971 
G01 X0.8428 Y0.5932 
G01 X0.8457 Y0.5874 
G01 X0.8495 Y0.5822 
G01 X0.8541 Y0.5776 
G01 X0.8593 Y0.5738 
G01 X0.8651 Y0.5709 
G01 X0.8712 Y0.5689 
G01 X0.8776 Y0.5678 
G01 X0.8841 Y0.5678 
G01 X0.8905 Y0.5689 
G01 X0.8966 Y0.5709 
G01 X0.9024 Y0.5738 
G01 X0.9076 Y0.5776 
G01 X0.9122 Y0.5822 
G01 X0.9160 Y0.5874 
G01 X0.9190 Y0.5932 
G01 X0.9210 Y0.5993 
G01 X0.9220 Y0.6057 
G01 X0.9220 Y0.6742 
G01 X0.9210 Y0.6806 
G01 X0.9190 Y0.6867 
G01 X0.9160 Y0.6925 
G01 X0.9122 Y0.6977 
G01 X0.9076 Y0.7023 
G01 X0.9024 Y0.7061 
G01 X0.8966 Y0.7090 
G01 X0.8905 Y0.7110 
G01 X0.8841 Y0.7120 
G01 X0.8776 Y0.7120 
G01 X0.8712 Y0.7110 
G01 X0.8651 Y0.7090 
G01 X0.8593 Y0.7061 
G01 X0.8541 Y0.7023 
G01 X0.8495 Y0.6977 
G01 X0.8457 Y0.6925 
G01 X0.8428 Y0.6867 
G01 X0.8415 Y0.6828 
G01 X0.8402 Y0.6867 
G00 Z0.0200 
G00 X0.8034 Y0.7733 
G01 Z-0.0100 F10.00 
G01 X0.8063 Y0.7675 
G01 X0.8101 Y0.7623 
G01 X0.8147 Y0.7577 
G01 X0.8200 Y0.7539 
G01 X0.8257 Y0.7510 
G01 X0.8319 Y0.7490 
G01 X0.8383 Y0.7480 
G01 X0.8447 Y0.7480 
G01 X0.8511 Y0.7490 
G01 X0.8573 Y0.7510 
G01 X0.8630 Y0.7539 
G01 X0.8683 Y0.7577 
G01 X0.8728 Y0.7623 
G01 X0.8766 Y0.7675 
G01 X0.8796 Y0.7733 
G01 X0.8809 Y0.7772 
G01 X0.8821 Y0.7733 
G01 X0.8851 Y0.7675 
G01 X0.8889 Y0.7623 
G01 X0.8935 Y0.7577 
G01 X0.8987 Y0.7539 
G01 X0.9045 Y0.7510 
G01 X0.9106 Y0.7490 
G01 X0.9170 Y0.7480 
G01 X0.9235 Y0.7480 
G01 X0.9299 Y0.7490 
G01 X0.9360 Y0.7510 
G01 X0.9418 Y0.7539 
G01 X0.9470 Y0.7577 
G01 X0.9516 Y0.7623 
G01 X0.9554 Y0.7675 
G01 X0.9583 Y0.7733 
G01 X0.9603 Y0.7794 
G01 X0.9613 Y0.7858 
G01 X0.9613 Y0.8543 
G01 X0.9603 Y0.8607 
G01 X0.9583 Y0.8668 
G01 X0.9554 Y0.8726 
G01 X0.9516 Y0.8778 
G01 X0.9470 Y0.8824 
G01 X0.9418 Y0.8862 
G01 X0.9360 Y0.8891 
G01 X0.9299 Y0.8911 
G01 X0.9235 Y0.8922 
G01 X0.9170 Y0.8922 
G01 X0.9106 Y0.8911 
G01 X0.9045 Y0.8891 
G01 X0.8987 Y0.8862 
G01 X0.8935 Y0.8824 
G01 X0.8889 Y0.8778 
G01 X0.8851 Y0.8726 
G01 X0.8821 Y0.8668 
G01 X0.8809 Y0.8629 
G01 X0.8796 Y0.8668 
G01 X0.8766 Y0.8726 
G01 X0.8728 Y0.8778 
G01 X0.8683 Y0.8824 
G01 X0.8630 Y0.8862 
G01 X0.8573 Y0.8891 
G01 X0.8511 Y0.8911 
G01 X0.8447 Y0.8922 
G01 X0.8383 Y0.8922 
G01 X0.8319 Y0.8911 
G01 X0.8257 Y0.8891 
G01 X0.8200 Y0.8862 
G01 X0.8147 Y0.8824 
G01 X0.8101 Y0.8778 
G01 X0.8063 Y0.8726 
G01 X0.8034 Y0.8668 
G01 X0.8021 Y0.8629 
G01 X0.8008 Y0.8668 
G01 X0.7979 Y0.8726 
G01 X0.7941 Y0.8778 
G01 X0.7895 Y0.8824 
G01 X0.7843 Y0.8862 
G01 X0.7785 Y0.8891 
G01 X0.7724 Y0.8911 
G01 X0.7660 Y0.8922 
G01 X0.7595 Y0.8922 
G01 X0.7531 Y0.8911 
G01 X0.7470 Y0.8891 
G01 X0.7412 Y0.8862 
G01 X0.7360 Y0.8824 
G01 X0.7314 Y0.8778 
G01 X0.7276 Y0.8726 
G01 X0.7247 Y0.8668 
G01 X0.7227 Y0.8607 
G01 X0.7217 Y0.8543 
G01 X0.7217 Y0.7858 
G01 X0.7227 Y0.7794 
G01 X0.7247 Y0.7733 
G01 X0.7276 Y0.7675 
G01 X0.7314 Y0.7623 
G01 X0.7360 Y0.7577 
G01 X0.7412 Y0.7539 
G01 X0.7470 Y0.7510 
G01 X0.7531 Y0.7490 
G01 X0.7595 Y0.7480 
G01 X0.7660 Y0.7480 
G01 X0.7724 Y0.7490 
G01 X0.7785 Y0.7510 
G01 X0.7843 Y0.7539 
G01 X0.7895 Y0.7577 
G01 X0.7941 Y0.7623 
G01 X0.7979 Y0.7675 
G01 X0.8008 Y0.7733 
G01 X0.8021 Y0.7772 
G01 X0.8034 Y0.7733 
G00 Z0.0200 
G00 X1.5358 Y0.2989 
G01 Z-0.0100 F10.00 
G01 X1.6042 Y0.2989 
G01 X1.6106 Y0.2999 
G01 X1.6168 Y0.3019 
G01 X1.6225 Y0.3048 
G01 X1.6278 Y0.3087 
G01 X1.6323 Y0.3132 
G01 X1.6362 Y0.3185 
G01 X1.6391 Y0.3242 
G01 X1.6411 Y0.3304 
G01 X1.6421 Y0.3368 
G01 X1.6421 Y0.3432 
G01 X1.6411 Y0.3496 
G01 X1.6391 Y0.3558 
G01 X1.6362 Y0.3615 
G01 X1.6323 Y0.3668 
G01 X1.6278 Y0.3713 
G01 X1.6225 Y0.3752 
G01 X1.6168 Y0.3781 
G01 X1.6106 Y0.3801 
G01 X1.6042 Y0.3811 
G01 X1.5358 Y0.3811 
G01 X1.5294 Y0.3801 
G01 X1.5232 Y0.3781 
G01 X1.5175 Y0.3752 
G01 X1.5122 Y0.3713 
G01 X1.5077 Y0.3668 
G01 X1.5038 Y0.3615 
G01 X1.5009 Y0.3558 
G01 X1.4989 Y0.3496 
G01 X1.4979 Y0.3432 
G01 X1.4979 Y0.3368 
G01 X1.4989 Y0.3304 
G01 X1.5009 Y0.3242 
G01 X1.5038 Y0.3185 
G01 X1.5077 Y0.3132 
G01 X1.5122 Y0.3087 
G01 X1.5175 Y0.3048 
G01 X1.5232 Y0.3019 
G01 X1.5294 Y0.2999 
G01 X1.5358 Y0.2989 
G00 Z0.0200 
G00 X1.5358 Y0.3989 
G01 Z-0.0100 F10.00 
G01 X1.6042 Y0.3989 
G01 X1.6106 Y0.3999 
G01 X1.6168 Y0.4019 
G01 X1.6225 Y0.4048 
G01 X1.6278 Y0.4087 
G01 X1.6323 Y0.4132 
G01 X1.6362 Y0.4185 
G01 X1.6391 Y0.4242 
G01 X1.6411 Y0.4304 
G01 X1.6421 Y0.4368 
G01 X1.6421 Y0.4432 
G01 X1.6411 Y0.4496 
G01 X1.6391 Y0.4558 
G01 X1.6362 Y0.4615 
G01 X1.6323 Y0.4668 
G01 X1.6278 Y0.4713 
G01 X1.6225 Y0.4752 
G01 X1.6168 Y0.4781 
G01 X1.6106 Y0.4801 
G01 X1.6042 Y0.4811 
G01 X1.5358 Y0.4811 
G01 X1.5294 Y0.4801 
G01 X1.5232 Y0.4781 
G01 X1.5175 Y0.4752 
G01 X1.5122 Y0.4713 
G01 X1.5077 Y0.4668 
G01 X1.5038 Y0.4615 
G01 X1.5009 Y0.4558 
G01 X1.4989 Y0.4496 
G01 X1.4979 Y0.4432 
G01 X1.4979 Y0.4368 
G01 X1.4989 Y0.4304 
G01 X1.5009 Y0.4242 
G01 X1.5038 Y0.4185 
G01 X1.5077 Y0.4132 
G01 X1.5122 Y0.4087 
G01 X1.5175 Y0.4048 
G01 X1.5232 Y0.4019 
G01 X1.5294 Y0.3999 
G01 X1.5358 Y0.3989 
G00 Z0.0200 
G00 X1.5358 Y0.4989 
G01 Z-0.0100 F10.00 
G01 X1.6042 Y0.4989 
G01 X1.6106 Y0.4999 
G01 X1.6168 Y0.5019 
G01 X1.6225 Y0.5048 
G01 X1.6278 Y0.5087 
G01 X1.6323 Y0.5132 
G01 X1.6362 Y0.5185 
G01 X1.6391 Y0.5242 
G01 X1.6411 Y0.5304 
G01 X1.6421 Y0.5368 
G01 X1.6421 Y0.5432 
G01 X1.6411 Y0.5496 
G01 X1.6391 Y0.5558 
G01 X1.6362 Y0.5615 
G01 X1.6323 Y0.5668 
G01 X1.6278 Y0.5713 
G01 X1.6225 Y0.5752 
G01 X1.6168 Y0.5781 
G01 X1.6106 Y0.5801 
G01 X1.6042 Y0.5811 
G01 X1.5358 Y0.5811 
G01 X1.5294 Y0.5801 
G01 X1.5232 Y0.5781 
G01 X1.5175 Y0.5752 
G01 X1.5122 Y0.5713 
G01 X1.5077 Y0.5668 
G01 X1.5038 Y0.5615 
G01 X1.5009 Y0.5558 
G01 X1.4989 Y0.5496 
G01 X1.4979 Y0.5432 
G01 X1.4979 Y0.5368 
G01 X1.4989 Y0.5304 
G01 X1.5009 Y0.5242 
G01 X1.5038 Y0.5185 
G01 X1.5077 Y0.5132 
G01 X1.5122 Y0.5087 
G01 X1.5175 Y0.5048 
G01 X1.5232 Y0.5019 
G01 X1.5294 Y0.4999 
G01 X1.5358 Y0.4989 
G00 Z0.0200 
G00 X1.5358 Y0.5989 
G01 Z-0.0100 F10.00 
G01 X1.6042 Y0.5989 
G01 X1.6106 Y0.5999 
G01 X1.6168 Y0.6019 
G01 X1.6225 Y0.6048 
G01 X1.6278 Y0.6087 
G01 X1.6323 Y0.6132 
G01 X1.6362 Y0.6185 
G01 X1.6391 Y0.6242 
G01 X1.6411 Y0.6304 
G01 X1.6421 Y0.6368 
G01 X1.6421 Y0.6432 
G01 X1.6411 Y0.6496 
G01 X1.6391 Y0.6558 
G01 X1.6362 Y0.6615 
G01 X1.6323 Y0.6668 
G01 X1.6278 Y0.6713 
G01 X1.6225 Y0.6752 
G01 X1.6168 Y0.6781 
G01 X1.6106 Y0.6801 
G01 X1.6042 Y0.6811 
G01 X1.5358 Y0.6811 
G01 X1.5294 Y0.6801 
G01 X1.5232 Y0.6781 
G01 X1.5175 Y0.6752 
G01 X1.5122 Y0.6713 
G01 X1.5077 Y0.6668 
G01 X1.5038 Y0.6615 
G01 X1.5009 Y0.6558 
G01 X1.4989 Y0.6496 
G01 X1.4979 Y0.6432 
G01 X1.4979 Y0.6368 
G01 X1.4989 Y0.6304 
G01 X1.5009 Y0.6242 
G01 X1.5038 Y0.6185 
G01 X1.5077 Y0.6132 
G01 X1.5122 Y0.6087 
G01 X1.5175 Y0.6048 
G01 X1.5232 Y0.6019 
G01 X1.5294 Y0.5999 
G01 X1.5358 Y0.5989 
G00 Z0.0200 
G00 X1.5358 Y0.6989 
G01 Z-0.0100 F10.00 
G01 X1.6042 Y0.6989 
G01 X1.6106 Y0.6999 
G01 X1.6168 Y0.7019 
G01 X1.6225 Y0.7048 
G01 X1.6278 Y0.7087 
G01 X1.6323 Y0.7132 
G01 X1.6362 Y0.7185 
G01 X1.6391 Y0.7242 
G01 X1.6411 Y0.7304 
G01 X1.6421 Y0.7368 
G01 X1.6421 Y0.7432 
G01 X1.6411 Y0.7496 
G01 X1.6391 Y0.7558 
G01 X1.6362 Y0.7615 
G01 X1.6323 Y0.7668 
G01 X1.6278 Y0.7713 
G01 X1.6225 Y0.7752 
G01 X1.6168 Y0.7781 
G01 X1.6106 Y0.7801 
G01 X1.6042 Y0.7811 
G01 X1.5358 Y0.7811 
G01 X1.5294 Y0.7801 
G01 X1.5232 Y0.7781 
G01 X1.5175 Y0.7752 
G01 X1.5122 Y0.7713 
G01 X1.5077 Y0.7668 
G01 X1.5038 Y0.7615 
G01 X1.5009 Y0.7558 
G01 X1.4989 Y0.7496 
G01 X1.4979 Y0.7432 
G01 X1.4979 Y0.7368 
G01 X1.4989 Y0.7304 
G01 X1.5009 Y0.7242 
G01 X1.5038 Y0.7185 
G01 X1.5077 Y0.7132 
G01 X1.5122 Y0.7087 
G01 X1.5175 Y0.7048 
G01 X1.5232 Y0.7019 
G01 X1.5294 Y0.6999 
G01 X1.5358 Y0.6989 
G00 Z0.0200 
G00 X1.5358 Y0.7989 
G01 Z-0.0100 F10.00 
G01 X1.6042 Y0.7989 
G01 X1.6106 Y0.7999 
G01 X1.6168 Y0.8019 
G01 X1.6225 Y0.8048 
G01 X1.6278 Y0.8087 
G01 X1.6323 Y0.8132 
G01 X1.6362 Y0.8185 
G01 X1.6391 Y0.8242 
G01 X1.6411 Y0.8304 
G01 X1.6421 Y0.8368 
G01 X1.6421 Y0.8432 
G01 X1.6411 Y0.8496 
G01 X1.6391 Y0.8558 
G01 X1.6362 Y0.8615 
G01 X1.6323 Y0.8668 
G01 X1.6278 Y0.8713 
G01 X1.6225 Y0.8752 
G01 X1.6168 Y0.8781 
G01 X1.6106 Y0.8801 
G01 X1.6042 Y0.8811 
G01 X1.5358 Y0.8811 
G01 X1.5294 Y0.8801 
G01 X1.5232 Y0.8781 
G01 X1.5175 Y0.8752 
G01 X1.5122 Y0.8713 
G01 X1.5077 Y0.8668 
G01 X1.5038 Y0.8615 
G01 X1.5009 Y0.8558 
G01 X1.4989 Y0.8496 
G01 X1.4979 Y0.8432 
G01 X1.4979 Y0.8368 
G01 X1.4989 Y0.8304 
G01 X1.5009 Y0.8242 
G01 X1.5038 Y0.8185 
G01 X1.5077 Y0.8132 
G01 X1.5122 Y0.8087 
G01 X1.5175 Y0.8048 
G01 X1.5232 Y0.8019 
G01 X1.5294 Y0.7999 
G01 X1.5358 Y0.7989 
G00 Z0.0200 
G00 X1.5358 Y0.8989 
G01 Z-0.0100 F10.00 
G01 X1.6042 Y0.8989 
G01 X1.6106 Y0.8999 
G01 X1.6168 Y0.9019 
G01 X1.6225 Y0.9048 
G01 X1.6278 Y0.9087 
G01 X1.6323 Y0.9132 
G01 X1.6362 Y0.9185 
G01 X1.6391 Y0.9242 
G01 X1.6411 Y0.9304 
G01 X1.6421 Y0.9368 
G01 X1.6421 Y0.9432 
G01 X1.6411 Y0.9496 
G01 X1.6391 Y0.9558 
G01 X1.6362 Y0.9615 
G01 X1.6323 Y0.9668 
G01 X1.6278 Y0.9713 
G01 X1.6225 Y0.9752 
G01 X1.6168 Y0.9781 
G01 X1.6106 Y0.9801 
G01 X1.6042 Y0.9811 
G01 X1.5358 Y0.9811 
G01 X1.5294 Y0.9801 
G01 X1.5232 Y0.9781 
G01 X1.5175 Y0.9752 
G01 X1.5122 Y0.9713 
G01 X1.5077 Y0.9668 
G01 X1.5038 Y0.9615 
G01 X1.5009 Y0.9558 
G01 X1.4989 Y0.9496 
G01 X1.4979 Y0.9432 
G01 X1.4979 Y0.9368 
G01 X1.4989 Y0.9304 
G01 X1.5009 Y0.9242 
G01 X1.5038 Y0.9185 
G01 X1.5077 Y0.9132 
G01 X1.5122 Y0.9087 
G01 X1.5175 Y0.9048 
G01 X1.5232 Y0.9019 
G01 X1.5294 Y0.8999 
G01 X1.5358 Y0.8989 
G00 Z0.0200 
G00 X1.5358 Y0.9989 
G01 Z-0.0100 F10.00 
G01 X1.6042 Y0.9989 
G01 X1.6106 Y0.9999 
G01 X1.6168 Y1.0019 
G01 X1.6225 Y1.0048 
G01 X1.6278 Y1.0087 
G01 X1.6323 Y1.0132 
G01 X1.6362 Y1.0185 
G01 X1.6391 Y1.0242 
G01 X1.6411 Y1.0304 
G01 X1.6421 Y1.0368 
G01 X1.6421 Y1.0432 
G01 X1.6411 Y1.0496 
G01 X1.6391 Y1.0558 
G01 X1.6362 Y1.0615 
G01 X1.6323 Y1.0668 
G01 X1.6278 Y1.0713 
G01 X1.6225 Y1.0752 
G01 X1.6168 Y1.0781 
G01 X1.6106 Y1.0801 
G01 X1.6042 Y1.0811 
G01 X1.5358 Y1.0811 
G01 X1.5294 Y1.0801 
G01 X1.5232 Y1.0781 
G01 X1.5175 Y1.0752 
G01 X1.5122 Y1.0713 
G01 X1.5077 Y1.0668 
G01 X1.5038 Y1.0615 
G01 X1.5009 Y1.0558 
G01 X1.4989 Y1.0496 
G01 X1.4979 Y1.0432 
G01 X1.4979 Y1.0368 
G01 X1.4989 Y1.0304 
G01 X1.5009 Y1.0242 
G01 X1.5038 Y1.0185 
G01 X1.5077 Y1.0132 
G01 X1.5122 Y1.0087 
G01 X1.5175 Y1.0048 
G01 X1.5232 Y1.0019 
G01 X1.5294 Y0.9999 
G01 X1.5358 Y0.9989 
G00 Z0.0200 
G00 X1.2358 Y0.9989 
G01 Z-0.0100 F10.00 
G01 X1.3042 Y0.9989 
G01 X1.3106 Y0.9999 
G01 X1.3168 Y1.0019 
G01 X1.3225 Y1.0048 
G01 X1.3278 Y1.0087 
G01 X1.3323 Y1.0132 
G01 X1.3362 Y1.0185 
G01 X1.3391 Y1.0242 
G01 X1.3411 Y1.0304 
G01 X1.3421 Y1.0368 
G01 X1.3421 Y1.0432 
G01 X1.3411 Y1.0496 
G01 X1.3391 Y1.0558 
G01 X1.3362 Y1.0615 
G01 X1.3323 Y1.0668 
G01 X1.3278 Y1.0713 
G01 X1.3225 Y1.0752 
G01 X1.3168 Y1.0781 
G01 X1.3106 Y1.0801 
G01 X1.3042 Y1.0811 
G01 X1.2358 Y1.0811 
G01 X1.2294 Y1.0801 
G01 X1.2232 Y1.0781 
G01 X1.2175 Y1.0752 
G01 X1.2122 Y1.0713 
G01 X1.2077 Y1.0668 
G01 X1.2038 Y1.0615 
G01 X1.2009 Y1.0558 
G01 X1.1989 Y1.0496 
G01 X1.1979 Y1.0432 
G01 X1.1979 Y1.0368 
G01 X1.1989 Y1.0304 
G01 X1.2009 Y1.0242 
G01 X1.2038 Y1.0185 
G01 X1.2077 Y1.0132 
G01 X1.2122 Y1.0087 
G01 X1.2175 Y1.0048 
G01 X1.2232 Y1.0019 
G01 X1.2294 Y0.9999 
G01 X1.2358 Y0.9989 
G00 Z0.0200 
G00 X1.2358 Y0.8989 
G01 Z-0.0100 F10.00 
G01 X1.3042 Y0.8989 
G01 X1.3106 Y0.8999 
G01 X1.3168 Y0.9019 
G01 X1.3225 Y0.9048 
G01 X1.3278 Y0.9087 
G01 X1.3323 Y0.9132 
G01 X1.3362 Y0.9185 
G01 X1.3391 Y0.9242 
G01 X1.3411 Y0.9304 
G01 X1.3421 Y0.9368 
G01 X1.3421 Y0.9432 
G01 X1.3411 Y0.9496 
G01 X1.3391 Y0.9558 
G01 X1.3362 Y0.9615 
G01 X1.3323 Y0.9668 
G01 X1.3278 Y0.9713 
G01 X1.3225 Y0.9752 
G01 X1.3168 Y0.9781 
G01 X1.3106 Y0.9801 
G01 X1.3042 Y0.9811 
G01 X1.2358 Y0.9811 
G01 X1.2294 Y0.9801 
G01 X1.2232 Y0.9781 
G01 X1.2175 Y0.9752 
G01 X1.2122 Y0.9713 
G01 X1.2077 Y0.9668 
G01 X1.2038 Y0.9615 
G01 X1.2009 Y0.9558 
G01 X1.1989 Y0.9496 
G01 X1.1979 Y0.9432 
G01 X1.1979 Y0.9368 
G01 X1.1989 Y0.9304 
G01 X1.2009 Y0.9242 
G01 X1.2038 Y0.9185 
G01 X1.2077 Y0.9132 
G01 X1.2122 Y0.9087 
G01 X1.2175 Y0.9048 
G01 X1.2232 Y0.9019 
G01 X1.2294 Y0.8999 
G01 X1.2358 Y0.8989 
G00 Z0.0200 
G00 X1.2358 Y0.7989 
G01 Z-0.0100 F10.00 
G01 X1.3042 Y0.7989 
G01 X1.3106 Y0.7999 
G01 X1.3168 Y0.8019 
G01 X1.3225 Y0.8048 
G01 X1.3278 Y0.8087 
G01 X1.3323 Y0.8132 
G01 X1.3362 Y0.8185 
G01 X1.3391 Y0.8242 
G01 X1.3411 Y0.8304 
G01 X1.3421 Y0.8368 
G01 X1.3421 Y0.8432 
G01 X1.3411 Y0.8496 
G01 X1.3391 Y0.8558 
G01 X1.3362 Y0.8615 
G01 X1.3323 Y0.8668 
G01 X1.3278 Y0.8713 
G01 X1.3225 Y0.8752 
G01 X1.3168 Y0.8781 
G01 X1.3106 Y0.8801 
G01 X1.3042 Y0.8811 
G01 X1.2358 Y0.8811 
G01 X1.2294 Y0.8801 
G01 X1.2232 Y0.8781 
G01 X1.2175 Y0.8752 
G01 X1.2122 Y0.8713 
G01 X1.2077 Y0.8668 
G01 X1.2038 Y0.8615 
G01 X1.2009 Y0.8558 
G01 X1.1989 Y0.8496 
G01 X1.1979 Y0.8432 
G01 X1.1979 Y0.8368 
G01 X1.1989 Y0.8304 
G01 X1.2009 Y0.8242 
G01 X1.2038 Y0.8185 
G01 X1.2077 Y0.8132 
G01 X1.2122 Y0.8087 
G01 X1.2175 Y0.8048 
G01 X1.2232 Y0.8019 
G01 X1.2294 Y0.7999 
G01 X1.2358 Y0.7989 
G00 Z0.0200 
G00 X1.2358 Y0.6989 
G01 Z-0.0100 F10.00 
G01 X1.3042 Y0.6989 
G01 X1.3106 Y0.6999 
G01 X1.3168 Y0.7019 
G01 X1.3225 Y0.7048 
G01 X1.3278 Y0.7087 
G01 X1.3323 Y0.7132 
G01 X1.3362 Y0.7185 
G01 X1.3391 Y0.7242 
G01 X1.3411 Y0.7304 
G01 X1.3421 Y0.7368 
G01 X1.3421 Y0.7432 
G01 X1.3411 Y0.7496 
G01 X1.3391 Y0.7558 
G01 X1.3362 Y0.7615 
G01 X1.3323 Y0.7668 
G01 X1.3278 Y0.7713 
G01 X1.3225 Y0.7752 
G01 X1.3168 Y0.7781 
G01 X1.3106 Y0.7801 
G01 X1.3042 Y0.7811 
G01 X1.2358 Y0.7811 
G01 X1.2294 Y0.7801 
G01 X1.2232 Y0.7781 
G01 X1.2175 Y0.7752 
G01 X1.2122 Y0.7713 
G01 X1.2077 Y0.7668 
G01 X1.2038 Y0.7615 
G01 X1.2009 Y0.7558 
G01 X1.1989 Y0.7496 
G01 X1.1979 Y0.7432 
G01 X1.1979 Y0.7368 
G01 X1.1989 Y0.7304 
G01 X1.2009 Y0.7242 
G01 X1.2038 Y0.7185 
G01 X1.2077 Y0.7132 
G01 X1.2122 Y0.7087 
G01 X1.2175 Y0.7048 
G01 X1.2232 Y0.7019 
G01 X1.2294 Y0.6999 
G01 X1.2358 Y0.6989 
G00 Z0.0200 
G00 X1.2358 Y0.5989 
G01 Z-0.0100 F10.00 
G01 X1.3042 Y0.5989 
G01 X1.3106 Y0.5999 
G01 X1.3168 Y0.6019 
G01 X1.3225 Y0.6048 
G01 X1.3278 Y0.6087 
G01 X1.3323 Y0.6132 
G01 X1.3362 Y0.6185 
G01 X1.3391 Y0.6242 
G01 X1.3411 Y0.6304 
G01 X1.3421 Y0.6368 
G01 X1.3421 Y0.6432 
G01 X1.3411 Y0.6496 
G01 X1.3391 Y0.6558 
G01 X1.3362 Y0.6615 
G01 X1.3323 Y0.6668 
G01 X1.3278 Y0.6713 
G01 X1.3225 Y0.6752 
G01 X1.3168 Y0.6781 
G01 X1.3106 Y0.6801 
G01 X1.3042 Y0.6811 
G01 X1.2358 Y0.6811 
G01 X1.2294 Y0.6801 
G01 X1.2232 Y0.6781 
G01 X1.2175 Y0.6752 
G01 X1.2122 Y0.6713 
G01 X1.2077 Y0.6668 
G01 X1.2038 Y0.6615 
G01 X1.2009 Y0.6558 
G01 X1.1989 Y0.6496 
G01 X1.1979 Y0.6432 
G01 X1.1979 Y0.6368 
G01 X1.1989 Y0.6304 
G01 X1.2009 Y0.6242 
G01 X1.2038 Y0.6185 
G01 X1.2077 Y0.6132 
G01 X1.2122 Y0.6087 
G01 X1.2175 Y0.6048 
G01 X1.2232 Y0.6019 
G01 X1.2294 Y0.5999 
G01 X1.2358 Y0.5989 
G00 Z0.0200 
G00 X1.2358 Y0.4989 
G01 Z-0.0100 F10.00 
G01 X1.3042 Y0.4989 
G01 X1.3106 Y0.4999 
G01 X1.3168 Y0.5019 
G01 X1.3225 Y0.5048 
G01 X1.3278 Y0.5087 
G01 X1.3323 Y0.5132 
G01 X1.3362 Y0.5185 
G01 X1.3391 Y0.5242 
G01 X1.3411 Y0.5304 
G01 X1.3421 Y0.5368 
G01 X1.3421 Y0.5432 
G01 X1.3411 Y0.5496 
G01 X1.3391 Y0.5558 
G01 X1.3362 Y0.5615 
G01 X1.3323 Y0.5668 
G01 X1.3278 Y0.5713 
G01 X1.3225 Y0.5752 
G01 X1.3168 Y0.5781 
G01 X1.3106 Y0.5801 
G01 X1.3042 Y0.5811 
G01 X1.2358 Y0.5811 
G01 X1.2294 Y0.5801 
G01 X1.2232 Y0.5781 
G01 X1.2175 Y0.5752 
G01 X1.2122 Y0.5713 
G01 X1.2077 Y0.5668 
G01 X1.2038 Y0.5615 
G01 X1.2009 Y0.5558 
G01 X1.1989 Y0.5496 
G01 X1.1979 Y0.5432 
G01 X1.1979 Y0.5368 
G01 X1.1989 Y0.5304 
G01 X1.2009 Y0.5242 
G01 X1.2038 Y0.5185 
G01 X1.2077 Y0.5132 
G01 X1.2122 Y0.5087 
G01 X1.2175 Y0.5048 
G01 X1.2232 Y0.5019 
G01 X1.2294 Y0.4999 
G01 X1.2358 Y0.4989 
G00 Z0.0200 
G00 X1.2358 Y0.3989 
G01 Z-0.0100 F10.00 
G01 X1.3042 Y0.3989 
G01 X1.3106 Y0.3999 
G01 X1.3168 Y0.4019 
G01 X1.3225 Y0.4048 
G01 X1.3278 Y0.4087 
G01 X1.3323 Y0.4132 
G01 X1.3362 Y0.4185 
G01 X1.3391 Y0.4242 
G01 X1.3411 Y0.4304 
G01 X1.3421 Y0.4368 
G01 X1.3421 Y0.4432 
G01 X1.3411 Y0.4496 
G01 X1.3391 Y0.4558 
G01 X1.3362 Y0.4615 
G01 X1.3323 Y0.4668 
G01 X1.3278 Y0.4713 
G01 X1.3225 Y0.4752 
G01 X1.3168 Y0.4781 
G01 X1.3106 Y0.4801 
G01 X1.3042 Y0.4811 
G01 X1.2358 Y0.4811 
G01 X1.2294 Y0.4801 
G01 X1.2232 Y0.4781 
G01 X1.2175 Y0.4752 
G01 X1.2122 Y0.4713 
G01 X1.2077 Y0.4668 
G01 X1.2038 Y0.4615 
G01 X1.2009 Y0.4558 
G01 X1.1989 Y0.4496 
G01 X1.1979 Y0.4432 
G01 X1.1979 Y0.4368 
G01 X1.1989 Y0.4304 
G01 X1.2009 Y0.4242 
G01 X1.2038 Y0.4185 
G01 X1.2077 Y0.4132 
G01 X1.2122 Y0.4087 
G01 X1.2175 Y0.4048 
G01 X1.2232 Y0.4019 
G01 X1.2294 Y0.3999 
G01 X1.2358 Y0.3989 
G00 Z0.0200 
G00 X1.2358 Y0.2989 
G01 Z-0.0100 F10.00 
G01 X1.3042 Y0.2989 
G01 X1.3106 Y0.2999 
G01 X1.3168 Y0.3019 
G01 X1.3225 Y0.3048 
G01 X1.3278 Y0.3087 
G01 X1.3323 Y0.3132 
G01 X1.3362 Y0.3185 
G01 X1.3391 Y0.3242 
G01 X1.3411 Y0.3304 
G01 X1.3421 Y0.3368 
G01 X1.3421 Y0.3432 
G01 X1.3411 Y0.3496 
G01 X1.3391 Y0.3558 
G01 X1.3362 Y0.3615 
G01 X1.3323 Y0.3668 
G01 X1.3278 Y0.3713 
G01 X1.3225 Y0.3752 
G01 X1.3168 Y0.3781 
G01 X1.3106 Y0.3801 
G01 X1.3042 Y0.3811 
G01 X1.2358 Y0.3811 
G01 X1.2294 Y0.3801 
G01 X1.2232 Y0.3781 
G01 X1.2175 Y0.3752 
G01 X1.2122 Y0.3713 
G01 X1.2077 Y0.3668 
G01 X1.2038 Y0.3615 
G01 X1.2009 Y0.3558 
G01 X1.1989 Y0.3496 
G01 X1.1979 Y0.3432 
G01 X1.1979 Y0.3368 
G01 X1.1989 Y0.3304 
G01 X1.2009 Y0.3242 
G01 X1.2038 Y0.3185 
G01 X1.2077 Y0.3132 
G01 X1.2122 Y0.3087 
G01 X1.2175 Y0.3048 
G01 X1.2232 Y0.3019 
G01 X1.2294 Y0.2999 
G01 X1.2358 Y0.2989 
G00 Z0.0200 
G00 X0.3351 Y0.9813 
G01 Z-0.0100 F10.00 
G01 X0.3351 Y1.0187 
G01 X0.3087 Y1.0451 
G01 X0.2713 Y1.0451 
G01 X0.2449 Y1.0187 
G01 X0.2449 Y0.9813 
G01 X0.2713 Y0.9549 
G01 X0.3087 Y0.9549 
G01 X0.3351 Y0.9813 
G00 Z0.0200 
G00 X0.3351 Y0.8813 
G01 Z-0.0100 F10.00 
G01 X0.3351 Y0.9187 
G01 X0.3087 Y0.9451 
G01 X0.2713 Y0.9451 
G01 X0.2449 Y0.9187 
G01 X0.2449 Y0.8813 
G01 X0.2713 Y0.8549 
G01 X0.3087 Y0.8549 
G01 X0.3351 Y0.8813 
G00 Z0.0200 
G00 X0.3351 Y0.7813 
G01 Z-0.0100 F10.00 
G01 X0.3351 Y0.8187 
G01 X0.3087 Y0.8451 
G01 X0.2713 Y0.8451 
G01 X0.2449 Y0.8187 
G01 X0.2449 Y0.7813 
G01 X0.2713 Y0.7549 
G01 X0.3087 Y0.7549 
G01 X0.3351 Y0.7813 
G00 Z0.0200 
G00 X0.3351 Y0.6813 
G01 Z-0.0100 F10.00 
G01 X0.3351 Y0.7187 
G01 X0.3087 Y0.7451 
G01 X0.2713 Y0.7451 
G01 X0.2449 Y0.7187 
G01 X0.2449 Y0.6813 
G01 X0.2713 Y0.6549 
G01 X0.3087 Y0.6549 
G01 X0.3351 Y0.6813 
G00 Z0.0200 
G00 X0.3351 Y0.5813 
G01 Z-0.0100 F10.00 
G01 X0.3351 Y0.6187 
G01 X0.3087 Y0.6451 
G01 X0.2713 Y0.6451 
G01 X0.2449 Y0.6187 
G01 X0.2449 Y0.5813 
G01 X0.2713 Y0.5549 
G01 X0.3087 Y0.5549 
G01 X0.3351 Y0.5813 
G00 Z0.0200 
G00 X0.3351 Y0.4813 
G01 Z-0.0100 F10.00 
G01 X0.3351 Y0.5187 
G01 X0.3087 Y0.5451 
G01 X0.2713 Y0.5451 
G01 X0.2449 Y0.5187 
G01 X0.2449 Y0.4813 
G01 X0.2713 Y0.4549 
G01 X0.3087 Y0.4549 
G01 X0.3351 Y0.4813 
G00 Z0.0200 
G00 X0.2351 Y0.9813 
G01 Z-0.0100 F10.00 
G01 X0.2351 Y1.0187 
G01 X0.2087 Y1.0451 
G01 X0.1713 Y1.0451 
G01 X0.1449 Y1.0187 
G01 X0.1449 Y0.9813 
G01 X0.1713 Y0.9549 
G01 X0.2087 Y0.9549 
G01 X0.2351 Y0.9813 
G00 Z0.0200 
G00 X0.2351 Y0.8813 
G01 Z-0.0100 F10.00 
G01 X0.2351 Y0.9187 
G01 X0.2087 Y0.9451 
G01 X0.1713 Y0.9451 
G01 X0.1449 Y0.9187 
G01 X0.1449 Y0.8813 
G01 X0.1713 Y0.8549 
G01 X0.2087 Y0.8549 
G01 X0.2351 Y0.8813 
G00 Z0.0200 
G00 X0.2351 Y0.7813 
G01 Z-0.0100 F10.00 
G01 X0.2351 Y0.8187 
G01 X0.2087 Y0.8451 
G01 X0.1713 Y0.8451 
G01 X0.1449 Y0.8187 
G01 X0.1449 Y0.7813 
G01 X0.1713 Y0.7549 
G01 X0.2087 Y0.7549 
G01 X0.2351 Y0.7813 
G00 Z0.0200 
G00 X0.2351 Y0.6813 
G01 Z-0.0100 F10.00 
G01 X0.2351 Y0.7187 
G01 X0.2087 Y0.7451 
G01 X0.1713 Y0.7451 
G01 X0.1449 Y0.7187 
G01 X0.1449 Y0.6813 
G01 X0.1713 Y0.6549 
G01 X0.2087 Y0.6549 
G01 X0.2351 Y0.6813 
G00 Z0.0200 
G00 X0.2351 Y0.5813 
G01 Z-0.0100 F10.00 
G01 X0.2351 Y0.6187 
G01 X0.2087 Y0.6451 
G01 X0.1713 Y0.6451 
G01 X0.1449 Y0.6187 
G01 X0.1449 Y0.5813 
G01 X0.1713 Y0.5549 
G01 X0.2087 Y0.5549 
G01 X0.2351 Y0.5813 
G00 Z0.0200 
G00 X0.2351 Y0.4813 
G01 Z-0.0100 F10.00 
G01 X0.2351 Y0.5187 
G01 X0.2087 Y0.5451 
G01 X0.1713 Y0.5451 
G01 X0.1449 Y0.5187 
G01 X0.1449 Y0.4813 
G01 X0.1713 Y0.4549 
G01 X0.2087 Y0.4549 
G01 X0.2351 Y0.4813 
G00 Z0.0200 
G00 X0.3351 Y0.3813 
G01 Z-0.0100 F10.00 
G01 X0.3351 Y0.4187 
G01 X0.3087 Y0.4451 
G01 X0.2713 Y0.4451 
G01 X0.2449 Y0.4187 
G01 X0.2449 Y0.3813 
G01 X0.2713 Y0.3549 
G01 X0.3087 Y0.3549 
G01 X0.3351 Y0.3813 
G00 Z0.0200 
G00 X0.2351 Y0.3813 
G01 Z-0.0100 F10.00 
G01 X0.2351 Y0.4187 
G01 X0.2087 Y0.4451 
G01 X0.1713 Y0.4451 
G01 X0.1449 Y0.4187 
G01 X0.1449 Y0.3813 
G01 X0.1713 Y0.3549 
G01 X0.2087 Y0.3549 
G01 X0.2351 Y0.3813 
G00 Z0.0200 
G00 X0.8342 Y0.4111 
G01 Z-0.0100 F10.00 
G01 X0.7658 Y0.4111 
G01 X0.7594 Y0.4101 
G01 X0.7532 Y0.4081 
G01 X0.7475 Y0.4052 
G01 X0.7422 Y0.4013 
G01 X0.7377 Y0.3968 
G01 X0.7338 Y0.3915 
G01 X0.7309 Y0.3858 
G01 X0.7289 Y0.3796 
G01 X0.7279 Y0.3732 
G01 X0.7279 Y0.3668 
G01 X0.7289 Y0.3604 
G01 X0.7309 Y0.3542 
G01 X0.7338 Y0.3485 
G01 X0.7377 Y0.3432 
G01 X0.7422 Y0.3387 
G01 X0.7475 Y0.3348 
G01 X0.7532 Y0.3319 
G01 X0.7594 Y0.3299 
G01 X0.7658 Y0.3289 
G01 X0.8342 Y0.3289 
G01 X0.8406 Y0.3299 
G01 X0.8468 Y0.3319 
G01 X0.8525 Y0.3348 
G01 X0.8578 Y0.3387 
G01 X0.8623 Y0.3432 
G01 X0.8662 Y0.3485 
G01 X0.8691 Y0.3542 
G01 X0.8711 Y0.3604 
G01 X0.8721 Y0.3668 
G01 X0.8721 Y0.3732 
G01 X0.8711 Y0.3796 
G01 X0.8691 Y0.3858 
G01 X0.8662 Y0.3915 
G01 X0.8623 Y0.3968 
G01 X0.8578 Y0.4013 
G01 X0.8525 Y0.4052 
G01 X0.8468 Y0.4081 
G01 X0.8406 Y0.4101 
G01 X0.8342 Y0.4111 
G00 Z0.0200 
G00 X1.1342 Y0.3111 
G01 Z-0.0100 F10.00 
G01 X1.0658 Y0.3111 
G01 X1.0594 Y0.3101 
G01 X1.0532 Y0.3081 
G01 X1.0475 Y0.3052 
G01 X1.0422 Y0.3013 
G01 X1.0377 Y0.2968 
G01 X1.0338 Y0.2915 
G01 X1.0309 Y0.2858 
G01 X1.0289 Y0.2796 
G01 X1.0279 Y0.2732 
G01 X1.0279 Y0.2668 
G01 X1.0289 Y0.2604 
G01 X1.0309 Y0.2542 
G01 X1.0338 Y0.2485 
G01 X1.0377 Y0.2432 
G01 X1.0422 Y0.2387 
G01 X1.0475 Y0.2348 
G01 X1.0532 Y0.2319 
G01 X1.0594 Y0.2299 
G01 X1.0658 Y0.2289 
G01 X1.1342 Y0.2289 
G01 X1.1406 Y0.2299 
G01 X1.1468 Y0.2319 
G01 X1.1525 Y0.2348 
G01 X1.1578 Y0.2387 
G01 X1.1623 Y0.2432 
G01 X1.1662 Y0.2485 
G01 X1.1691 Y0.2542 
G01 X1.1711 Y0.2604 
G01 X1.1721 Y0.2668 
G01 X1.1721 Y0.2732 
G01 X1.1711 Y0.2796 
G01 X1.1691 Y0.2858 
G01 X1.1662 Y0.2915 
G01 X1.1623 Y0.2968 
G01 X1.1578 Y0.3013 
G01 X1.1525 Y0.3052 
G01 X1.1468 Y0.3081 
G01 X1.1406 Y0.3101 
G01 X1.1342 Y0.3111 
G00 Z0.0200 
G00 X0.6342 Y0.3111 
G01 Z-0.0100 F10.00 
G01 X0.5658 Y0.3111 
G01 X0.5594 Y0.3101 
G01 X0.5532 Y0.3081 
G01 X0.5475 Y0.3052 
G01 X0.5422 Y0.3013 
G01 X0.5377 Y0.2968 
G01 X0.5338 Y0.2915 
G01 X0.5309 Y0.2858 
G01 X0.5289 Y0.2796 
G01 X0.5279 Y0.2732 
G01 X0.5279 Y0.2668 
G01 X0.5289 Y0.2604 
G01 X0.5309 Y0.2542 
G01 X0.5338 Y0.2485 
G01 X0.5377 Y0.2432 
G01 X0.5422 Y0.2387 
G01 X0.5475 Y0.2348 
G01 X0.5532 Y0.2319 
G01 X0.5594 Y0.2299 
G01 X0.5658 Y0.2289 
G01 X0.6342 Y0.2289 
G01 X0.6406 Y0.2299 
G01 X0.6468 Y0.2319 
G01 X0.6525 Y0.2348 
G01 X0.6578 Y0.2387 
G01 X0.6623 Y0.2432 
G01 X0.6662 Y0.2485 
G01 X0.6691 Y0.2542 
G01 X0.6711 Y0.2604 
G01 X0.6721 Y0.2668 
G01 X0.6721 Y0.2732 
G01 X0.6711 Y0.2796 
G01 X0.6691 Y0.2858 
G01 X0.6662 Y0.2915 
G01 X0.6623 Y0.2968 
G01 X0.6578 Y0.3013 
G01 X0.6525 Y0.3052 
G01 X0.6468 Y0.3081 
G01 X0.6406 Y0.3101 
G01 X0.6342 Y0.3111 
G00 Z0.0200 
G00 X2.1158 Y0.1089 
G01 Z-0.0100 F10.00 
G01 X2.1842 Y0.1089 
G01 X2.1906 Y0.1099 
G01 X2.1968 Y0.1119 
G01 X2.2025 Y0.1148 
G01 X2.2078 Y0.1187 
G01 X2.2123 Y0.1232 
G01 X2.2162 Y0.1285 
G01 X2.2191 Y0.1342 
G01 X2.2211 Y0.1404 
G01 X2.2221 Y0.1468 
G01 X2.2221 Y0.1532 
G01 X2.2211 Y0.1596 
G01 X2.2191 Y0.1658 
G01 X2.2162 Y0.1715 
G01 X2.2123 Y0.1768 
G01 X2.2078 Y0.1813 
G01 X2.2025 Y0.1852 
G01 X2.1968 Y0.1881 
G01 X2.1906 Y0.1901 
G01 X2.1842 Y0.1911 
G01 X2.1158 Y0.1911 
G01 X2.1094 Y0.1901 
G01 X2.1032 Y0.1881 
G01 X2.0975 Y0.1852 
G01 X2.0922 Y0.1813 
G01 X2.0877 Y0.1768 
G01 X2.0838 Y0.1715 
G01 X2.0809 Y0.1658 
G01 X2.0789 Y0.1596 
G01 X2.0779 Y0.1532 
G01 X2.0779 Y0.1468 
G01 X2.0789 Y0.1404 
G01 X2.0809 Y0.1342 
G01 X2.0838 Y0.1285 
G01 X2.0877 Y0.1232 
G01 X2.0922 Y0.1187 
G01 X2.0975 Y0.1148 
G01 X2.1032 Y0.1119 
G01 X2.1094 Y0.1099 
G01 X2.1158 Y0.1089 
G00 Z0.0200 
G00 X2.1158 Y0.2089 
G01 Z-0.0100 F10.00 
G01 X2.1842 Y0.2089 
G01 X2.1906 Y0.2099 
G01 X2.1968 Y0.2119 
G01 X2.2025 Y0.2148 
G01 X2.2078 Y0.2187 
G01 X2.2123 Y0.2232 
G01 X2.2162 Y0.2285 
G01 X2.2191 Y0.2342 
G01 X2.2211 Y0.2404 
G01 X2.2221 Y0.2468 
G01 X2.2221 Y0.2532 
G01 X2.2211 Y0.2596 
G01 X2.2191 Y0.2658 
G01 X2.2162 Y0.2715 
G01 X2.2123 Y0.2768 
G01 X2.2078 Y0.2813 
G01 X2.2025 Y0.2852 
G01 X2.1968 Y0.2881 
G01 X2.1906 Y0.2901 
G01 X2.1842 Y0.2911 
G01 X2.1158 Y0.2911 
G01 X2.1094 Y0.2901 
G01 X2.1032 Y0.2881 
G01 X2.0975 Y0.2852 
G01 X2.0922 Y0.2813 
G01 X2.0877 Y0.2768 
G01 X2.0838 Y0.2715 
G01 X2.0809 Y0.2658 
G01 X2.0789 Y0.2596 
G01 X2.0779 Y0.2532 
G01 X2.0779 Y0.2468 
G01 X2.0789 Y0.2404 
G01 X2.0809 Y0.2342 
G01 X2.0838 Y0.2285 
G01 X2.0877 Y0.2232 
G01 X2.0922 Y0.2187 
G01 X2.0975 Y0.2148 
G01 X2.1032 Y0.2119 
G01 X2.1094 Y0.2099 
G01 X2.1158 Y0.2089 
G00 Z0.0200 
G00 X2.1158 Y0.3089 
G01 Z-0.0100 F10.00 
G01 X2.1842 Y0.3089 
G01 X2.1906 Y0.3099 
G01 X2.1968 Y0.3119 
G01 X2.2025 Y0.3148 
G01 X2.2078 Y0.3187 
G01 X2.2123 Y0.3232 
G01 X2.2162 Y0.3285 
G01 X2.2191 Y0.3342 
G01 X2.2211 Y0.3404 
G01 X2.2221 Y0.3468 
G01 X2.2221 Y0.3532 
G01 X2.2211 Y0.3596 
G01 X2.2191 Y0.3658 
G01 X2.2162 Y0.3715 
G01 X2.2123 Y0.3768 
G01 X2.2078 Y0.3813 
G01 X2.2025 Y0.3852 
G01 X2.1968 Y0.3881 
G01 X2.1906 Y0.3901 
G01 X2.1842 Y0.3911 
G01 X2.1158 Y0.3911 
G01 X2.1094 Y0.3901 
G01 X2.1032 Y0.3881 
G01 X2.0975 Y0.3852 
G01 X2.0922 Y0.3813 
G01 X2.0877 Y0.3768 
G01 X2.0838 Y0.3715 
G01 X2.0809 Y0.3658 
G01 X2.0789 Y0.3596 
G01 X2.0779 Y0.3532 
G01 X2.0779 Y0.3468 
G01 X2.0789 Y0.3404 
G01 X2.0809 Y0.3342 
G01 X2.0838 Y0.3285 
G01 X2.0877 Y0.3232 
G01 X2.0922 Y0.3187 
G01 X2.0975 Y0.3148 
G01 X2.1032 Y0.3119 
G01 X2.1094 Y0.3099 
G01 X2.1158 Y0.3089 
G00 Z0.0200 
G00 X1.8158 Y0.3089 
G01 Z-0.0100 F10.00 
G01 X1.8842 Y0.3089 
G01 X1.8906 Y0.3099 
G01 X1.8968 Y0.3119 
G01 X1.9025 Y0.3148 
G01 X1.9078 Y0.3187 
G01 X1.9123 Y0.3232 
G01 X1.9162 Y0.3285 
G01 X1.9191 Y0.3342 
G01 X1.9211 Y0.3404 
G01 X1.9221 Y0.3468 
G01 X1.9221 Y0.3532 
G01 X1.9211 Y0.3596 
G01 X1.9191 Y0.3658 
G01 X1.9162 Y0.3715 
G01 X1.9123 Y0.3768 
G01 X1.9078 Y0.3813 
G01 X1.9025 Y0.3852 
G01 X1.8968 Y0.3881 
G01 X1.8906 Y0.3901 
G01 X1.8842 Y0.3911 
G01 X1.8158 Y0.3911 
G01 X1.8094 Y0.3901 
G01 X1.8032 Y0.3881 
G01 X1.7975 Y0.3852 
G01 X1.7922 Y0.3813 
G01 X1.7877 Y0.3768 
G01 X1.7838 Y0.3715 
G01 X1.7809 Y0.3658 
G01 X1.7789 Y0.3596 
G01 X1.7779 Y0.3532 
G01 X1.7779 Y0.3468 
G01 X1.7789 Y0.3404 
G01 X1.7809 Y0.3342 
G01 X1.7838 Y0.3285 
G01 X1.7877 Y0.3232 
G01 X1.7922 Y0.3187 
G01 X1.7975 Y0.3148 
G01 X1.8032 Y0.3119 
G01 X1.8094 Y0.3099 
G01 X1.8158 Y0.3089 
G00 Z0.0200 
G00 X1.8158 Y0.2089 
G01 Z-0.0100 F10.00 
G01 X1.8842 Y0.2089 
G01 X1.8906 Y0.2099 
G01 X1.8968 Y0.2119 
G01 X1.9025 Y0.2148 
G01 X1.9078 Y0.2187 
G01 X1.9123 Y0.2232 
G01 X1.9162 Y0.2285 
G01 X1.9191 Y0.2342 
G01 X1.9211 Y0.2404 
G01 X1.9221 Y0.2468 
G01 X1.9221 Y0.2532 
G01 X1.9211 Y0.2596 
G01 X1.9191 Y0.2658 
G01 X1.9162 Y0.2715 
G01 X1.9123 Y0.2768 
G01 X1.9078 Y0.2813 
G01 X1.9025 Y0.2852 
G01 X1.8968 Y0.2881 
G01 X1.8906 Y0.2901 
G01 X1.8842 Y0.2911 
G01 X1.8158 Y0.2911 
G01 X1.8094 Y0.2901 
G01 X1.8032 Y0.2881 
G01 X1.7975 Y0.2852 
G01 X1.7922 Y0.2813 
G01 X1.7877 Y0.2768 
G01 X1.7838 Y0.2715 
G01 X1.7809 Y0.2658 
G01 X1.7789 Y0.2596 
G01 X1.7779 Y0.2532 
G01 X1.7779 Y0.2468 
G01 X1.7789 Y0.2404 
G01 X1.7809 Y0.2342 
G01 X1.7838 Y0.2285 
G01 X1.7877 Y0.2232 
G01 X1.7922 Y0.2187 
G01 X1.7975 Y0.2148 
G01 X1.8032 Y0.2119 
G01 X1.8094 Y0.2099 
G01 X1.8158 Y0.2089 
G00 Z0.0200 
G00 X1.8158 Y0.1089 
G01 Z-0.0100 F10.00 
G01 X1.8842 Y0.1089 
G01 X1.8906 Y0.1099 
G01 X1.8968 Y0.1119 
G01 X1.9025 Y0.1148 
G01 X1.9078 Y0.1187 
G01 X1.9123 Y0.1232 
G01 X1.9162 Y0.1285 
G01 X1.9191 Y0.1342 
G01 X1.9211 Y0.1404 
G01 X1.9221 Y0.1468 
G01 X1.9221 Y0.1532 
G01 X1.9211 Y0.1596 
G01 X1.9191 Y0.1658 
G01 X1.9162 Y0.1715 
G01 X1.9123 Y0.1768 
G01 X1.9078 Y0.1813 
G01 X1.9025 Y0.1852 
G01 X1.8968 Y0.1881 
G01 X1.8906 Y0.1901 
G01 X1.8842 Y0.1911 
G01 X1.8158 Y0.1911 
G01 X1.8094 Y0.1901 
G01 X1.8032 Y0.1881 
G01 X1.7975 Y0.1852 
G01 X1.7922 Y0.1813 
G01 X1.7877 Y0.1768 
G01 X1.7838 Y0.1715 
G01 X1.7809 Y0.1658 
G01 X1.7789 Y0.1596 
G01 X1.7779 Y0.1532 
G01 X1.7779 Y0.1468 
G01 X1.7789 Y0.1404 
G01 X1.7809 Y0.1342 
G01 X1.7838 Y0.1285 
G01 X1.7877 Y0.1232 
G01 X1.7922 Y0.1187 
G01 X1.7975 Y0.1148 
G01 X1.8032 Y0.1119 
G01 X1.8094 Y0.1099 
G01 X1.8158 Y0.1089 
G00 Z0.0200 
G00 X1.8411 Y0.6630 
G01 Z-0.0100 F10.00 
G01 X1.8411 Y0.6970 
G01 X1.8170 Y0.7211 
G01 X1.7830 Y0.7211 
G01 X1.7589 Y0.6970 
G01 X1.7589 Y0.6630 
G01 X1.7830 Y0.6389 
G01 X1.8170 Y0.6389 
G01 X1.8411 Y0.6630 
G00 Z0.0200 
G00 X1.8411 Y0.4630 
G01 Z-0.0100 F10.00 
G01 X1.8411 Y0.4970 
G01 X1.8170 Y0.5211 
G01 X1.7830 Y0.5211 
G01 X1.7589 Y0.4970 
G01 X1.7589 Y0.4630 
G01 X1.7830 Y0.4389 
G01 X1.8170 Y0.4389 
G01 X1.8411 Y0.4630 
G00 Z0.0200 
G00 X1.9611 Y0.6630 
G01 Z-0.0100 F10.00 
G01 X1.9611 Y0.6970 
G01 X1.9370 Y0.7211 
G01 X1.9030 Y0.7211 
G01 X1.8789 Y0.6970 
G01 X1.8789 Y0.6630 
G01 X1.9030 Y0.6389 
G01 X1.9370 Y0.6389 
G01 X1.9611 Y0.6630 
G00 Z0.0200 
G00 X1.9611 Y0.4630 
G01 Z-0.0100 F10.00 
G01 X1.9611 Y0.4970 
G01 X1.9370 Y0.5211 
G01 X1.9030 Y0.5211 
G01 X1.8789 Y0.4970 
G01 X1.8789 Y0.4630 
G01 X1.9030 Y0.4389 
G01 X1.9370 Y0.4389 
G01 X1.9611 Y0.4630 
G00 Z0.0200 
G00 X2.0811 Y0.6630 
G01 Z-0.0100 F10.00 
G01 X2.0811 Y0.6970 
G01 X2.0570 Y0.7211 
G01 X2.0230 Y0.7211 
G01 X1.9989 Y0.6970 
G01 X1.9989 Y0.6630 
G01 X2.0230 Y0.6389 
G01 X2.0570 Y0.6389 
G01 X2.0811 Y0.6630 
G00 Z0.0200 
G00 X2.0811 Y0.4630 
G01 Z-0.0100 F10.00 
G01 X2.0811 Y0.4970 
G01 X2.0570 Y0.5211 
G01 X2.0230 Y0.5211 
G01 X1.9989 Y0.4970 
G01 X1.9989 Y0.4630 
G01 X2.0230 Y0.4389 
G01 X2.0570 Y0.4389 
G01 X2.0811 Y0.4630 
G00 Z0.0200 
G00 X1.3111 Y0.2130 
G01 Z-0.0100 F10.00 
G01 X1.3111 Y0.2470 
G01 X1.2870 Y0.2711 
G01 X1.2530 Y0.2711 
G01 X1.2289 Y0.2470 
G01 X1.2289 Y0.2130 
G01 X1.2530 Y0.1889 
G01 X1.2870 Y0.1889 
G01 X1.3111 Y0.2130 
G00 Z0.0200 
G00 X1.4111 Y0.2130 
G01 Z-0.0100 F10.00 
G01 X1.4111 Y0.2470 
G01 X1.3870 Y0.2711 
G01 X1.3530 Y0.2711 
G01 X1.3289 Y0.2470 
G01 X1.3289 Y0.2130 
G01 X1.3530 Y0.1889 
G01 X1.3870 Y0.1889 
G01 X1.4111 Y0.2130 
G00 Z0.0200 
G00 X2.3601 Y1.0051 
G01 Z-0.0100 F10.00 
G01 X2.3601 Y1.0549 
G01 X2.3249 Y1.0901 
G01 X2.2751 Y1.0901 
G01 X2.2399 Y1.0549 
G01 X2.2399 Y1.0051 
G01 X2.2751 Y0.9699 
G01 X2.3249 Y0.9699 
G01 X2.3601 Y1.0051 
G00 Z0.0200 
G00 X2.0601 Y1.0051 
G01 Z-0.0100 F10.00 
G01 X2.0601 Y1.0549 
G01 X2.0249 Y1.0901 
G01 X1.9751 Y1.0901 
G01 X1.9399 Y1.0549 
G01 X1.9399 Y1.0051 
G01 X1.9751 Y0.9699 
G01 X2.0249 Y0.9699 
G01 X2.0601 Y1.0051 
G00 Z0.0200 
G00 X0.5511 Y0.9830 
G01 Z-0.0100 F10.00 
G01 X0.5511 Y1.0170 
G01 X0.5270 Y1.0411 
G01 X0.4930 Y1.0411 
G01 X0.4689 Y1.0170 
G01 X0.4689 Y0.9830 
G01 X0.4930 Y0.9589 
G01 X0.5270 Y0.9589 
G01 X0.5511 Y0.9830 
G00 Z0.0200 
G00 X0.4511 Y0.9830 
G01 Z-0.0100 F10.00 
G01 X0.4511 Y1.0170 
G01 X0.4270 Y1.0411 
G01 X0.3930 Y1.0411 
G01 X0.3689 Y1.0170 
G01 X0.3689 Y0.9830 
G01 X0.3930 Y0.9589 
G01 X0.4270 Y0.9589 
G01 X0.4511 Y0.9830 
G00 Z0.0200 
G00 X1.4311 Y1.1530 
G01 Z-0.0100 F10.00 
G01 X1.4311 Y1.1870 
G01 X1.4070 Y1.2111 
G01 X1.3730 Y1.2111 
G01 X1.3489 Y1.1870 
G01 X1.3489 Y1.1530 
G01 X1.3730 Y1.1289 
G01 X1.4070 Y1.1289 
G01 X1.4311 Y1.1530 
G00 Z0.0200 
G00 X1.5311 Y1.1530 
G01 Z-0.0100 F10.00 
G01 X1.5311 Y1.1870 
G01 X1.5070 Y1.2111 
G01 X1.4730 Y1.2111 
G01 X1.4489 Y1.1870 
G01 X1.4489 Y1.1530 
G01 X1.4730 Y1.1289 
G01 X1.5070 Y1.1289 
G01 X1.5311 Y1.1530 
G00 Z0.0200 
G00 X1.1754 Y1.2078 
G01 Z-0.0100 F10.00 
G01 X1.1705 Y1.2146 
G01 X1.1646 Y1.2205 
G01 X1.1578 Y1.2254 
G01 X1.1504 Y1.2292 
G01 X1.1424 Y1.2318 
G01 X1.1342 Y1.2331 
G01 X1.1258 Y1.2331 
G01 X1.1176 Y1.2318 
G01 X1.1096 Y1.2292 
G01 X1.1022 Y1.2254 
G01 X1.0954 Y1.2205 
G01 X1.0895 Y1.2146 
G01 X1.0846 Y1.2078 
G01 X1.0808 Y1.2004 
G01 X1.0782 Y1.1924 
G01 X1.0769 Y1.1842 
G01 X1.0769 Y1.1758 
G01 X1.0782 Y1.1676 
G01 X1.0808 Y1.1596 
G01 X1.0846 Y1.1522 
G01 X1.0895 Y1.1454 
G01 X1.0954 Y1.1395 
G01 X1.1022 Y1.1346 
G01 X1.1096 Y1.1308 
G01 X1.1176 Y1.1282 
G01 X1.1258 Y1.1269 
G01 X1.1342 Y1.1269 
G01 X1.1424 Y1.1282 
G01 X1.1504 Y1.1308 
G01 X1.1578 Y1.1346 
G01 X1.1646 Y1.1395 
G01 X1.1705 Y1.1454 
G01 X1.1754 Y1.1522 
G01 X1.1779 Y1.1570 
G01 X1.2080 Y1.1269 
G01 X1.2520 Y1.1269 
G01 X1.2831 Y1.1580 
G01 X1.2831 Y1.2020 
G01 X1.2520 Y1.2331 
G01 X1.2080 Y1.2331 
G01 X1.1779 Y1.2030 
G01 X1.1754 Y1.2078 
G00 Z0.0200 
G00 X0.2400 Y0.9791 
G01 Z-0.0100 F10.00 
G01 X0.2691 Y0.9500 
G01 X0.2400 Y0.9209 
G01 X0.2109 Y0.9500 
G01 X0.2400 Y0.9791 
G00 Z0.0200 
G00 X0.2400 Y0.7791 
G01 Z-0.0100 F10.00 
G01 X0.2691 Y0.7500 
G01 X0.2400 Y0.7209 
G01 X0.2109 Y0.7500 
G01 X0.2400 Y0.7791 
G00 Z0.0200 
G00 X0.2400 Y0.5791 
G01 Z-0.0100 F10.00 
G01 X0.2691 Y0.5500 
G01 X0.2400 Y0.5209 
G01 X0.2109 Y0.5500 
G01 X0.2400 Y0.5791 
G00 Z0.0200 
G00 X0.2400 Y0.4791 
G01 Z-0.0100 F10.00 
G01 X0.2691 Y0.4500 
G01 X0.2400 Y0.4209 
G01 X0.2109 Y0.4500 
G01 X0.2400 Y0.4791 
G00 Z0.0200 
G00 X0.2400 Y0.6791 
G01 Z-0.0100 F10.00 
G01 X0.2691 Y0.6500 
G01 X0.2400 Y0.6209 
G01 X0.2109 Y0.6500 
G01 X0.2400 Y0.6791 
G00 Z0.0200 
G00 X0.2400 Y0.8791 
G01 Z-0.0100 F10.00 
G01 X0.2691 Y0.8500 
G01 X0.2400 Y0.8209 
G01 X0.2109 Y0.8500 
G01 X0.2400 Y0.8791 
G00 Z0.0200 
G00 X1.8081 Y1.2154 
G01 Z-0.0100 F10.00 
G01 X1.8081 Y1.2246 
G01 X1.8067 Y1.2336 
G01 X1.8038 Y1.2423 
G01 X1.7997 Y1.2505 
G01 X1.7943 Y1.2578 
G01 X1.7878 Y1.2643 
G01 X1.7805 Y1.2697 
G01 X1.7723 Y1.2738 
G01 X1.7636 Y1.2767 
G01 X1.7546 Y1.2781 
G01 X1.7454 Y1.2781 
G01 X1.7364 Y1.2767 
G01 X1.7277 Y1.2738 
G01 X1.7195 Y1.2697 
G01 X1.7122 Y1.2643 
G01 X1.7057 Y1.2578 
G01 X1.7003 Y1.2505 
G01 X1.6962 Y1.2423 
G01 X1.6933 Y1.2336 
G01 X1.6919 Y1.2246 
G01 X1.6919 Y1.2154 
G01 X1.6933 Y1.2064 
G01 X1.6962 Y1.1977 
G01 X1.7003 Y1.1895 
G01 X1.7057 Y1.1822 
G01 X1.7122 Y1.1757 
G01 X1.7187 Y1.1709 
G01 X1.6919 Y1.1441 
G01 X1.6919 Y1.0959 
G01 X1.7259 Y1.0619 
G01 X1.7741 Y1.0619 
G01 X1.8081 Y1.0959 
G01 X1.8081 Y1.1441 
G01 X1.7813 Y1.1709 
G01 X1.7878 Y1.1757 
G01 X1.7943 Y1.1822 
G01 X1.7997 Y1.1895 
G01 X1.8038 Y1.1977 
G01 X1.8067 Y1.2064 
G01 X1.8081 Y1.2154 
G00 Z0.0200 
G00 X0.3401 Y0.9792 
G01 Z-0.0100 F10.00 
G01 X0.3401 Y1.0208 
G01 X0.3108 Y1.0501 
G01 X0.2692 Y1.0501 
G01 X0.2400 Y1.0209 
G01 X0.2108 Y1.0501 
G01 X0.1692 Y1.0501 
G01 X0.1399 Y1.0208 
G01 X0.1399 Y0.9792 
G01 X0.1691 Y0.9500 
G01 X0.1399 Y0.9208 
G01 X0.1399 Y0.8792 
G01 X0.1691 Y0.8500 
G01 X0.1399 Y0.8208 
G01 X0.1399 Y0.7792 
G01 X0.1691 Y0.7500 
G01 X0.1399 Y0.7208 
G01 X0.1399 Y0.6792 
G01 X0.1691 Y0.6500 
G01 X0.1399 Y0.6208 
G01 X0.1399 Y0.5792 
G01 X0.1691 Y0.5500 
G01 X0.1399 Y0.5208 
G01 X0.1399 Y0.4792 
G01 X0.1691 Y0.4500 
G01 X0.1399 Y0.4208 
G01 X0.1399 Y0.3792 
G01 X0.1692 Y0.3499 
G01 X0.2108 Y0.3499 
G01 X0.2400 Y0.3791 
G01 X0.2692 Y0.3499 
G01 X0.3108 Y0.3499 
G01 X0.3401 Y0.3792 
G01 X0.3401 Y0.4208 
G01 X0.3109 Y0.4500 
G01 X0.3401 Y0.4792 
G01 X0.3401 Y0.5208 
G01 X0.3109 Y0.5500 
G01 X0.3401 Y0.5792 
G01 X0.3401 Y0.6208 
G01 X0.3109 Y0.6500 
G01 X0.3401 Y0.6792 
G01 X0.3401 Y0.7208 
G01 X0.3109 Y0.7500 
G01 X0.3401 Y0.7792 
G01 X0.3401 Y0.8208 
G01 X0.3109 Y0.8500 
G01 X0.3401 Y0.8792 
G01 X0.3401 Y0.9208 
G01 X0.3109 Y0.9500 
G01 X0.3401 Y0.9792 
G00 Z0.0200 
G00 X1.2354 Y0.2939 
G01 Z-0.0100 F10.00 
G01 X1.3046 Y0.2939 
G01 X1.3118 Y0.2950 
G01 X1.3187 Y0.2973 
G01 X1.3252 Y0.3006 
G01 X1.3310 Y0.3048 
G01 X1.3362 Y0.3100 
G01 X1.3404 Y0.3158 
G01 X1.3437 Y0.3223 
G01 X1.3460 Y0.3292 
G01 X1.3471 Y0.3364 
G01 X1.3471 Y0.3436 
G01 X1.3460 Y0.3508 
G01 X1.3437 Y0.3577 
G01 X1.3404 Y0.3642 
G01 X1.3362 Y0.3700 
G01 X1.3310 Y0.3752 
G01 X1.3252 Y0.3794 
G01 X1.3187 Y0.3827 
G01 X1.3118 Y0.3850 
G01 X1.3046 Y0.3861 
G01 X1.2354 Y0.3861 
G01 X1.2282 Y0.3850 
G01 X1.2213 Y0.3827 
G01 X1.2148 Y0.3794 
G01 X1.2090 Y0.3752 
G01 X1.2038 Y0.3700 
G01 X1.1996 Y0.3642 
G01 X1.1963 Y0.3577 
G01 X1.1940 Y0.3508 
G01 X1.1929 Y0.3436 
G01 X1.1929 Y0.3364 
G01 X1.1940 Y0.3292 
G01 X1.1963 Y0.3223 
G01 X1.1996 Y0.3158 
G01 X1.2038 Y0.3100 
G01 X1.2090 Y0.3048 
G01 X1.2148 Y0.3006 
G01 X1.2213 Y0.2973 
G01 X1.2282 Y0.2950 
G01 X1.2354 Y0.2939 
G00 Z0.0200 
G00 X1.2354 Y0.3939 
G01 Z-0.0100 F10.00 
G01 X1.3046 Y0.3939 
G01 X1.3118 Y0.3950 
G01 X1.3187 Y0.3973 
G01 X1.3252 Y0.4006 
G01 X1.3310 Y0.4048 
G01 X1.3362 Y0.4100 
G01 X1.3404 Y0.4158 
G01 X1.3437 Y0.4223 
G01 X1.3460 Y0.4292 
G01 X1.3471 Y0.4364 
G01 X1.3471 Y0.4436 
G01 X1.3460 Y0.4508 
G01 X1.3437 Y0.4577 
G01 X1.3404 Y0.4642 
G01 X1.3362 Y0.4700 
G01 X1.3310 Y0.4752 
G01 X1.3252 Y0.4794 
G01 X1.3187 Y0.4827 
G01 X1.3118 Y0.4850 
G01 X1.3046 Y0.4861 
G01 X1.2354 Y0.4861 
G01 X1.2282 Y0.4850 
G01 X1.2213 Y0.4827 
G01 X1.2148 Y0.4794 
G01 X1.2090 Y0.4752 
G01 X1.2038 Y0.4700 
G01 X1.1996 Y0.4642 
G01 X1.1963 Y0.4577 
G01 X1.1940 Y0.4508 
G01 X1.1929 Y0.4436 
G01 X1.1929 Y0.4364 
G01 X1.1940 Y0.4292 
G01 X1.1963 Y0.4223 
G01 X1.1996 Y0.4158 
G01 X1.2038 Y0.4100 
G01 X1.2090 Y0.4048 
G01 X1.2148 Y0.4006 
G01 X1.2213 Y0.3973 
G01 X1.2282 Y0.3950 
G01 X1.2354 Y0.3939 
G00 Z0.0200 
G00 X1.2354 Y0.4939 
G01 Z-0.0100 F10.00 
G01 X1.3046 Y0.4939 
G01 X1.3118 Y0.4950 
G01 X1.3187 Y0.4973 
G01 X1.3252 Y0.5006 
G01 X1.3310 Y0.5048 
G01 X1.3362 Y0.5100 
G01 X1.3404 Y0.5158 
G01 X1.3437 Y0.5223 
G01 X1.3460 Y0.5292 
G01 X1.3471 Y0.5364 
G01 X1.3471 Y0.5436 
G01 X1.3460 Y0.5508 
G01 X1.3437 Y0.5577 
G01 X1.3404 Y0.5642 
G01 X1.3362 Y0.5700 
G01 X1.3310 Y0.5752 
G01 X1.3252 Y0.5794 
G01 X1.3187 Y0.5827 
G01 X1.3118 Y0.5850 
G01 X1.3046 Y0.5861 
G01 X1.2354 Y0.5861 
G01 X1.2282 Y0.5850 
G01 X1.2213 Y0.5827 
G01 X1.2148 Y0.5794 
G01 X1.2090 Y0.5752 
G01 X1.2038 Y0.5700 
G01 X1.1996 Y0.5642 
G01 X1.1963 Y0.5577 
G01 X1.1940 Y0.5508 
G01 X1.1929 Y0.5436 
G01 X1.1929 Y0.5364 
G01 X1.1940 Y0.5292 
G01 X1.1963 Y0.5223 
G01 X1.1996 Y0.5158 
G01 X1.2038 Y0.5100 
G01 X1.2090 Y0.5048 
G01 X1.2148 Y0.5006 
G01 X1.2213 Y0.4973 
G01 X1.2282 Y0.4950 
G01 X1.2354 Y0.4939 
G00 Z0.0200 
G00 X1.2354 Y0.5939 
G01 Z-0.0100 F10.00 
G01 X1.3046 Y0.5939 
G01 X1.3118 Y0.5950 
G01 X1.3187 Y0.5973 
G01 X1.3252 Y0.6006 
G01 X1.3310 Y0.6048 
G01 X1.3362 Y0.6100 
G01 X1.3404 Y0.6158 
G01 X1.3437 Y0.6223 
G01 X1.3460 Y0.6292 
G01 X1.3471 Y0.6364 
G01 X1.3471 Y0.6436 
G01 X1.3460 Y0.6508 
G01 X1.3437 Y0.6577 
G01 X1.3404 Y0.6642 
G01 X1.3362 Y0.6700 
G01 X1.3310 Y0.6752 
G01 X1.3252 Y0.6794 
G01 X1.3187 Y0.6827 
G01 X1.3118 Y0.6850 
G01 X1.3046 Y0.6861 
G01 X1.2354 Y0.6861 
G01 X1.2282 Y0.6850 
G01 X1.2213 Y0.6827 
G01 X1.2148 Y0.6794 
G01 X1.2090 Y0.6752 
G01 X1.2038 Y0.6700 
G01 X1.1996 Y0.6642 
G01 X1.1963 Y0.6577 
G01 X1.1940 Y0.6508 
G01 X1.1929 Y0.6436 
G01 X1.1929 Y0.6364 
G01 X1.1940 Y0.6292 
G01 X1.1963 Y0.6223 
G01 X1.1996 Y0.6158 
G01 X1.2038 Y0.6100 
G01 X1.2090 Y0.6048 
G01 X1.2148 Y0.6006 
G01 X1.2213 Y0.5973 
G01 X1.2282 Y0.5950 
G01 X1.2354 Y0.5939 
G00 Z0.0200 
G00 X1.2354 Y0.6939 
G01 Z-0.0100 F10.00 
G01 X1.3046 Y0.6939 
G01 X1.3118 Y0.6950 
G01 X1.3187 Y0.6973 
G01 X1.3252 Y0.7006 
G01 X1.3310 Y0.7048 
G01 X1.3362 Y0.7100 
G01 X1.3404 Y0.7158 
G01 X1.3437 Y0.7223 
G01 X1.3460 Y0.7292 
G01 X1.3471 Y0.7364 
G01 X1.3471 Y0.7436 
G01 X1.3460 Y0.7508 
G01 X1.3437 Y0.7577 
G01 X1.3404 Y0.7642 
G01 X1.3362 Y0.7700 
G01 X1.3310 Y0.7752 
G01 X1.3252 Y0.7794 
G01 X1.3187 Y0.7827 
G01 X1.3118 Y0.7850 
G01 X1.3046 Y0.7861 
G01 X1.2354 Y0.7861 
G01 X1.2282 Y0.7850 
G01 X1.2213 Y0.7827 
G01 X1.2148 Y0.7794 
G01 X1.2090 Y0.7752 
G01 X1.2038 Y0.7700 
G01 X1.1996 Y0.7642 
G01 X1.1963 Y0.7577 
G01 X1.1940 Y0.7508 
G01 X1.1929 Y0.7436 
G01 X1.1929 Y0.7364 
G01 X1.1940 Y0.7292 
G01 X1.1963 Y0.7223 
G01 X1.1996 Y0.7158 
G01 X1.2038 Y0.7100 
G01 X1.2090 Y0.7048 
G01 X1.2148 Y0.7006 
G01 X1.2213 Y0.6973 
G01 X1.2282 Y0.6950 
G01 X1.2354 Y0.6939 
G00 Z0.0200 
G00 X1.2354 Y0.7939 
G01 Z-0.0100 F10.00 
G01 X1.3046 Y0.7939 
G01 X1.3118 Y0.7950 
G01 X1.3187 Y0.7973 
G01 X1.3252 Y0.8006 
G01 X1.3310 Y0.8048 
G01 X1.3362 Y0.8100 
G01 X1.3404 Y0.8158 
G01 X1.3437 Y0.8223 
G01 X1.3460 Y0.8292 
G01 X1.3471 Y0.8364 
G01 X1.3471 Y0.8436 
G01 X1.3460 Y0.8508 
G01 X1.3437 Y0.8577 
G01 X1.3404 Y0.8642 
G01 X1.3362 Y0.8700 
G01 X1.3310 Y0.8752 
G01 X1.3252 Y0.8794 
G01 X1.3187 Y0.8827 
G01 X1.3118 Y0.8850 
G01 X1.3046 Y0.8861 
G01 X1.2354 Y0.8861 
G01 X1.2282 Y0.8850 
G01 X1.2213 Y0.8827 
G01 X1.2148 Y0.8794 
G01 X1.2090 Y0.8752 
G01 X1.2038 Y0.8700 
G01 X1.1996 Y0.8642 
G01 X1.1963 Y0.8577 
G01 X1.1940 Y0.8508 
G01 X1.1929 Y0.8436 
G01 X1.1929 Y0.8364 
G01 X1.1940 Y0.8292 
G01 X1.1963 Y0.8223 
G01 X1.1996 Y0.8158 
G01 X1.2038 Y0.8100 
G01 X1.2090 Y0.8048 
G01 X1.2148 Y0.8006 
G01 X1.2213 Y0.7973 
G01 X1.2282 Y0.7950 
G01 X1.2354 Y0.7939 
G00 Z0.0200 
G00 X1.2354 Y0.8939 
G01 Z-0.0100 F10.00 
G01 X1.3046 Y0.8939 
G01 X1.3118 Y0.8950 
G01 X1.3187 Y0.8973 
G01 X1.3252 Y0.9006 
G01 X1.3310 Y0.9048 
G01 X1.3362 Y0.9100 
G01 X1.3404 Y0.9158 
G01 X1.3437 Y0.9223 
G01 X1.3460 Y0.9292 
G01 X1.3471 Y0.9364 
G01 X1.3471 Y0.9436 
G01 X1.3460 Y0.9508 
G01 X1.3437 Y0.9577 
G01 X1.3404 Y0.9642 
G01 X1.3362 Y0.9700 
G01 X1.3310 Y0.9752 
G01 X1.3252 Y0.9794 
G01 X1.3187 Y0.9827 
G01 X1.3118 Y0.9850 
G01 X1.3046 Y0.9861 
G01 X1.2354 Y0.9861 
G01 X1.2282 Y0.9850 
G01 X1.2213 Y0.9827 
G01 X1.2148 Y0.9794 
G01 X1.2090 Y0.9752 
G01 X1.2038 Y0.9700 
G01 X1.1996 Y0.9642 
G01 X1.1963 Y0.9577 
G01 X1.1940 Y0.9508 
G01 X1.1929 Y0.9436 
G01 X1.1929 Y0.9364 
G01 X1.1940 Y0.9292 
G01 X1.1963 Y0.9223 
G01 X1.1996 Y0.9158 
G01 X1.2038 Y0.9100 
G01 X1.2090 Y0.9048 
G01 X1.2148 Y0.9006 
G01 X1.2213 Y0.8973 
G01 X1.2282 Y0.8950 
G01 X1.2354 Y0.8939 
G00 Z0.0200 
G00 X1.2354 Y0.9939 
G01 Z-0.0100 F10.00 
G01 X1.3046 Y0.9939 
G01 X1.3118 Y0.9950 
G01 X1.3187 Y0.9973 
G01 X1.3252 Y1.0006 
G01 X1.3310 Y1.0048 
G01 X1.3362 Y1.0100 
G01 X1.3404 Y1.0158 
G01 X1.3437 Y1.0223 
G01 X1.3460 Y1.0292 
G01 X1.3471 Y1.0364 
G01 X1.3471 Y1.0436 
G01 X1.3460 Y1.0508 
G01 X1.3437 Y1.0577 
G01 X1.3404 Y1.0642 
G01 X1.3362 Y1.0700 
G01 X1.3310 Y1.0752 
G01 X1.3252 Y1.0794 
G01 X1.3187 Y1.0827 
G01 X1.3118 Y1.0850 
G01 X1.3046 Y1.0861 
G01 X1.2354 Y1.0861 
G01 X1.2282 Y1.0850 
G01 X1.2213 Y1.0827 
G01 X1.2148 Y1.0794 
G01 X1.2090 Y1.0752 
G01 X1.2038 Y1.0700 
G01 X1.1996 Y1.0642 
G01 X1.1963 Y1.0577 
G01 X1.1940 Y1.0508 
G01 X1.1929 Y1.0436 
G01 X1.1929 Y1.0364 
G01 X1.1940 Y1.0292 
G01 X1.1963 Y1.0223 
G01 X1.1996 Y1.0158 
G01 X1.2038 Y1.0100 
G01 X1.2090 Y1.0048 
G01 X1.2148 Y1.0006 
G01 X1.2213 Y0.9973 
G01 X1.2282 Y0.9950 
G01 X1.2354 Y0.9939 
G00 Z0.0200 
G00 X1.5354 Y0.9939 
G01 Z-0.0100 F10.00 
G01 X1.6046 Y0.9939 
G01 X1.6118 Y0.9950 
G01 X1.6187 Y0.9973 
G01 X1.6252 Y1.0006 
G01 X1.6310 Y1.0048 
G01 X1.6362 Y1.0100 
G01 X1.6404 Y1.0158 
G01 X1.6437 Y1.0223 
G01 X1.6460 Y1.0292 
G01 X1.6471 Y1.0364 
G01 X1.6471 Y1.0436 
G01 X1.6460 Y1.0508 
G01 X1.6437 Y1.0577 
G01 X1.6404 Y1.0642 
G01 X1.6362 Y1.0700 
G01 X1.6310 Y1.0752 
G01 X1.6252 Y1.0794 
G01 X1.6187 Y1.0827 
G01 X1.6118 Y1.0850 
G01 X1.6046 Y1.0861 
G01 X1.5354 Y1.0861 
G01 X1.5282 Y1.0850 
G01 X1.5213 Y1.0827 
G01 X1.5148 Y1.0794 
G01 X1.5090 Y1.0752 
G01 X1.5038 Y1.0700 
G01 X1.4996 Y1.0642 
G01 X1.4963 Y1.0577 
G01 X1.4940 Y1.0508 
G01 X1.4929 Y1.0436 
G01 X1.4929 Y1.0364 
G01 X1.4940 Y1.0292 
G01 X1.4963 Y1.0223 
G01 X1.4996 Y1.0158 
G01 X1.5038 Y1.0100 
G01 X1.5090 Y1.0048 
G01 X1.5148 Y1.0006 
G01 X1.5213 Y0.9973 
G01 X1.5282 Y0.9950 
G01 X1.5354 Y0.9939 
G00 Z0.0200 
G00 X1.5354 Y0.8939 
G01 Z-0.0100 F10.00 
G01 X1.6046 Y0.8939 
G01 X1.6118 Y0.8950 
G01 X1.6187 Y0.8973 
G01 X1.6252 Y0.9006 
G01 X1.6310 Y0.9048 
G01 X1.6362 Y0.9100 
G01 X1.6404 Y0.9158 
G01 X1.6437 Y0.9223 
G01 X1.6460 Y0.9292 
G01 X1.6471 Y0.9364 
G01 X1.6471 Y0.9436 
G01 X1.6460 Y0.9508 
G01 X1.6437 Y0.9577 
G01 X1.6404 Y0.9642 
G01 X1.6362 Y0.9700 
G01 X1.6310 Y0.9752 
G01 X1.6252 Y0.9794 
G01 X1.6187 Y0.9827 
G01 X1.6118 Y0.9850 
G01 X1.6046 Y0.9861 
G01 X1.5354 Y0.9861 
G01 X1.5282 Y0.9850 
G01 X1.5213 Y0.9827 
G01 X1.5148 Y0.9794 
G01 X1.5090 Y0.9752 
G01 X1.5038 Y0.9700 
G01 X1.4996 Y0.9642 
G01 X1.4963 Y0.9577 
G01 X1.4940 Y0.9508 
G01 X1.4929 Y0.9436 
G01 X1.4929 Y0.9364 
G01 X1.4940 Y0.9292 
G01 X1.4963 Y0.9223 
G01 X1.4996 Y0.9158 
G01 X1.5038 Y0.9100 
G01 X1.5090 Y0.9048 
G01 X1.5148 Y0.9006 
G01 X1.5213 Y0.8973 
G01 X1.5282 Y0.8950 
G01 X1.5354 Y0.8939 
G00 Z0.0200 
G00 X1.5354 Y0.7939 
G01 Z-0.0100 F10.00 
G01 X1.6046 Y0.7939 
G01 X1.6118 Y0.7950 
G01 X1.6187 Y0.7973 
G01 X1.6252 Y0.8006 
G01 X1.6310 Y0.8048 
G01 X1.6362 Y0.8100 
G01 X1.6404 Y0.8158 
G01 X1.6437 Y0.8223 
G01 X1.6460 Y0.8292 
G01 X1.6471 Y0.8364 
G01 X1.6471 Y0.8436 
G01 X1.6460 Y0.8508 
G01 X1.6437 Y0.8577 
G01 X1.6404 Y0.8642 
G01 X1.6362 Y0.8700 
G01 X1.6310 Y0.8752 
G01 X1.6252 Y0.8794 
G01 X1.6187 Y0.8827 
G01 X1.6118 Y0.8850 
G01 X1.6046 Y0.8861 
G01 X1.5354 Y0.8861 
G01 X1.5282 Y0.8850 
G01 X1.5213 Y0.8827 
G01 X1.5148 Y0.8794 
G01 X1.5090 Y0.8752 
G01 X1.5038 Y0.8700 
G01 X1.4996 Y0.8642 
G01 X1.4963 Y0.8577 
G01 X1.4940 Y0.8508 
G01 X1.4929 Y0.8436 
G01 X1.4929 Y0.8364 
G01 X1.4940 Y0.8292 
G01 X1.4963 Y0.8223 
G01 X1.4996 Y0.8158 
G01 X1.5038 Y0.8100 
G01 X1.5090 Y0.8048 
G01 X1.5148 Y0.8006 
G01 X1.5213 Y0.7973 
G01 X1.5282 Y0.7950 
G01 X1.5354 Y0.7939 
G00 Z0.0200 
G00 X1.5354 Y0.6939 
G01 Z-0.0100 F10.00 
G01 X1.6046 Y0.6939 
G01 X1.6118 Y0.6950 
G01 X1.6187 Y0.6973 
G01 X1.6252 Y0.7006 
G01 X1.6310 Y0.7048 
G01 X1.6362 Y0.7100 
G01 X1.6404 Y0.7158 
G01 X1.6437 Y0.7223 
G01 X1.6460 Y0.7292 
G01 X1.6471 Y0.7364 
G01 X1.6471 Y0.7436 
G01 X1.6460 Y0.7508 
G01 X1.6437 Y0.7577 
G01 X1.6404 Y0.7642 
G01 X1.6362 Y0.7700 
G01 X1.6310 Y0.7752 
G01 X1.6252 Y0.7794 
G01 X1.6187 Y0.7827 
G01 X1.6118 Y0.7850 
G01 X1.6046 Y0.7861 
G01 X1.5354 Y0.7861 
G01 X1.5282 Y0.7850 
G01 X1.5213 Y0.7827 
G01 X1.5148 Y0.7794 
G01 X1.5090 Y0.7752 
G01 X1.5038 Y0.7700 
G01 X1.4996 Y0.7642 
G01 X1.4963 Y0.7577 
G01 X1.4940 Y0.7508 
G01 X1.4929 Y0.7436 
G01 X1.4929 Y0.7364 
G01 X1.4940 Y0.7292 
G01 X1.4963 Y0.7223 
G01 X1.4996 Y0.7158 
G01 X1.5038 Y0.7100 
G01 X1.5090 Y0.7048 
G01 X1.5148 Y0.7006 
G01 X1.5213 Y0.6973 
G01 X1.5282 Y0.6950 
G01 X1.5354 Y0.6939 
G00 Z0.0200 
G00 X1.5354 Y0.5939 
G01 Z-0.0100 F10.00 
G01 X1.6046 Y0.5939 
G01 X1.6118 Y0.5950 
G01 X1.6187 Y0.5973 
G01 X1.6252 Y0.6006 
G01 X1.6310 Y0.6048 
G01 X1.6362 Y0.6100 
G01 X1.6404 Y0.6158 
G01 X1.6437 Y0.6223 
G01 X1.6460 Y0.6292 
G01 X1.6471 Y0.6364 
G01 X1.6471 Y0.6436 
G01 X1.6460 Y0.6508 
G01 X1.6437 Y0.6577 
G01 X1.6404 Y0.6642 
G01 X1.6362 Y0.6700 
G01 X1.6310 Y0.6752 
G01 X1.6252 Y0.6794 
G01 X1.6187 Y0.6827 
G01 X1.6118 Y0.6850 
G01 X1.6046 Y0.6861 
G01 X1.5354 Y0.6861 
G01 X1.5282 Y0.6850 
G01 X1.5213 Y0.6827 
G01 X1.5148 Y0.6794 
G01 X1.5090 Y0.6752 
G01 X1.5038 Y0.6700 
G01 X1.4996 Y0.6642 
G01 X1.4963 Y0.6577 
G01 X1.4940 Y0.6508 
G01 X1.4929 Y0.6436 
G01 X1.4929 Y0.6364 
G01 X1.4940 Y0.6292 
G01 X1.4963 Y0.6223 
G01 X1.4996 Y0.6158 
G01 X1.5038 Y0.6100 
G01 X1.5090 Y0.6048 
G01 X1.5148 Y0.6006 
G01 X1.5213 Y0.5973 
G01 X1.5282 Y0.5950 
G01 X1.5354 Y0.5939 
G00 Z0.0200 
G00 X1.5354 Y0.4939 
G01 Z-0.0100 F10.00 
G01 X1.6046 Y0.4939 
G01 X1.6118 Y0.4950 
G01 X1.6187 Y0.4973 
G01 X1.6252 Y0.5006 
G01 X1.6310 Y0.5048 
G01 X1.6362 Y0.5100 
G01 X1.6404 Y0.5158 
G01 X1.6437 Y0.5223 
G01 X1.6460 Y0.5292 
G01 X1.6471 Y0.5364 
G01 X1.6471 Y0.5436 
G01 X1.6460 Y0.5508 
G01 X1.6437 Y0.5577 
G01 X1.6404 Y0.5642 
G01 X1.6362 Y0.5700 
G01 X1.6310 Y0.5752 
G01 X1.6252 Y0.5794 
G01 X1.6187 Y0.5827 
G01 X1.6118 Y0.5850 
G01 X1.6046 Y0.5861 
G01 X1.5354 Y0.5861 
G01 X1.5282 Y0.5850 
G01 X1.5213 Y0.5827 
G01 X1.5148 Y0.5794 
G01 X1.5090 Y0.5752 
G01 X1.5038 Y0.5700 
G01 X1.4996 Y0.5642 
G01 X1.4963 Y0.5577 
G01 X1.4940 Y0.5508 
G01 X1.4929 Y0.5436 
G01 X1.4929 Y0.5364 
G01 X1.4940 Y0.5292 
G01 X1.4963 Y0.5223 
G01 X1.4996 Y0.5158 
G01 X1.5038 Y0.5100 
G01 X1.5090 Y0.5048 
G01 X1.5148 Y0.5006 
G01 X1.5213 Y0.4973 
G01 X1.5282 Y0.4950 
G01 X1.5354 Y0.4939 
G00 Z0.0200 
G00 X1.5354 Y0.3939 
G01 Z-0.0100 F10.00 
G01 X1.6046 Y0.3939 
G01 X1.6118 Y0.3950 
G01 X1.6187 Y0.3973 
G01 X1.6252 Y0.4006 
G01 X1.6310 Y0.4048 
G01 X1.6362 Y0.4100 
G01 X1.6404 Y0.4158 
G01 X1.6437 Y0.4223 
G01 X1.6460 Y0.4292 
G01 X1.6471 Y0.4364 
G01 X1.6471 Y0.4436 
G01 X1.6460 Y0.4508 
G01 X1.6437 Y0.4577 
G01 X1.6404 Y0.4642 
G01 X1.6362 Y0.4700 
G01 X1.6310 Y0.4752 
G01 X1.6252 Y0.4794 
G01 X1.6187 Y0.4827 
G01 X1.6118 Y0.4850 
G01 X1.6046 Y0.4861 
G01 X1.5354 Y0.4861 
G01 X1.5282 Y0.4850 
G01 X1.5213 Y0.4827 
G01 X1.5148 Y0.4794 
G01 X1.5090 Y0.4752 
G01 X1.5038 Y0.4700 
G01 X1.4996 Y0.4642 
G01 X1.4963 Y0.4577 
G01 X1.4940 Y0.4508 
G01 X1.4929 Y0.4436 
G01 X1.4929 Y0.4364 
G01 X1.4940 Y0.4292 
G01 X1.4963 Y0.4223 
G01 X1.4996 Y0.4158 
G01 X1.5038 Y0.4100 
G01 X1.5090 Y0.4048 
G01 X1.5148 Y0.4006 
G01 X1.5213 Y0.3973 
G01 X1.5282 Y0.3950 
G01 X1.5354 Y0.3939 
G00 Z0.0200 
G00 X1.5354 Y0.2939 
G01 Z-0.0100 F10.00 
G01 X1.6046 Y0.2939 
G01 X1.6118 Y0.2950 
G01 X1.6187 Y0.2973 
G01 X1.6252 Y0.3006 
G01 X1.6310 Y0.3048 
G01 X1.6362 Y0.3100 
G01 X1.6404 Y0.3158 
G01 X1.6437 Y0.3223 
G01 X1.6460 Y0.3292 
G01 X1.6471 Y0.3364 
G01 X1.6471 Y0.3436 
G01 X1.6460 Y0.3508 
G01 X1.6437 Y0.3577 
G01 X1.6404 Y0.3642 
G01 X1.6362 Y0.3700 
G01 X1.6310 Y0.3752 
G01 X1.6252 Y0.3794 
G01 X1.6187 Y0.3827 
G01 X1.6118 Y0.3850 
G01 X1.6046 Y0.3861 
G01 X1.5354 Y0.3861 
G01 X1.5282 Y0.3850 
G01 X1.5213 Y0.3827 
G01 X1.5148 Y0.3794 
G01 X1.5090 Y0.3752 
G01 X1.5038 Y0.3700 
G01 X1.4996 Y0.3642 
G01 X1.4963 Y0.3577 
G01 X1.4940 Y0.3508 
G01 X1.4929 Y0.3436 
G01 X1.4929 Y0.3364 
G01 X1.4940 Y0.3292 
G01 X1.4963 Y0.3223 
G01 X1.4996 Y0.3158 
G01 X1.5038 Y0.3100 
G01 X1.5090 Y0.3048 
G01 X1.5148 Y0.3006 
G01 X1.5213 Y0.2973 
G01 X1.5282 Y0.2950 
G01 X1.5354 Y0.2939 
G00 Z0.0200 
G00 X0.8063 Y0.7590 
G01 Z-0.0100 F10.00 
G01 X0.8115 Y0.7539 
G01 X0.8173 Y0.7496 
G01 X0.8238 Y0.7463 
G01 X0.8307 Y0.7441 
G01 X0.8379 Y0.7430 
G01 X0.8451 Y0.7430 
G01 X0.8523 Y0.7441 
G01 X0.8592 Y0.7463 
G01 X0.8657 Y0.7496 
G01 X0.8715 Y0.7539 
G01 X0.8767 Y0.7590 
G01 X0.8809 Y0.7648 
G01 X0.8851 Y0.7590 
G01 X0.8902 Y0.7539 
G01 X0.8961 Y0.7496 
G01 X0.9025 Y0.7463 
G01 X0.9094 Y0.7441 
G01 X0.9166 Y0.7430 
G01 X0.9239 Y0.7430 
G01 X0.9310 Y0.7441 
G01 X0.9379 Y0.7463 
G01 X0.9444 Y0.7496 
G01 X0.9503 Y0.7539 
G01 X0.9554 Y0.7590 
G01 X0.9597 Y0.7649 
G01 X0.9630 Y0.7714 
G01 X0.9652 Y0.7783 
G01 X0.9663 Y0.7854 
G01 X0.9663 Y0.8547 
G01 X0.9652 Y0.8619 
G01 X0.9630 Y0.8688 
G01 X0.9597 Y0.8752 
G01 X0.9554 Y0.8811 
G01 X0.9503 Y0.8862 
G01 X0.9444 Y0.8905 
G01 X0.9379 Y0.8938 
G01 X0.9310 Y0.8960 
G01 X0.9239 Y0.8972 
G01 X0.9166 Y0.8972 
G01 X0.9094 Y0.8960 
G01 X0.9025 Y0.8938 
G01 X0.8961 Y0.8905 
G01 X0.8902 Y0.8862 
G01 X0.8851 Y0.8811 
G01 X0.8809 Y0.8753 
G01 X0.8767 Y0.8811 
G01 X0.8715 Y0.8862 
G01 X0.8657 Y0.8905 
G01 X0.8592 Y0.8938 
G01 X0.8523 Y0.8960 
G01 X0.8451 Y0.8972 
G01 X0.8379 Y0.8972 
G01 X0.8307 Y0.8960 
G01 X0.8238 Y0.8938 
G01 X0.8173 Y0.8905 
G01 X0.8115 Y0.8862 
G01 X0.8063 Y0.8811 
G01 X0.8021 Y0.8753 
G01 X0.7979 Y0.8811 
G01 X0.7928 Y0.8862 
G01 X0.7869 Y0.8905 
G01 X0.7805 Y0.8938 
G01 X0.7736 Y0.8960 
G01 X0.7664 Y0.8972 
G01 X0.7591 Y0.8972 
G01 X0.7520 Y0.8960 
G01 X0.7451 Y0.8938 
G01 X0.7386 Y0.8905 
G01 X0.7327 Y0.8862 
G01 X0.7276 Y0.8811 
G01 X0.7233 Y0.8752 
G01 X0.7200 Y0.8688 
G01 X0.7178 Y0.8619 
G01 X0.7167 Y0.8547 
G01 X0.7167 Y0.7854 
G01 X0.7178 Y0.7783 
G01 X0.7200 Y0.7714 
G01 X0.7233 Y0.7649 
G01 X0.7276 Y0.7590 
G01 X0.7327 Y0.7539 
G01 X0.7386 Y0.7496 
G01 X0.7451 Y0.7463 
G01 X0.7520 Y0.7441 
G01 X0.7591 Y0.7430 
G01 X0.7664 Y0.7430 
G01 X0.7736 Y0.7441 
G01 X0.7805 Y0.7463 
G01 X0.7869 Y0.7496 
G01 X0.7928 Y0.7539 
G01 X0.7979 Y0.7590 
G01 X0.8021 Y0.7648 
G01 X0.8063 Y0.7590 
G00 Z0.0200 
G00 X0.8373 Y0.7010 
G01 Z-0.0100 F10.00 
G01 X0.8322 Y0.7061 
G01 X0.8263 Y0.7104 
G01 X0.8198 Y0.7137 
G01 X0.8129 Y0.7159 
G01 X0.8058 Y0.7170 
G01 X0.7985 Y0.7170 
G01 X0.7913 Y0.7159 
G01 X0.7844 Y0.7137 
G01 X0.7780 Y0.7104 
G01 X0.7721 Y0.7061 
G01 X0.7670 Y0.7010 
G01 X0.7628 Y0.6952 
G01 X0.7585 Y0.7010 
G01 X0.7534 Y0.7061 
G01 X0.7475 Y0.7104 
G01 X0.7411 Y0.7137 
G01 X0.7342 Y0.7159 
G01 X0.7270 Y0.7170 
G01 X0.7198 Y0.7170 
G01 X0.7126 Y0.7159 
G01 X0.7057 Y0.7137 
G01 X0.6992 Y0.7104 
G01 X0.6934 Y0.7061 
G01 X0.6882 Y0.7010 
G01 X0.6840 Y0.6951 
G01 X0.6807 Y0.6886 
G01 X0.6784 Y0.6817 
G01 X0.6773 Y0.6746 
G01 X0.6773 Y0.6053 
G01 X0.6784 Y0.5981 
G01 X0.6807 Y0.5912 
G01 X0.6840 Y0.5848 
G01 X0.6882 Y0.5789 
G01 X0.6934 Y0.5738 
G01 X0.6992 Y0.5695 
G01 X0.7057 Y0.5662 
G01 X0.7126 Y0.5640 
G01 X0.7198 Y0.5628 
G01 X0.7270 Y0.5628 
G01 X0.7342 Y0.5640 
G01 X0.7411 Y0.5662 
G01 X0.7475 Y0.5695 
G01 X0.7534 Y0.5738 
G01 X0.7585 Y0.5789 
G01 X0.7628 Y0.5847 
G01 X0.7670 Y0.5789 
G01 X0.7721 Y0.5738 
G01 X0.7780 Y0.5695 
G01 X0.7844 Y0.5662 
G01 X0.7913 Y0.5640 
G01 X0.7985 Y0.5628 
G01 X0.8058 Y0.5628 
G01 X0.8129 Y0.5640 
G01 X0.8198 Y0.5662 
G01 X0.8263 Y0.5695 
G01 X0.8322 Y0.5738 
G01 X0.8373 Y0.5789 
G01 X0.8415 Y0.5847 
G01 X0.8457 Y0.5789 
G01 X0.8508 Y0.5738 
G01 X0.8567 Y0.5695 
G01 X0.8632 Y0.5662 
G01 X0.8701 Y0.5640 
G01 X0.8772 Y0.5628 
G01 X0.8845 Y0.5628 
G01 X0.8917 Y0.5640 
G01 X0.8986 Y0.5662 
G01 X0.9050 Y0.5695 
G01 X0.9109 Y0.5738 
G01 X0.9160 Y0.5789 
G01 X0.9203 Y0.5848 
G01 X0.9236 Y0.5912 
G01 X0.9258 Y0.5981 
G01 X0.9270 Y0.6053 
G01 X0.9270 Y0.6746 
G01 X0.9258 Y0.6817 
G01 X0.9236 Y0.6886 
G01 X0.9203 Y0.6951 
G01 X0.9160 Y0.7010 
G01 X0.9109 Y0.7061 
G01 X0.9050 Y0.7104 
G01 X0.8986 Y0.7137 
G01 X0.8917 Y0.7159 
G01 X0.8845 Y0.7170 
G01 X0.8772 Y0.7170 
G01 X0.8701 Y0.7159 
G01 X0.8632 Y0.7137 
G01 X0.8567 Y0.7104 
G01 X0.8508 Y0.7061 
G01 X0.8457 Y0.7010 
G01 X0.8415 Y0.6952 
G01 X0.8373 Y0.7010 
G00 Z0.0200 
G00 X0.8346 Y0.4161 
G01 Z-0.0100 F10.00 
G01 X0.7654 Y0.4161 
G01 X0.7582 Y0.4150 
G01 X0.7513 Y0.4127 
G01 X0.7448 Y0.4094 
G01 X0.7390 Y0.4052 
G01 X0.7338 Y0.4000 
G01 X0.7296 Y0.3942 
G01 X0.7263 Y0.3877 
G01 X0.7240 Y0.3808 
G01 X0.7229 Y0.3736 
G01 X0.7229 Y0.3664 
G01 X0.7240 Y0.3592 
G01 X0.7263 Y0.3523 
G01 X0.7296 Y0.3458 
G01 X0.7338 Y0.3400 
G01 X0.7390 Y0.3348 
G01 X0.7448 Y0.3306 
G01 X0.7513 Y0.3273 
G01 X0.7582 Y0.3250 
G01 X0.7654 Y0.3239 
G01 X0.8346 Y0.3239 
G01 X0.8418 Y0.3250 
G01 X0.8487 Y0.3273 
G01 X0.8552 Y0.3306 
G01 X0.8610 Y0.3348 
G01 X0.8662 Y0.3400 
G01 X0.8704 Y0.3458 
G01 X0.8737 Y0.3523 
G01 X0.8760 Y0.3592 
G01 X0.8771 Y0.3664 
G01 X0.8771 Y0.3736 
G01 X0.8760 Y0.3808 
G01 X0.8737 Y0.3877 
G01 X0.8704 Y0.3942 
G01 X0.8662 Y0.4000 
G01 X0.8610 Y0.4052 
G01 X0.8552 Y0.4094 
G01 X0.8487 Y0.4127 
G01 X0.8418 Y0.4150 
G01 X0.8346 Y0.4161 
G00 Z0.0200 
G00 X1.1346 Y0.3161 
G01 Z-0.0100 F10.00 
G01 X1.0654 Y0.3161 
G01 X1.0582 Y0.3150 
G01 X1.0513 Y0.3127 
G01 X1.0448 Y0.3094 
G01 X1.0390 Y0.3052 
G01 X1.0338 Y0.3000 
G01 X1.0296 Y0.2942 
G01 X1.0263 Y0.2877 
G01 X1.0240 Y0.2808 
G01 X1.0229 Y0.2736 
G01 X1.0229 Y0.2664 
G01 X1.0240 Y0.2592 
G01 X1.0263 Y0.2523 
G01 X1.0296 Y0.2458 
G01 X1.0338 Y0.2400 
G01 X1.0390 Y0.2348 
G01 X1.0448 Y0.2306 
G01 X1.0513 Y0.2273 
G01 X1.0582 Y0.2250 
G01 X1.0654 Y0.2239 
G01 X1.1346 Y0.2239 
G01 X1.1418 Y0.2250 
G01 X1.1487 Y0.2273 
G01 X1.1552 Y0.2306 
G01 X1.1610 Y0.2348 
G01 X1.1662 Y0.2400 
G01 X1.1704 Y0.2458 
G01 X1.1737 Y0.2523 
G01 X1.1760 Y0.2592 
G01 X1.1771 Y0.2664 
G01 X1.1771 Y0.2736 
G01 X1.1760 Y0.2808 
G01 X1.1737 Y0.2877 
G01 X1.1704 Y0.2942 
G01 X1.1662 Y0.3000 
G01 X1.1610 Y0.3052 
G01 X1.1552 Y0.3094 
G01 X1.1487 Y0.3127 
G01 X1.1418 Y0.3150 
G01 X1.1346 Y0.3161 
G00 Z0.0200 
G00 X0.6346 Y0.3161 
G01 Z-0.0100 F10.00 
G01 X0.5654 Y0.3161 
G01 X0.5582 Y0.3150 
G01 X0.5513 Y0.3127 
G01 X0.5448 Y0.3094 
G01 X0.5390 Y0.3052 
G01 X0.5338 Y0.3000 
G01 X0.5296 Y0.2942 
G01 X0.5263 Y0.2877 
G01 X0.5240 Y0.2808 
G01 X0.5229 Y0.2736 
G01 X0.5229 Y0.2664 
G01 X0.5240 Y0.2592 
G01 X0.5263 Y0.2523 
G01 X0.5296 Y0.2458 
G01 X0.5338 Y0.2400 
G01 X0.5390 Y0.2348 
G01 X0.5448 Y0.2306 
G01 X0.5513 Y0.2273 
G01 X0.5582 Y0.2250 
G01 X0.5654 Y0.2239 
G01 X0.6346 Y0.2239 
G01 X0.6418 Y0.2250 
G01 X0.6487 Y0.2273 
G01 X0.6552 Y0.2306 
G01 X0.6610 Y0.2348 
G01 X0.6662 Y0.2400 
G01 X0.6704 Y0.2458 
G01 X0.6737 Y0.2523 
G01 X0.6760 Y0.2592 
G01 X0.6771 Y0.2664 
G01 X0.6771 Y0.2736 
G01 X0.6760 Y0.2808 
G01 X0.6737 Y0.2877 
G01 X0.6704 Y0.2942 
G01 X0.6662 Y0.3000 
G01 X0.6610 Y0.3052 
G01 X0.6552 Y0.3094 
G01 X0.6487 Y0.3127 
G01 X0.6418 Y0.3150 
G01 X0.6346 Y0.3161 
G00 Z0.0200 
G00 X2.1154 Y0.1039 
G01 Z-0.0100 F10.00 
G01 X2.1846 Y0.1039 
G01 X2.1918 Y0.1050 
G01 X2.1987 Y0.1073 
G01 X2.2052 Y0.1106 
G01 X2.2110 Y0.1148 
G01 X2.2162 Y0.1200 
G01 X2.2204 Y0.1258 
G01 X2.2237 Y0.1323 
G01 X2.2260 Y0.1392 
G01 X2.2271 Y0.1464 
G01 X2.2271 Y0.1536 
G01 X2.2260 Y0.1608 
G01 X2.2237 Y0.1677 
G01 X2.2204 Y0.1742 
G01 X2.2162 Y0.1800 
G01 X2.2110 Y0.1852 
G01 X2.2052 Y0.1894 
G01 X2.1987 Y0.1927 
G01 X2.1918 Y0.1950 
G01 X2.1846 Y0.1961 
G01 X2.1154 Y0.1961 
G01 X2.1082 Y0.1950 
G01 X2.1013 Y0.1927 
G01 X2.0948 Y0.1894 
G01 X2.0890 Y0.1852 
G01 X2.0838 Y0.1800 
G01 X2.0796 Y0.1742 
G01 X2.0763 Y0.1677 
G01 X2.0740 Y0.1608 
G01 X2.0729 Y0.1536 
G01 X2.0729 Y0.1464 
G01 X2.0740 Y0.1392 
G01 X2.0763 Y0.1323 
G01 X2.0796 Y0.1258 
G01 X2.0838 Y0.1200 
G01 X2.0890 Y0.1148 
G01 X2.0948 Y0.1106 
G01 X2.1013 Y0.1073 
G01 X2.1082 Y0.1050 
G01 X2.1154 Y0.1039 
G00 Z0.0200 
G00 X2.1154 Y0.2039 
G01 Z-0.0100 F10.00 
G01 X2.1846 Y0.2039 
G01 X2.1918 Y0.2050 
G01 X2.1987 Y0.2073 
G01 X2.2052 Y0.2106 
G01 X2.2110 Y0.2148 
G01 X2.2162 Y0.2200 
G01 X2.2204 Y0.2258 
G01 X2.2237 Y0.2323 
G01 X2.2260 Y0.2392 
G01 X2.2271 Y0.2464 
G01 X2.2271 Y0.2536 
G01 X2.2260 Y0.2608 
G01 X2.2237 Y0.2677 
G01 X2.2204 Y0.2742 
G01 X2.2162 Y0.2800 
G01 X2.2110 Y0.2852 
G01 X2.2052 Y0.2894 
G01 X2.1987 Y0.2927 
G01 X2.1918 Y0.2950 
G01 X2.1846 Y0.2961 
G01 X2.1154 Y0.2961 
G01 X2.1082 Y0.2950 
G01 X2.1013 Y0.2927 
G01 X2.0948 Y0.2894 
G01 X2.0890 Y0.2852 
G01 X2.0838 Y0.2800 
G01 X2.0796 Y0.2742 
G01 X2.0763 Y0.2677 
G01 X2.0740 Y0.2608 
G01 X2.0729 Y0.2536 
G01 X2.0729 Y0.2464 
G01 X2.0740 Y0.2392 
G01 X2.0763 Y0.2323 
G01 X2.0796 Y0.2258 
G01 X2.0838 Y0.2200 
G01 X2.0890 Y0.2148 
G01 X2.0948 Y0.2106 
G01 X2.1013 Y0.2073 
G01 X2.1082 Y0.2050 
G01 X2.1154 Y0.2039 
G00 Z0.0200 
G00 X2.1154 Y0.3039 
G01 Z-0.0100 F10.00 
G01 X2.1846 Y0.3039 
G01 X2.1918 Y0.3050 
G01 X2.1987 Y0.3073 
G01 X2.2052 Y0.3106 
G01 X2.2110 Y0.3148 
G01 X2.2162 Y0.3200 
G01 X2.2204 Y0.3258 
G01 X2.2237 Y0.3323 
G01 X2.2260 Y0.3392 
G01 X2.2271 Y0.3464 
G01 X2.2271 Y0.3536 
G01 X2.2260 Y0.3608 
G01 X2.2237 Y0.3677 
G01 X2.2204 Y0.3742 
G01 X2.2162 Y0.3800 
G01 X2.2110 Y0.3852 
G01 X2.2052 Y0.3894 
G01 X2.1987 Y0.3927 
G01 X2.1918 Y0.3950 
G01 X2.1846 Y0.3961 
G01 X2.1154 Y0.3961 
G01 X2.1082 Y0.3950 
G01 X2.1013 Y0.3927 
G01 X2.0948 Y0.3894 
G01 X2.0890 Y0.3852 
G01 X2.0838 Y0.3800 
G01 X2.0796 Y0.3742 
G01 X2.0763 Y0.3677 
G01 X2.0740 Y0.3608 
G01 X2.0729 Y0.3536 
G01 X2.0729 Y0.3464 
G01 X2.0740 Y0.3392 
G01 X2.0763 Y0.3323 
G01 X2.0796 Y0.3258 
G01 X2.0838 Y0.3200 
G01 X2.0890 Y0.3148 
G01 X2.0948 Y0.3106 
G01 X2.1013 Y0.3073 
G01 X2.1082 Y0.3050 
G01 X2.1154 Y0.3039 
G00 Z0.0200 
G00 X1.8154 Y0.3039 
G01 Z-0.0100 F10.00 
G01 X1.8846 Y0.3039 
G01 X1.8918 Y0.3050 
G01 X1.8987 Y0.3073 
G01 X1.9052 Y0.3106 
G01 X1.9110 Y0.3148 
G01 X1.9162 Y0.3200 
G01 X1.9204 Y0.3258 
G01 X1.9237 Y0.3323 
G01 X1.9260 Y0.3392 
G01 X1.9271 Y0.3464 
G01 X1.9271 Y0.3536 
G01 X1.9260 Y0.3608 
G01 X1.9237 Y0.3677 
G01 X1.9204 Y0.3742 
G01 X1.9162 Y0.3800 
G01 X1.9110 Y0.3852 
G01 X1.9052 Y0.3894 
G01 X1.8987 Y0.3927 
G01 X1.8918 Y0.3950 
G01 X1.8846 Y0.3961 
G01 X1.8154 Y0.3961 
G01 X1.8082 Y0.3950 
G01 X1.8013 Y0.3927 
G01 X1.7948 Y0.3894 
G01 X1.7890 Y0.3852 
G01 X1.7838 Y0.3800 
G01 X1.7796 Y0.3742 
G01 X1.7763 Y0.3677 
G01 X1.7740 Y0.3608 
G01 X1.7729 Y0.3536 
G01 X1.7729 Y0.3464 
G01 X1.7740 Y0.3392 
G01 X1.7763 Y0.3323 
G01 X1.7796 Y0.3258 
G01 X1.7838 Y0.3200 
G01 X1.7890 Y0.3148 
G01 X1.7948 Y0.3106 
G01 X1.8013 Y0.3073 
G01 X1.8082 Y0.3050 
G01 X1.8154 Y0.3039 
G00 Z0.0200 
G00 X1.8154 Y0.2039 
G01 Z-0.0100 F10.00 
G01 X1.8846 Y0.2039 
G01 X1.8918 Y0.2050 
G01 X1.8987 Y0.2073 
G01 X1.9052 Y0.2106 
G01 X1.9110 Y0.2148 
G01 X1.9162 Y0.2200 
G01 X1.9204 Y0.2258 
G01 X1.9237 Y0.2323 
G01 X1.9260 Y0.2392 
G01 X1.9271 Y0.2464 
G01 X1.9271 Y0.2536 
G01 X1.9260 Y0.2608 
G01 X1.9237 Y0.2677 
G01 X1.9204 Y0.2742 
G01 X1.9162 Y0.2800 
G01 X1.9110 Y0.2852 
G01 X1.9052 Y0.2894 
G01 X1.8987 Y0.2927 
G01 X1.8918 Y0.2950 
G01 X1.8846 Y0.2961 
G01 X1.8154 Y0.2961 
G01 X1.8082 Y0.2950 
G01 X1.8013 Y0.2927 
G01 X1.7948 Y0.2894 
G01 X1.7890 Y0.2852 
G01 X1.7838 Y0.2800 
G01 X1.7796 Y0.2742 
G01 X1.7763 Y0.2677 
G01 X1.7740 Y0.2608 
G01 X1.7729 Y0.2536 
G01 X1.7729 Y0.2464 
G01 X1.7740 Y0.2392 
G01 X1.7763 Y0.2323 
G01 X1.7796 Y0.2258 
G01 X1.7838 Y0.2200 
G01 X1.7890 Y0.2148 
G01 X1.7948 Y0.2106 
G01 X1.8013 Y0.2073 
G01 X1.8082 Y0.2050 
G01 X1.8154 Y0.2039 
G00 Z0.0200 
G00 X1.8154 Y0.1039 
G01 Z-0.0100 F10.00 
G01 X1.8846 Y0.1039 
G01 X1.8918 Y0.1050 
G01 X1.8987 Y0.1073 
G01 X1.9052 Y0.1106 
G01 X1.9110 Y0.1148 
G01 X1.9162 Y0.1200 
G01 X1.9204 Y0.1258 
G01 X1.9237 Y0.1323 
G01 X1.9260 Y0.1392 
G01 X1.9271 Y0.1464 
G01 X1.9271 Y0.1536 
G01 X1.9260 Y0.1608 
G01 X1.9237 Y0.1677 
G01 X1.9204 Y0.1742 
G01 X1.9162 Y0.1800 
G01 X1.9110 Y0.1852 
G01 X1.9052 Y0.1894 
G01 X1.8987 Y0.1927 
G01 X1.8918 Y0.1950 
G01 X1.8846 Y0.1961 
G01 X1.8154 Y0.1961 
G01 X1.8082 Y0.1950 
G01 X1.8013 Y0.1927 
G01 X1.7948 Y0.1894 
G01 X1.7890 Y0.1852 
G01 X1.7838 Y0.1800 
G01 X1.7796 Y0.1742 
G01 X1.7763 Y0.1677 
G01 X1.7740 Y0.1608 
G01 X1.7729 Y0.1536 
G01 X1.7729 Y0.1464 
G01 X1.7740 Y0.1392 
G01 X1.7763 Y0.1323 
G01 X1.7796 Y0.1258 
G01 X1.7838 Y0.1200 
G01 X1.7890 Y0.1148 
G01 X1.7948 Y0.1106 
G01 X1.8013 Y0.1073 
G01 X1.8082 Y0.1050 
G01 X1.8154 Y0.1039 
G00 Z0.0200 
G00 X1.8461 Y0.6609 
G01 Z-0.0100 F10.00 
G01 X1.8461 Y0.6991 
G01 X1.8191 Y0.7261 
G01 X1.7809 Y0.7261 
G01 X1.7539 Y0.6991 
G01 X1.7539 Y0.6609 
G01 X1.7809 Y0.6339 
G01 X1.8191 Y0.6339 
G01 X1.8461 Y0.6609 
G00 Z0.0200 
G00 X1.8461 Y0.4609 
G01 Z-0.0100 F10.00 
G01 X1.8461 Y0.4991 
G01 X1.8191 Y0.5261 
G01 X1.7809 Y0.5261 
G01 X1.7539 Y0.4991 
G01 X1.7539 Y0.4609 
G01 X1.7809 Y0.4339 
G01 X1.8191 Y0.4339 
G01 X1.8461 Y0.4609 
G00 Z0.0200 
G00 X1.9661 Y0.6609 
G01 Z-0.0100 F10.00 
G01 X1.9661 Y0.6991 
G01 X1.9391 Y0.7261 
G01 X1.9009 Y0.7261 
G01 X1.8739 Y0.6991 
G01 X1.8739 Y0.6609 
G01 X1.9009 Y0.6339 
G01 X1.9391 Y0.6339 
G01 X1.9661 Y0.6609 
G00 Z0.0200 
G00 X1.9661 Y0.4609 
G01 Z-0.0100 F10.00 
G01 X1.9661 Y0.4991 
G01 X1.9391 Y0.5261 
G01 X1.9009 Y0.5261 
G01 X1.8739 Y0.4991 
G01 X1.8739 Y0.4609 
G01 X1.9009 Y0.4339 
G01 X1.9391 Y0.4339 
G01 X1.9661 Y0.4609 
G00 Z0.0200 
G00 X2.0861 Y0.6609 
G01 Z-0.0100 F10.00 
G01 X2.0861 Y0.6991 
G01 X2.0591 Y0.7261 
G01 X2.0209 Y0.7261 
G01 X1.9939 Y0.6991 
G01 X1.9939 Y0.6609 
G01 X2.0209 Y0.6339 
G01 X2.0591 Y0.6339 
G01 X2.0861 Y0.6609 
G00 Z0.0200 
G00 X2.0861 Y0.4609 
G01 Z-0.0100 F10.00 
G01 X2.0861 Y0.4991 
G01 X2.0591 Y0.5261 
G01 X2.0209 Y0.5261 
G01 X1.9939 Y0.4991 
G01 X1.9939 Y0.4609 
G01 X2.0209 Y0.4339 
G01 X2.0591 Y0.4339 
G01 X2.0861 Y0.4609 
G00 Z0.0200 
G00 X1.3161 Y0.2109 
G01 Z-0.0100 F10.00 
G01 X1.3161 Y0.2491 
G01 X1.2891 Y0.2761 
G01 X1.2509 Y0.2761 
G01 X1.2239 Y0.2491 
G01 X1.2239 Y0.2109 
G01 X1.2509 Y0.1839 
G01 X1.2891 Y0.1839 
G01 X1.3161 Y0.2109 
G00 Z0.0200 
G00 X1.4161 Y0.2109 
G01 Z-0.0100 F10.00 
G01 X1.4161 Y0.2491 
G01 X1.3891 Y0.2761 
G01 X1.3509 Y0.2761 
G01 X1.3239 Y0.2491 
G01 X1.3239 Y0.2109 
G01 X1.3509 Y0.1839 
G01 X1.3891 Y0.1839 
G01 X1.4161 Y0.2109 
G00 Z0.0200 
G00 X2.3651 Y1.0030 
G01 Z-0.0100 F10.00 
G01 X2.3651 Y1.0570 
G01 X2.3270 Y1.0951 
G01 X2.2730 Y1.0951 
G01 X2.2349 Y1.0570 
G01 X2.2349 Y1.0030 
G01 X2.2730 Y0.9649 
G01 X2.3270 Y0.9649 
G01 X2.3651 Y1.0030 
G00 Z0.0200 
G00 X2.0651 Y1.0030 
G01 Z-0.0100 F10.00 
G01 X2.0651 Y1.0570 
G01 X2.0270 Y1.0951 
G01 X1.9730 Y1.0951 
G01 X1.9349 Y1.0570 
G01 X1.9349 Y1.0030 
G01 X1.9730 Y0.9649 
G01 X2.0270 Y0.9649 
G01 X2.0651 Y1.0030 
G00 Z0.0200 
G00 X0.5561 Y0.9809 
G01 Z-0.0100 F10.00 
G01 X0.5561 Y1.0191 
G01 X0.5291 Y1.0461 
G01 X0.4909 Y1.0461 
G01 X0.4639 Y1.0191 
G01 X0.4639 Y0.9809 
G01 X0.4909 Y0.9539 
G01 X0.5291 Y0.9539 
G01 X0.5561 Y0.9809 
G00 Z0.0200 
G00 X0.4561 Y0.9809 
G01 Z-0.0100 F10.00 
G01 X0.4561 Y1.0191 
G01 X0.4291 Y1.0461 
G01 X0.3909 Y1.0461 
G01 X0.3639 Y1.0191 
G01 X0.3639 Y0.9809 
G01 X0.3909 Y0.9539 
G01 X0.4291 Y0.9539 
G01 X0.4561 Y0.9809 
G00 Z0.0200 
G00 X1.4361 Y1.1509 
G01 Z-0.0100 F10.00 
G01 X1.4361 Y1.1891 
G01 X1.4263 Y1.1989 
G01 X1.4537 Y1.1989 
G01 X1.4439 Y1.1891 
G01 X1.4439 Y1.1509 
G01 X1.4709 Y1.1239 
G01 X1.5091 Y1.1239 
G01 X1.5361 Y1.1509 
G01 X1.5361 Y1.1891 
G01 X1.5091 Y1.2161 
G01 X1.4763 Y1.2161 
G01 X1.4861 Y1.2259 
G01 X1.4861 Y1.2641 
G01 X1.4591 Y1.2911 
G01 X1.4209 Y1.2911 
G01 X1.3939 Y1.2641 
G01 X1.3939 Y1.2259 
G01 X1.4037 Y1.2161 
G01 X1.3709 Y1.2161 
G01 X1.3439 Y1.1891 
G01 X1.3439 Y1.1509 
G01 X1.3709 Y1.1239 
G01 X1.4091 Y1.1239 
G01 X1.4361 Y1.1509 
G00 Z0.0200 
G00 X1.1743 Y1.2178 
G01 Z-0.0100 F10.00 
G01 X1.1678 Y1.2243 
G01 X1.1605 Y1.2297 
G01 X1.1523 Y1.2338 
G01 X1.1436 Y1.2367 
G01 X1.1346 Y1.2381 
G01 X1.1254 Y1.2381 
G01 X1.1164 Y1.2367 
G01 X1.1077 Y1.2338 
G01 X1.0995 Y1.2297 
G01 X1.0922 Y1.2243 
G01 X1.0857 Y1.2178 
G01 X1.0803 Y1.2105 
G01 X1.0762 Y1.2023 
G01 X1.0733 Y1.1936 
G01 X1.0719 Y1.1846 
G01 X1.0719 Y1.1754 
G01 X1.0733 Y1.1664 
G01 X1.0762 Y1.1577 
G01 X1.0803 Y1.1495 
G01 X1.0857 Y1.1422 
G01 X1.0922 Y1.1357 
G01 X1.0995 Y1.1303 
G01 X1.1077 Y1.1262 
G01 X1.1164 Y1.1233 
G01 X1.1254 Y1.1219 
G01 X1.1346 Y1.1219 
G01 X1.1436 Y1.1233 
G01 X1.1523 Y1.1262 
G01 X1.1605 Y1.1303 
